(BLOCK CAM ASSEMBLY_CAM001)
(T1  D=6. CR=0. - ZMIN=-0.1 - SCHAFTFRSER)
G90 G94 G91.1 G40 G49 G17
G21
G28 G91 Z0.
G90

(2D ADAPTIVE1)
M5
M9
T1 M6
S10000 M3
G54
M7
G0 X35.387 Y110.459
G43 Z23. H1
Z13.
Z8.705
G1 Z8.105 F200.
X35.385 Y110.452 Z8.011
X35.38 Y110.431 Z7.92
X35.371 Y110.396 Z7.833
X35.359 Y110.348 Z7.752
X35.344 Y110.289 Z7.681
X35.326 Y110.22 Z7.62
X35.306 Y110.142 Z7.57
X35.284 Y110.058 Z7.534
X35.262 Y109.969 Z7.512
X35.238 Y109.878 Z7.505
G3 X34.97 Y108.012 R8.75
G1 Y107.862 F600.
X35.236 Y107.017
X35.426 Y106.151
X35.56 Y105.275
X35.654 Y104.394
X35.72 Y103.511
X35.766 Y102.626
X35.798 Y101.74
X35.82 Y100.854
X35.836 Y99.968
X35.846 Y99.082
X35.854 Y98.196
X35.859 Y97.31
X35.862 Y96.424
X35.866 Y94.652
X35.869 Y91.993
X35.87 Y83.132
Y57.435
Y6.926
Y2.495
X35.738 Y2.072
X35.3 Y1.302
X34.647 Y0.703
X34.54 Y0.64
X34.273 Y0.443
X34.051 Y0.195
X33.886 Y-0.093
X33.784 Y-0.41
X33.75 Y-0.74
G3 X34.95 Y-0.713 R0.6
X34.949 Y-0.698 R0.6
G1 X34.946 Y-0.604 Z7.512
X34.943 Y-0.513 Z7.534
X34.94 Y-0.426 Z7.57
X34.937 Y-0.346 Z7.62
X34.934 Y-0.274 Z7.681
X34.932 Y-0.213 Z7.752
X34.931 Y-0.164 Z7.833
X34.929 Y-0.128 Z7.92
Y-0.106 Z8.011
X34.928 Y-0.098 Z8.105
G0 Z13.
X34.588 Y110.081
Z8.705
G1 Z8.105 F200.
X34.584 Y110.075 Z8.011
X34.573 Y110.056 Z7.92
X34.554 Y110.025 Z7.833
X34.529 Y109.982 Z7.752
X34.498 Y109.93 Z7.681
X34.461 Y109.868 Z7.62
X34.42 Y109.799 Z7.57
X34.376 Y109.725 Z7.534
X34.329 Y109.646 Z7.512
X34.281 Y109.565 Z7.505
G3 X33.75 Y107.757 R3.798
G1 Y0.062 F600.
G3 X34.691 Y-0.411 R0.6
G1 X34.743 Y-0.358 Z7.51
X34.795 Y-0.307 Z7.523
X34.844 Y-0.257 Z7.546
X34.877 Y-0.185 Z7.584
X34.906 Y-0.118 Z7.634
X34.933 Y-0.059 Z7.693
X34.938 Y-0.012 Z7.75
X34.943 Y0.027 Z7.812
X34.947 Y0.059 Z7.878
X34.95 Y0.082 Z7.948
Y0.088 Z7.972
X34.949 Y0.1 Z8.038
Y0.103 Z8.105
G0 Z13.
X35.387 Y110.459
Z8.21
G1 Z7.61 F200.
X35.385 Y110.452 Z7.516
X35.38 Y110.431 Z7.425
X35.371 Y110.396 Z7.338
X35.359 Y110.348 Z7.257
X35.344 Y110.289 Z7.186
X35.326 Y110.22 Z7.125
X35.306 Y110.142 Z7.075
X35.284 Y110.058 Z7.039
X35.262 Y109.969 Z7.017
X35.238 Y109.878 Z7.01
G3 X34.97 Y108.012 R8.75
G1 Y107.862 F600.
X35.236 Y107.017
X35.426 Y106.151
X35.56 Y105.275
X35.654 Y104.394
X35.72 Y103.511
X35.766 Y102.626
X35.798 Y101.74
X35.82 Y100.854
X35.836 Y99.968
X35.846 Y99.082
X35.854 Y98.196
X35.859 Y97.31
X35.862 Y96.424
X35.866 Y94.652
X35.869 Y91.993
X35.87 Y83.132
Y57.435
Y6.926
Y2.495
X35.738 Y2.072
X35.3 Y1.302
X34.647 Y0.703
X34.54 Y0.64
X34.273 Y0.443
X34.051 Y0.195
X33.886 Y-0.093
X33.784 Y-0.41
X33.75 Y-0.74
G3 X34.95 Y-0.713 R0.6
X34.949 Y-0.698 R0.6
G1 X34.946 Y-0.604 Z7.017
X34.943 Y-0.513 Z7.039
X34.94 Y-0.426 Z7.075
X34.937 Y-0.346 Z7.125
X34.934 Y-0.274 Z7.186
X34.932 Y-0.213 Z7.257
X34.931 Y-0.164 Z7.338
X34.929 Y-0.128 Z7.425
Y-0.106 Z7.516
X34.928 Y-0.098 Z7.61
G0 Z13.
X34.588 Y110.081
Z8.21
G1 Z7.61 F200.
X34.584 Y110.075 Z7.516
X34.573 Y110.056 Z7.425
X34.554 Y110.025 Z7.338
X34.529 Y109.982 Z7.257
X34.498 Y109.93 Z7.186
X34.461 Y109.868 Z7.125
X34.42 Y109.799 Z7.075
X34.376 Y109.725 Z7.039
X34.329 Y109.646 Z7.017
X34.281 Y109.565 Z7.01
G3 X33.75 Y107.757 R3.798
G1 Y0.062 F600.
G3 X34.691 Y-0.411 R0.6
G1 X34.743 Y-0.358 Z7.015
X34.795 Y-0.307 Z7.028
X34.844 Y-0.257 Z7.051
X34.877 Y-0.185 Z7.089
X34.906 Y-0.118 Z7.139
X34.933 Y-0.059 Z7.198
X34.938 Y-0.012 Z7.255
X34.943 Y0.027 Z7.317
X34.947 Y0.059 Z7.383
X34.95 Y0.082 Z7.453
Y0.088 Z7.477
X34.949 Y0.1 Z7.543
Y0.103 Z7.61
G0 Z7.715
X35.387 Y110.459
G1 Z7.115 F200.
X35.385 Y110.452 Z7.021
X35.38 Y110.431 Z6.93
X35.371 Y110.396 Z6.843
X35.359 Y110.348 Z6.762
X35.344 Y110.289 Z6.691
X35.326 Y110.22 Z6.63
X35.306 Y110.142 Z6.58
X35.284 Y110.058 Z6.544
X35.262 Y109.969 Z6.522
X35.238 Y109.878 Z6.515
G3 X34.97 Y108.012 R8.75
G1 Y107.862 F600.
X35.236 Y107.017
X35.426 Y106.151
X35.56 Y105.275
X35.654 Y104.394
X35.72 Y103.511
X35.766 Y102.626
X35.798 Y101.74
X35.82 Y100.854
X35.836 Y99.968
X35.846 Y99.082
X35.854 Y98.196
X35.859 Y97.31
X35.862 Y96.424
X35.866 Y94.652
X35.869 Y91.993
X35.87 Y83.132
Y57.435
Y6.926
Y2.495
X35.738 Y2.072
X35.3 Y1.302
X34.647 Y0.703
X34.54 Y0.64
X34.273 Y0.443
X34.051 Y0.195
X33.886 Y-0.093
X33.784 Y-0.41
X33.75 Y-0.74
G3 X34.95 Y-0.713 R0.6
X34.949 Y-0.698 R0.6
G1 X34.946 Y-0.604 Z6.522
X34.943 Y-0.513 Z6.544
X34.94 Y-0.426 Z6.58
X34.937 Y-0.346 Z6.63
X34.934 Y-0.274 Z6.691
X34.932 Y-0.213 Z6.762
X34.931 Y-0.164 Z6.843
X34.929 Y-0.128 Z6.93
Y-0.106 Z7.021
X34.928 Y-0.098 Z7.115
G0 Z7.715
X34.588 Y110.081
G1 Z7.115 F200.
X34.584 Y110.075 Z7.021
X34.573 Y110.056 Z6.93
X34.554 Y110.025 Z6.843
X34.529 Y109.982 Z6.762
X34.498 Y109.93 Z6.691
X34.461 Y109.868 Z6.63
X34.42 Y109.799 Z6.58
X34.376 Y109.725 Z6.544
X34.329 Y109.646 Z6.522
X34.281 Y109.565 Z6.515
G3 X33.75 Y107.757 R3.798
G1 Y0.062 F600.
G3 X34.691 Y-0.411 R0.6
G1 X34.743 Y-0.358 Z6.52
X34.795 Y-0.307 Z6.533
X34.844 Y-0.257 Z6.556
X34.877 Y-0.185 Z6.594
X34.906 Y-0.118 Z6.644
X34.933 Y-0.059 Z6.703
X34.938 Y-0.012 Z6.76
X34.943 Y0.027 Z6.822
X34.947 Y0.059 Z6.888
X34.95 Y0.082 Z6.958
Y0.088 Z6.982
X34.949 Y0.1 Z7.048
Y0.103 Z7.115
G0 Z7.22
X35.387 Y110.459
G1 Z6.62 F200.
X35.385 Y110.452 Z6.526
X35.38 Y110.431 Z6.435
X35.371 Y110.396 Z6.348
X35.359 Y110.348 Z6.267
X35.344 Y110.289 Z6.196
X35.326 Y110.22 Z6.135
X35.306 Y110.142 Z6.085
X35.284 Y110.058 Z6.049
X35.262 Y109.969 Z6.027
X35.238 Y109.878 Z6.02
G3 X34.97 Y108.012 R8.75
G1 Y107.862 F600.
X35.236 Y107.017
X35.426 Y106.151
X35.56 Y105.275
X35.654 Y104.394
X35.72 Y103.511
X35.766 Y102.626
X35.798 Y101.74
X35.82 Y100.854
X35.836 Y99.968
X35.846 Y99.082
X35.854 Y98.196
X35.859 Y97.31
X35.862 Y96.424
X35.866 Y94.652
X35.869 Y91.993
X35.87 Y83.132
Y57.435
Y6.926
Y2.495
X35.738 Y2.072
X35.3 Y1.302
X34.647 Y0.703
X34.54 Y0.64
X34.273 Y0.443
X34.051 Y0.195
X33.886 Y-0.093
X33.784 Y-0.41
X33.75 Y-0.74
G3 X34.95 Y-0.713 R0.6
X34.949 Y-0.698 R0.6
G1 X34.946 Y-0.604 Z6.027
X34.943 Y-0.513 Z6.049
X34.94 Y-0.426 Z6.085
X34.937 Y-0.346 Z6.135
X34.934 Y-0.274 Z6.196
X34.932 Y-0.213 Z6.267
X34.931 Y-0.164 Z6.348
X34.929 Y-0.128 Z6.435
Y-0.106 Z6.526
X34.928 Y-0.098 Z6.62
G0 Z7.22
X34.588 Y110.081
G1 Z6.62 F200.
X34.584 Y110.075 Z6.526
X34.573 Y110.056 Z6.435
X34.554 Y110.025 Z6.348
X34.529 Y109.982 Z6.267
X34.498 Y109.93 Z6.196
X34.461 Y109.868 Z6.135
X34.42 Y109.799 Z6.085
X34.376 Y109.725 Z6.049
X34.329 Y109.646 Z6.027
X34.281 Y109.565 Z6.02
G3 X33.75 Y107.757 R3.798
G1 Y0.062 F600.
G3 X34.691 Y-0.411 R0.6
G1 X34.743 Y-0.358 Z6.025
X34.795 Y-0.307 Z6.038
X34.844 Y-0.257 Z6.061
X34.877 Y-0.185 Z6.099
X34.906 Y-0.118 Z6.149
X34.933 Y-0.059 Z6.208
X34.938 Y-0.012 Z6.265
X34.943 Y0.027 Z6.327
X34.947 Y0.059 Z6.393
X34.95 Y0.082 Z6.463
Y0.088 Z6.487
X34.949 Y0.1 Z6.553
Y0.103 Z6.62
G0 Z6.725
X35.387 Y110.459
G1 Z6.125 F200.
X35.385 Y110.452 Z6.031
X35.38 Y110.431 Z5.94
X35.371 Y110.396 Z5.853
X35.359 Y110.348 Z5.772
X35.344 Y110.289 Z5.701
X35.326 Y110.22 Z5.64
X35.306 Y110.142 Z5.59
X35.284 Y110.058 Z5.554
X35.262 Y109.969 Z5.532
X35.238 Y109.878 Z5.525
G3 X34.97 Y108.012 R8.75
G1 Y107.862 F600.
X35.236 Y107.017
X35.426 Y106.151
X35.56 Y105.275
X35.654 Y104.394
X35.72 Y103.511
X35.766 Y102.626
X35.798 Y101.74
X35.82 Y100.854
X35.836 Y99.968
X35.846 Y99.082
X35.854 Y98.196
X35.859 Y97.31
X35.862 Y96.424
X35.866 Y94.652
X35.869 Y91.993
X35.87 Y83.132
Y57.435
Y6.926
Y2.495
X35.738 Y2.072
X35.3 Y1.302
X34.647 Y0.703
X34.54 Y0.64
X34.273 Y0.443
X34.051 Y0.195
X33.886 Y-0.093
X33.784 Y-0.41
X33.75 Y-0.74
G3 X34.95 Y-0.713 R0.6
X34.949 Y-0.698 R0.6
G1 X34.946 Y-0.604 Z5.532
X34.943 Y-0.513 Z5.554
X34.94 Y-0.426 Z5.59
X34.937 Y-0.346 Z5.64
X34.934 Y-0.274 Z5.701
X34.932 Y-0.213 Z5.772
X34.931 Y-0.164 Z5.853
X34.929 Y-0.128 Z5.94
Y-0.106 Z6.031
X34.928 Y-0.098 Z6.125
G0 Z6.725
X34.588 Y110.081
G1 Z6.125 F200.
X34.584 Y110.075 Z6.031
X34.573 Y110.056 Z5.94
X34.554 Y110.025 Z5.853
X34.529 Y109.982 Z5.772
X34.498 Y109.93 Z5.701
X34.461 Y109.868 Z5.64
X34.42 Y109.799 Z5.59
X34.376 Y109.725 Z5.554
X34.329 Y109.646 Z5.532
X34.281 Y109.565 Z5.525
G3 X33.75 Y107.757 R3.798
G1 Y0.062 F600.
G3 X34.691 Y-0.411 R0.6
G1 X34.743 Y-0.358 Z5.53
X34.795 Y-0.307 Z5.543
X34.844 Y-0.257 Z5.566
X34.877 Y-0.185 Z5.604
X34.906 Y-0.118 Z5.654
X34.933 Y-0.059 Z5.713
X34.938 Y-0.012 Z5.77
X34.943 Y0.027 Z5.832
X34.947 Y0.059 Z5.898
X34.95 Y0.082 Z5.968
Y0.088 Z5.992
X34.949 Y0.1 Z6.058
Y0.103 Z6.125
G0 Z6.23
X35.387 Y110.459
G1 Z5.63 F200.
X35.385 Y110.452 Z5.536
X35.38 Y110.431 Z5.445
X35.371 Y110.396 Z5.358
X35.359 Y110.348 Z5.277
X35.344 Y110.289 Z5.206
X35.326 Y110.22 Z5.145
X35.306 Y110.142 Z5.095
X35.284 Y110.058 Z5.059
X35.262 Y109.969 Z5.037
X35.238 Y109.878 Z5.03
G3 X34.97 Y108.012 R8.75
G1 Y107.862 F600.
X35.236 Y107.017
X35.426 Y106.151
X35.56 Y105.275
X35.654 Y104.394
X35.72 Y103.511
X35.766 Y102.626
X35.798 Y101.74
X35.82 Y100.854
X35.836 Y99.968
X35.846 Y99.082
X35.854 Y98.196
X35.859 Y97.31
X35.862 Y96.424
X35.866 Y94.652
X35.869 Y91.993
X35.87 Y83.132
Y57.435
Y6.926
Y2.495
X35.738 Y2.072
X35.3 Y1.302
X34.647 Y0.703
X34.54 Y0.64
X34.273 Y0.443
X34.051 Y0.195
X33.886 Y-0.093
X33.784 Y-0.41
X33.75 Y-0.74
G3 X34.95 Y-0.713 R0.6
X34.949 Y-0.698 R0.6
G1 X34.946 Y-0.604 Z5.037
X34.943 Y-0.513 Z5.059
X34.94 Y-0.426 Z5.095
X34.937 Y-0.346 Z5.145
X34.934 Y-0.274 Z5.206
X34.932 Y-0.213 Z5.277
X34.931 Y-0.164 Z5.358
X34.929 Y-0.128 Z5.445
Y-0.106 Z5.536
X34.928 Y-0.098 Z5.63
G0 Z6.23
X34.588 Y110.081
G1 Z5.63 F200.
X34.584 Y110.075 Z5.536
X34.573 Y110.056 Z5.445
X34.554 Y110.025 Z5.358
X34.529 Y109.982 Z5.277
X34.498 Y109.93 Z5.206
X34.461 Y109.868 Z5.145
X34.42 Y109.799 Z5.095
X34.376 Y109.725 Z5.059
X34.329 Y109.646 Z5.037
X34.281 Y109.565 Z5.03
G3 X33.75 Y107.757 R3.798
G1 Y0.062 F600.
G3 X34.691 Y-0.411 R0.6
G1 X34.743 Y-0.358 Z5.035
X34.795 Y-0.307 Z5.048
X34.844 Y-0.257 Z5.071
X34.877 Y-0.185 Z5.109
X34.906 Y-0.118 Z5.159
X34.933 Y-0.059 Z5.218
X34.938 Y-0.012 Z5.275
X34.943 Y0.027 Z5.337
X34.947 Y0.059 Z5.403
X34.95 Y0.082 Z5.473
Y0.088 Z5.497
X34.949 Y0.1 Z5.563
Y0.103 Z5.63
G0 Z5.735
X35.387 Y110.459
G1 Z5.135 F200.
X35.385 Y110.452 Z5.041
X35.38 Y110.431 Z4.95
X35.371 Y110.396 Z4.863
X35.359 Y110.348 Z4.782
X35.344 Y110.289 Z4.711
X35.326 Y110.22 Z4.65
X35.306 Y110.142 Z4.6
X35.284 Y110.058 Z4.564
X35.262 Y109.969 Z4.542
X35.238 Y109.878 Z4.535
G3 X34.97 Y108.012 R8.75
G1 Y107.862 F600.
X35.236 Y107.017
X35.426 Y106.151
X35.56 Y105.275
X35.654 Y104.394
X35.72 Y103.511
X35.766 Y102.626
X35.798 Y101.74
X35.82 Y100.854
X35.836 Y99.968
X35.846 Y99.082
X35.854 Y98.196
X35.859 Y97.31
X35.862 Y96.424
X35.866 Y94.652
X35.869 Y91.993
X35.87 Y83.132
Y57.435
Y6.926
Y2.495
X35.738 Y2.072
X35.3 Y1.302
X34.647 Y0.703
X34.54 Y0.64
X34.273 Y0.443
X34.051 Y0.195
X33.886 Y-0.093
X33.784 Y-0.41
X33.75 Y-0.74
G3 X34.95 Y-0.713 R0.6
X34.949 Y-0.698 R0.6
G1 X34.946 Y-0.604 Z4.542
X34.943 Y-0.513 Z4.564
X34.94 Y-0.426 Z4.6
X34.937 Y-0.346 Z4.65
X34.934 Y-0.274 Z4.711
X34.932 Y-0.213 Z4.782
X34.931 Y-0.164 Z4.863
X34.929 Y-0.128 Z4.95
Y-0.106 Z5.041
X34.928 Y-0.098 Z5.135
G0 Z5.735
X34.588 Y110.081
G1 Z5.135 F200.
X34.584 Y110.075 Z5.041
X34.573 Y110.056 Z4.95
X34.554 Y110.025 Z4.863
X34.529 Y109.982 Z4.782
X34.498 Y109.93 Z4.711
X34.461 Y109.868 Z4.65
X34.42 Y109.799 Z4.6
X34.376 Y109.725 Z4.564
X34.329 Y109.646 Z4.542
X34.281 Y109.565 Z4.535
G3 X33.75 Y107.757 R3.798
G1 Y0.062 F600.
G3 X34.691 Y-0.411 R0.6
G1 X34.743 Y-0.358 Z4.54
X34.795 Y-0.307 Z4.553
X34.844 Y-0.257 Z4.576
X34.877 Y-0.185 Z4.614
X34.906 Y-0.118 Z4.664
X34.933 Y-0.059 Z4.723
X34.938 Y-0.012 Z4.78
X34.943 Y0.027 Z4.842
X34.947 Y0.059 Z4.908
X34.95 Y0.082 Z4.978
Y0.088 Z5.002
X34.949 Y0.1 Z5.068
Y0.103 Z5.135
G0 Z5.24
X35.387 Y110.459
G1 Z4.64 F200.
X35.385 Y110.452 Z4.546
X35.38 Y110.431 Z4.455
X35.371 Y110.396 Z4.368
X35.359 Y110.348 Z4.287
X35.344 Y110.289 Z4.216
X35.326 Y110.22 Z4.155
X35.306 Y110.142 Z4.105
X35.284 Y110.058 Z4.069
X35.262 Y109.969 Z4.047
X35.238 Y109.878 Z4.04
G3 X34.97 Y108.012 R8.75
G1 Y107.862 F600.
X35.236 Y107.017
X35.426 Y106.151
X35.56 Y105.275
X35.654 Y104.394
X35.72 Y103.511
X35.766 Y102.626
X35.798 Y101.74
X35.82 Y100.854
X35.836 Y99.968
X35.846 Y99.082
X35.854 Y98.196
X35.859 Y97.31
X35.862 Y96.424
X35.866 Y94.652
X35.869 Y91.993
X35.87 Y83.132
Y57.435
Y6.926
Y2.495
X35.738 Y2.072
X35.3 Y1.302
X34.647 Y0.703
X34.54 Y0.64
X34.273 Y0.443
X34.051 Y0.195
X33.886 Y-0.093
X33.784 Y-0.41
X33.75 Y-0.74
G3 X34.95 Y-0.713 R0.6
X34.949 Y-0.698 R0.6
G1 X34.946 Y-0.604 Z4.047
X34.943 Y-0.513 Z4.069
X34.94 Y-0.426 Z4.105
X34.937 Y-0.346 Z4.155
X34.934 Y-0.274 Z4.216
X34.932 Y-0.213 Z4.287
X34.931 Y-0.164 Z4.368
X34.929 Y-0.128 Z4.455
Y-0.106 Z4.546
X34.928 Y-0.098 Z4.64
G0 Z5.24
X34.588 Y110.081
G1 Z4.64 F200.
X34.584 Y110.075 Z4.546
X34.573 Y110.056 Z4.455
X34.554 Y110.025 Z4.368
X34.529 Y109.982 Z4.287
X34.498 Y109.93 Z4.216
X34.461 Y109.868 Z4.155
X34.42 Y109.799 Z4.105
X34.376 Y109.725 Z4.069
X34.329 Y109.646 Z4.047
X34.281 Y109.565 Z4.04
G3 X33.75 Y107.757 R3.798
G1 Y0.062 F600.
G3 X34.691 Y-0.411 R0.6
G1 X34.743 Y-0.358 Z4.045
X34.795 Y-0.307 Z4.058
X34.844 Y-0.257 Z4.081
X34.877 Y-0.185 Z4.119
X34.906 Y-0.118 Z4.169
X34.933 Y-0.059 Z4.228
X34.938 Y-0.012 Z4.285
X34.943 Y0.027 Z4.347
X34.947 Y0.059 Z4.413
X34.95 Y0.082 Z4.483
Y0.088 Z4.507
X34.949 Y0.1 Z4.573
Y0.103 Z4.64
G0 Z4.745
X35.387 Y110.459
G1 Z4.145 F200.
X35.385 Y110.452 Z4.051
X35.38 Y110.431 Z3.96
X35.371 Y110.396 Z3.873
X35.359 Y110.348 Z3.792
X35.344 Y110.289 Z3.721
X35.326 Y110.22 Z3.66
X35.306 Y110.142 Z3.61
X35.284 Y110.058 Z3.574
X35.262 Y109.969 Z3.552
X35.238 Y109.878 Z3.545
G3 X34.97 Y108.012 R8.75
G1 Y107.862 F600.
X35.236 Y107.017
X35.426 Y106.151
X35.56 Y105.275
X35.654 Y104.394
X35.72 Y103.511
X35.766 Y102.626
X35.798 Y101.74
X35.82 Y100.854
X35.836 Y99.968
X35.846 Y99.082
X35.854 Y98.196
X35.859 Y97.31
X35.862 Y96.424
X35.866 Y94.652
X35.869 Y91.993
X35.87 Y83.132
Y57.435
Y6.926
Y2.495
X35.738 Y2.072
X35.3 Y1.302
X34.647 Y0.703
X34.54 Y0.64
X34.273 Y0.443
X34.051 Y0.195
X33.886 Y-0.093
X33.784 Y-0.41
X33.75 Y-0.74
G3 X34.95 Y-0.713 R0.6
X34.949 Y-0.698 R0.6
G1 X34.946 Y-0.604 Z3.552
X34.943 Y-0.513 Z3.574
X34.94 Y-0.426 Z3.61
X34.937 Y-0.346 Z3.66
X34.934 Y-0.274 Z3.721
X34.932 Y-0.213 Z3.792
X34.931 Y-0.164 Z3.873
X34.929 Y-0.128 Z3.96
Y-0.106 Z4.051
X34.928 Y-0.098 Z4.145
G0 Z4.745
X34.588 Y110.081
G1 Z4.145 F200.
X34.584 Y110.075 Z4.051
X34.573 Y110.056 Z3.96
X34.554 Y110.025 Z3.873
X34.529 Y109.982 Z3.792
X34.498 Y109.93 Z3.721
X34.461 Y109.868 Z3.66
X34.42 Y109.799 Z3.61
X34.376 Y109.725 Z3.574
X34.329 Y109.646 Z3.552
X34.281 Y109.565 Z3.545
G3 X33.75 Y107.757 R3.798
G1 Y0.062 F600.
G3 X34.691 Y-0.411 R0.6
G1 X34.743 Y-0.358 Z3.55
X34.795 Y-0.307 Z3.563
X34.844 Y-0.257 Z3.586
X34.877 Y-0.185 Z3.624
X34.906 Y-0.118 Z3.674
X34.933 Y-0.059 Z3.733
X34.938 Y-0.012 Z3.79
X34.943 Y0.027 Z3.852
X34.947 Y0.059 Z3.918
X34.95 Y0.082 Z3.988
Y0.088 Z4.012
X34.949 Y0.1 Z4.078
Y0.103 Z4.145
G0 Z4.25
X35.387 Y110.459
G1 Z3.65 F200.
X35.385 Y110.452 Z3.556
X35.38 Y110.431 Z3.465
X35.371 Y110.396 Z3.378
X35.359 Y110.348 Z3.297
X35.344 Y110.289 Z3.226
X35.326 Y110.22 Z3.165
X35.306 Y110.142 Z3.115
X35.284 Y110.058 Z3.079
X35.262 Y109.969 Z3.057
X35.238 Y109.878 Z3.05
G3 X34.97 Y108.012 R8.75
G1 Y107.862 F600.
X35.236 Y107.017
X35.426 Y106.151
X35.56 Y105.275
X35.654 Y104.394
X35.72 Y103.511
X35.766 Y102.626
X35.798 Y101.74
X35.82 Y100.854
X35.836 Y99.968
X35.846 Y99.082
X35.854 Y98.196
X35.859 Y97.31
X35.862 Y96.424
X35.866 Y94.652
X35.869 Y91.993
X35.87 Y83.132
Y57.435
Y6.926
Y2.495
X35.738 Y2.072
X35.3 Y1.302
X34.647 Y0.703
X34.54 Y0.64
X34.273 Y0.443
X34.051 Y0.195
X33.886 Y-0.093
X33.784 Y-0.41
X33.75 Y-0.74
G3 X34.95 Y-0.713 R0.6
X34.949 Y-0.698 R0.6
G1 X34.946 Y-0.604 Z3.057
X34.943 Y-0.513 Z3.079
X34.94 Y-0.426 Z3.115
X34.937 Y-0.346 Z3.165
X34.934 Y-0.274 Z3.226
X34.932 Y-0.213 Z3.297
X34.931 Y-0.164 Z3.378
X34.929 Y-0.128 Z3.465
Y-0.106 Z3.556
X34.928 Y-0.098 Z3.65
G0 Z4.25
X34.588 Y110.081
G1 Z3.65 F200.
X34.584 Y110.075 Z3.556
X34.573 Y110.056 Z3.465
X34.554 Y110.025 Z3.378
X34.529 Y109.982 Z3.297
X34.498 Y109.93 Z3.226
X34.461 Y109.868 Z3.165
X34.42 Y109.799 Z3.115
X34.376 Y109.725 Z3.079
X34.329 Y109.646 Z3.057
X34.281 Y109.565 Z3.05
G3 X33.75 Y107.757 R3.798
G1 Y0.062 F600.
G3 X34.691 Y-0.411 R0.6
G1 X34.743 Y-0.358 Z3.055
X34.795 Y-0.307 Z3.068
X34.844 Y-0.257 Z3.091
X34.877 Y-0.185 Z3.129
X34.906 Y-0.118 Z3.179
X34.933 Y-0.059 Z3.238
X34.938 Y-0.012 Z3.295
X34.943 Y0.027 Z3.357
X34.947 Y0.059 Z3.423
X34.95 Y0.082 Z3.493
Y0.088 Z3.517
X34.949 Y0.1 Z3.583
Y0.103 Z3.65
G0 Z3.755
X35.387 Y110.459
G1 Z3.155 F200.
X35.385 Y110.452 Z3.061
X35.38 Y110.431 Z2.97
X35.371 Y110.396 Z2.883
X35.359 Y110.348 Z2.802
X35.344 Y110.289 Z2.731
X35.326 Y110.22 Z2.67
X35.306 Y110.142 Z2.62
X35.284 Y110.058 Z2.584
X35.262 Y109.969 Z2.562
X35.238 Y109.878 Z2.555
G3 X34.97 Y108.012 R8.75
G1 Y107.862 F600.
X35.236 Y107.017
X35.426 Y106.151
X35.56 Y105.275
X35.654 Y104.394
X35.72 Y103.511
X35.766 Y102.626
X35.798 Y101.74
X35.82 Y100.854
X35.836 Y99.968
X35.846 Y99.082
X35.854 Y98.196
X35.859 Y97.31
X35.862 Y96.424
X35.866 Y94.652
X35.869 Y91.993
X35.87 Y83.132
Y57.435
Y6.926
Y2.495
X35.738 Y2.072
X35.3 Y1.302
X34.647 Y0.703
X34.54 Y0.64
X34.273 Y0.443
X34.051 Y0.195
X33.886 Y-0.093
X33.784 Y-0.41
X33.75 Y-0.74
G3 X34.95 Y-0.713 R0.6
X34.949 Y-0.698 R0.6
G1 X34.946 Y-0.604 Z2.562
X34.943 Y-0.513 Z2.584
X34.94 Y-0.426 Z2.62
X34.937 Y-0.346 Z2.67
X34.934 Y-0.274 Z2.731
X34.932 Y-0.213 Z2.802
X34.931 Y-0.164 Z2.883
X34.929 Y-0.128 Z2.97
Y-0.106 Z3.061
X34.928 Y-0.098 Z3.155
G0 Z3.755
X34.588 Y110.081
G1 Z3.155 F200.
X34.584 Y110.075 Z3.061
X34.573 Y110.056 Z2.97
X34.554 Y110.025 Z2.883
X34.529 Y109.982 Z2.802
X34.498 Y109.93 Z2.731
X34.461 Y109.868 Z2.67
X34.42 Y109.799 Z2.62
X34.376 Y109.725 Z2.584
X34.329 Y109.646 Z2.562
X34.281 Y109.565 Z2.555
G3 X33.75 Y107.757 R3.798
G1 Y0.062 F600.
G3 X34.691 Y-0.411 R0.6
G1 X34.743 Y-0.358 Z2.56
X34.795 Y-0.307 Z2.573
X34.844 Y-0.257 Z2.596
X34.877 Y-0.185 Z2.634
X34.906 Y-0.118 Z2.684
X34.933 Y-0.059 Z2.743
X34.938 Y-0.012 Z2.8
X34.943 Y0.027 Z2.862
X34.947 Y0.059 Z2.928
X34.95 Y0.082 Z2.998
Y0.088 Z3.022
X34.949 Y0.1 Z3.088
Y0.103 Z3.155
G0 Z3.26
X35.387 Y110.459
G1 Z2.66 F200.
X35.385 Y110.452 Z2.566
X35.38 Y110.431 Z2.475
X35.371 Y110.396 Z2.388
X35.359 Y110.348 Z2.307
X35.344 Y110.289 Z2.236
X35.326 Y110.22 Z2.175
X35.306 Y110.142 Z2.125
X35.284 Y110.058 Z2.089
X35.262 Y109.969 Z2.067
X35.238 Y109.878 Z2.06
G3 X34.97 Y108.012 R8.75
G1 Y107.862 F600.
X35.236 Y107.017
X35.426 Y106.151
X35.56 Y105.275
X35.654 Y104.394
X35.72 Y103.511
X35.766 Y102.626
X35.798 Y101.74
X35.82 Y100.854
X35.836 Y99.968
X35.846 Y99.082
X35.854 Y98.196
X35.859 Y97.31
X35.862 Y96.424
X35.866 Y94.652
X35.869 Y91.993
X35.87 Y83.132
Y57.435
Y6.926
Y2.495
X35.738 Y2.072
X35.3 Y1.302
X34.647 Y0.703
X34.54 Y0.64
X34.273 Y0.443
X34.051 Y0.195
X33.886 Y-0.093
X33.784 Y-0.41
X33.75 Y-0.74
G3 X34.95 Y-0.713 R0.6
X34.949 Y-0.698 R0.6
G1 X34.946 Y-0.604 Z2.067
X34.943 Y-0.513 Z2.089
X34.94 Y-0.426 Z2.125
X34.937 Y-0.346 Z2.175
X34.934 Y-0.274 Z2.236
X34.932 Y-0.213 Z2.307
X34.931 Y-0.164 Z2.388
X34.929 Y-0.128 Z2.475
Y-0.106 Z2.566
X34.928 Y-0.098 Z2.66
G0 Z3.26
X34.588 Y110.081
G1 Z2.66 F200.
X34.584 Y110.075 Z2.566
X34.573 Y110.056 Z2.475
X34.554 Y110.025 Z2.388
X34.529 Y109.982 Z2.307
X34.498 Y109.93 Z2.236
X34.461 Y109.868 Z2.175
X34.42 Y109.799 Z2.125
X34.376 Y109.725 Z2.089
X34.329 Y109.646 Z2.067
X34.281 Y109.565 Z2.06
G3 X33.75 Y107.757 R3.798
G1 Y0.062 F600.
G3 X34.691 Y-0.411 R0.6
G1 X34.743 Y-0.358 Z2.065
X34.795 Y-0.307 Z2.078
X34.844 Y-0.257 Z2.101
X34.877 Y-0.185 Z2.139
X34.906 Y-0.118 Z2.189
X34.933 Y-0.059 Z2.248
X34.938 Y-0.012 Z2.305
X34.943 Y0.027 Z2.367
X34.947 Y0.059 Z2.433
X34.95 Y0.082 Z2.503
Y0.088 Z2.527
X34.949 Y0.1 Z2.593
Y0.103 Z2.66
G0 Z2.765
X35.387 Y110.459
G1 Z2.165 F200.
X35.385 Y110.452 Z2.071
X35.38 Y110.431 Z1.98
X35.371 Y110.396 Z1.893
X35.359 Y110.348 Z1.812
X35.344 Y110.289 Z1.741
X35.326 Y110.22 Z1.68
X35.306 Y110.142 Z1.63
X35.284 Y110.058 Z1.594
X35.262 Y109.969 Z1.572
X35.238 Y109.878 Z1.565
G3 X34.97 Y108.012 R8.75
G1 Y107.862 F600.
X35.236 Y107.017
X35.426 Y106.151
X35.56 Y105.275
X35.654 Y104.394
X35.72 Y103.511
X35.766 Y102.626
X35.798 Y101.74
X35.82 Y100.854
X35.836 Y99.968
X35.846 Y99.082
X35.854 Y98.196
X35.859 Y97.31
X35.862 Y96.424
X35.866 Y94.652
X35.869 Y91.993
X35.87 Y83.132
Y57.435
Y6.926
Y2.495
X35.738 Y2.072
X35.3 Y1.302
X34.647 Y0.703
X34.54 Y0.64
X34.273 Y0.443
X34.051 Y0.195
X33.886 Y-0.093
X33.784 Y-0.41
X33.75 Y-0.74
G3 X34.95 Y-0.713 R0.6
X34.949 Y-0.698 R0.6
G1 X34.946 Y-0.604 Z1.572
X34.943 Y-0.513 Z1.594
X34.94 Y-0.426 Z1.63
X34.937 Y-0.346 Z1.68
X34.934 Y-0.274 Z1.741
X34.932 Y-0.213 Z1.812
X34.931 Y-0.164 Z1.893
X34.929 Y-0.128 Z1.98
Y-0.106 Z2.071
X34.928 Y-0.098 Z2.165
G0 Z2.765
X34.588 Y110.081
G1 Z2.165 F200.
X34.584 Y110.075 Z2.071
X34.573 Y110.056 Z1.98
X34.554 Y110.025 Z1.893
X34.529 Y109.982 Z1.812
X34.498 Y109.93 Z1.741
X34.461 Y109.868 Z1.68
X34.42 Y109.799 Z1.63
X34.376 Y109.725 Z1.594
X34.329 Y109.646 Z1.572
X34.281 Y109.565 Z1.565
G3 X33.75 Y107.757 R3.798
G1 Y0.062 F600.
G3 X34.691 Y-0.411 R0.6
G1 X34.743 Y-0.358 Z1.57
X34.795 Y-0.307 Z1.583
X34.844 Y-0.257 Z1.606
X34.877 Y-0.185 Z1.644
X34.906 Y-0.118 Z1.694
X34.933 Y-0.059 Z1.753
X34.938 Y-0.012 Z1.81
X34.943 Y0.027 Z1.872
X34.947 Y0.059 Z1.938
X34.95 Y0.082 Z2.008
Y0.088 Z2.032
X34.949 Y0.1 Z2.098
Y0.103 Z2.165
G0 Z2.27
X35.387 Y110.459
G1 Z1.67 F200.
X35.385 Y110.452 Z1.576
X35.38 Y110.431 Z1.485
X35.371 Y110.396 Z1.398
X35.359 Y110.348 Z1.317
X35.344 Y110.289 Z1.246
X35.326 Y110.22 Z1.185
X35.306 Y110.142 Z1.135
X35.284 Y110.058 Z1.099
X35.262 Y109.969 Z1.077
X35.238 Y109.878 Z1.07
G3 X34.97 Y108.012 R8.75
G1 Y107.862 F600.
X35.236 Y107.017
X35.426 Y106.151
X35.56 Y105.275
X35.654 Y104.394
X35.72 Y103.511
X35.766 Y102.626
X35.798 Y101.74
X35.82 Y100.854
X35.836 Y99.968
X35.846 Y99.082
X35.854 Y98.196
X35.859 Y97.31
X35.862 Y96.424
X35.866 Y94.652
X35.869 Y91.993
X35.87 Y83.132
Y57.435
Y6.926
Y2.495
X35.738 Y2.072
X35.3 Y1.302
X34.647 Y0.703
X34.54 Y0.64
X34.273 Y0.443
X34.051 Y0.195
X33.886 Y-0.093
X33.784 Y-0.41
X33.75 Y-0.74
G3 X34.95 Y-0.713 R0.6
X34.949 Y-0.698 R0.6
G1 X34.946 Y-0.604 Z1.077
X34.943 Y-0.513 Z1.099
X34.94 Y-0.426 Z1.135
X34.937 Y-0.346 Z1.185
X34.934 Y-0.274 Z1.246
X34.932 Y-0.213 Z1.317
X34.931 Y-0.164 Z1.398
X34.929 Y-0.128 Z1.485
Y-0.106 Z1.576
X34.928 Y-0.098 Z1.67
G0 Z2.27
X34.588 Y110.081
G1 Z1.67 F200.
X34.584 Y110.075 Z1.576
X34.573 Y110.056 Z1.485
X34.554 Y110.025 Z1.398
X34.529 Y109.982 Z1.317
X34.498 Y109.93 Z1.246
X34.461 Y109.868 Z1.185
X34.42 Y109.799 Z1.135
X34.376 Y109.725 Z1.099
X34.329 Y109.646 Z1.077
X34.281 Y109.565 Z1.07
G3 X33.75 Y107.757 R3.798
G1 Y0.062 F600.
G3 X34.691 Y-0.411 R0.6
G1 X34.743 Y-0.358 Z1.075
X34.795 Y-0.307 Z1.088
X34.844 Y-0.257 Z1.111
X34.877 Y-0.185 Z1.149
X34.906 Y-0.118 Z1.199
X34.933 Y-0.059 Z1.258
X34.938 Y-0.012 Z1.315
X34.943 Y0.027 Z1.377
X34.947 Y0.059 Z1.443
X34.95 Y0.082 Z1.513
Y0.088 Z1.537
X34.949 Y0.1 Z1.603
Y0.103 Z1.67
G0 Z1.775
X35.387 Y110.459
G1 Z1.175 F200.
X35.385 Y110.452 Z1.081
X35.38 Y110.431 Z0.99
X35.371 Y110.396 Z0.903
X35.359 Y110.348 Z0.822
X35.344 Y110.289 Z0.751
X35.326 Y110.22 Z0.69
X35.306 Y110.142 Z0.64
X35.284 Y110.058 Z0.604
X35.262 Y109.969 Z0.582
X35.238 Y109.878 Z0.575
G3 X34.97 Y108.012 R8.75
G1 Y107.862 F600.
X35.236 Y107.017
X35.426 Y106.151
X35.56 Y105.275
X35.654 Y104.394
X35.72 Y103.511
X35.766 Y102.626
X35.798 Y101.74
X35.82 Y100.854
X35.836 Y99.968
X35.846 Y99.082
X35.854 Y98.196
X35.859 Y97.31
X35.862 Y96.424
X35.866 Y94.652
X35.869 Y91.993
X35.87 Y83.132
Y57.435
Y6.926
Y2.495
X35.738 Y2.072
X35.3 Y1.302
X34.647 Y0.703
X34.54 Y0.64
X34.273 Y0.443
X34.051 Y0.195
X33.886 Y-0.093
X33.784 Y-0.41
X33.75 Y-0.74
G3 X34.95 Y-0.713 R0.6
X34.949 Y-0.698 R0.6
G1 X34.946 Y-0.604 Z0.582
X34.943 Y-0.513 Z0.604
X34.94 Y-0.426 Z0.64
X34.937 Y-0.346 Z0.69
X34.934 Y-0.274 Z0.751
X34.932 Y-0.213 Z0.822
X34.931 Y-0.164 Z0.903
X34.929 Y-0.128 Z0.99
Y-0.106 Z1.081
X34.928 Y-0.098 Z1.175
G0 Z1.775
X34.588 Y110.081
G1 Z1.175 F200.
X34.584 Y110.075 Z1.081
X34.573 Y110.056 Z0.99
X34.554 Y110.025 Z0.903
X34.529 Y109.982 Z0.822
X34.498 Y109.93 Z0.751
X34.461 Y109.868 Z0.69
X34.42 Y109.799 Z0.64
X34.376 Y109.725 Z0.604
X34.329 Y109.646 Z0.582
X34.281 Y109.565 Z0.575
G3 X33.75 Y107.757 R3.798
G1 Y0.062 F600.
G3 X34.691 Y-0.411 R0.6
G1 X34.743 Y-0.358 Z0.58
X34.795 Y-0.307 Z0.593
X34.844 Y-0.257 Z0.616
X34.877 Y-0.185 Z0.654
X34.906 Y-0.118 Z0.704
X34.933 Y-0.059 Z0.763
X34.938 Y-0.012 Z0.82
X34.943 Y0.027 Z0.882
X34.947 Y0.059 Z0.948
X34.95 Y0.082 Z1.018
Y0.088 Z1.042
X34.949 Y0.1 Z1.108
Y0.103 Z1.175
G0 Z1.28
X35.387 Y110.459
G1 Z0.68 F200.
X35.385 Y110.452 Z0.586
X35.38 Y110.431 Z0.495
X35.371 Y110.396 Z0.408
X35.359 Y110.348 Z0.327
X35.344 Y110.289 Z0.256
X35.326 Y110.22 Z0.195
X35.306 Y110.142 Z0.145
X35.284 Y110.058 Z0.109
X35.262 Y109.969 Z0.087
X35.238 Y109.878 Z0.08
G3 X34.97 Y108.012 R8.75
G1 Y107.862 F600.
X35.236 Y107.017
X35.426 Y106.151
X35.56 Y105.275
X35.654 Y104.394
X35.72 Y103.511
X35.766 Y102.626
X35.798 Y101.74
X35.82 Y100.854
X35.836 Y99.968
X35.846 Y99.082
X35.854 Y98.196
X35.859 Y97.31
X35.862 Y96.424
X35.866 Y94.652
X35.869 Y91.993
X35.87 Y83.132
Y57.435
Y6.926
Y2.495
X35.738 Y2.072
X35.3 Y1.302
X34.647 Y0.703
X34.54 Y0.64
X34.273 Y0.443
X34.051 Y0.195
X33.886 Y-0.093
X33.784 Y-0.41
X33.75 Y-0.74
G3 X34.95 Y-0.713 R0.6
X34.949 Y-0.698 R0.6
G1 X34.946 Y-0.604 Z0.087
X34.943 Y-0.513 Z0.109
X34.94 Y-0.426 Z0.145
X34.937 Y-0.346 Z0.195
X34.934 Y-0.274 Z0.256
X34.932 Y-0.213 Z0.327
X34.931 Y-0.164 Z0.408
X34.929 Y-0.128 Z0.495
Y-0.106 Z0.586
X34.928 Y-0.098 Z0.68
G0 Z1.28
X34.588 Y110.081
G1 Z0.68 F200.
X34.584 Y110.075 Z0.586
X34.573 Y110.056 Z0.495
X34.554 Y110.025 Z0.408
X34.529 Y109.982 Z0.327
X34.498 Y109.93 Z0.256
X34.461 Y109.868 Z0.195
X34.42 Y109.799 Z0.145
X34.376 Y109.725 Z0.109
X34.329 Y109.646 Z0.087
X34.281 Y109.565 Z0.08
G3 X33.75 Y107.757 R3.798
G1 Y0.062 F600.
G3 X34.691 Y-0.411 R0.6
G1 X34.743 Y-0.358 Z0.085
X34.795 Y-0.307 Z0.098
X34.844 Y-0.257 Z0.121
X34.877 Y-0.185 Z0.159
X34.906 Y-0.118 Z0.209
X34.933 Y-0.059 Z0.268
X34.938 Y-0.012 Z0.325
X34.943 Y0.027 Z0.387
X34.947 Y0.059 Z0.453
X34.95 Y0.082 Z0.523
Y0.088 Z0.547
X34.949 Y0.1 Z0.613
Y0.103 Z0.68
G0 Z1.1
X35.387 Y110.459
G1 Z0.5 F200.
X35.385 Y110.452 Z0.406
X35.38 Y110.431 Z0.315
X35.371 Y110.396 Z0.228
X35.359 Y110.348 Z0.147
X35.344 Y110.289 Z0.076
X35.326 Y110.22 Z0.015
X35.306 Y110.142 Z-0.035
X35.284 Y110.058 Z-0.071
X35.262 Y109.969 Z-0.093
X35.238 Y109.878 Z-0.1
G3 X34.97 Y108.012 R8.75
G1 Y107.862 F600.
X35.236 Y107.017
X35.426 Y106.151
X35.56 Y105.275
X35.654 Y104.394
X35.72 Y103.511
X35.766 Y102.626
X35.798 Y101.74
X35.82 Y100.854
X35.836 Y99.968
X35.846 Y99.082
X35.854 Y98.196
X35.859 Y97.31
X35.862 Y96.424
X35.866 Y94.652
X35.869 Y91.993
X35.87 Y83.132
Y57.435
Y6.926
Y2.495
X35.738 Y2.072
X35.3 Y1.302
X34.647 Y0.703
X34.54 Y0.64
X34.273 Y0.443
X34.051 Y0.195
X33.886 Y-0.093
X33.784 Y-0.41
X33.75 Y-0.74
G3 X34.95 Y-0.713 R0.6
X34.949 Y-0.698 R0.6
G1 X34.946 Y-0.604 Z-0.093
X34.943 Y-0.513 Z-0.071
X34.94 Y-0.426 Z-0.035
X34.937 Y-0.346 Z0.015
X34.934 Y-0.274 Z0.076
X34.932 Y-0.213 Z0.147
X34.931 Y-0.164 Z0.228
X34.929 Y-0.128 Z0.315
Y-0.106 Z0.406
X34.928 Y-0.098 Z0.5
G0 Z1.1
X34.588 Y110.081
G1 Z0.5 F200.
X34.584 Y110.075 Z0.406
X34.573 Y110.056 Z0.315
X34.554 Y110.025 Z0.228
X34.529 Y109.982 Z0.147
X34.498 Y109.93 Z0.076
X34.461 Y109.868 Z0.015
X34.42 Y109.799 Z-0.035
X34.376 Y109.725 Z-0.071
X34.329 Y109.646 Z-0.093
X34.281 Y109.565 Z-0.1
G3 X33.75 Y107.757 R3.798
G1 Y0.062 F600.
G3 X34.95 Y0.088 R0.6
X34.949 Y0.103 R0.6
G1 X34.946 Y0.197 Z-0.093
X34.943 Y0.289 Z-0.071
X34.94 Y0.376 Z-0.035
X34.937 Y0.456 Z0.015
X34.934 Y0.527 Z0.076
X34.932 Y0.588 Z0.147
X34.931 Y0.638 Z0.228
X34.929 Y0.674 Z0.315
Y0.696 Z0.406
X34.928 Y0.703 Z0.5
G0 Z23.

M9
G28 G91 Z0.
G28 X0. Y0.
M30
