(BLOCK CAM ASSEMBLY_CAM003)
(T1  D=6. CR=0. - ZMIN=-0.1 - SCHAFTFRSER)
G90 G94 G91.1 G40 G49 G17
G21
G28 G91 Z0.
G90

(2D ADAPTIVE1 2)
M5
M9
T1 M6
S10000 M3
G54
M7
G0 X64.613 Y-5.459
G43 Z23. H1
Z13.
Z1.4
G1 Z0.8 F200.
X64.615 Y-5.452 Z0.706
X64.62 Y-5.431 Z0.615
X64.629 Y-5.396 Z0.528
X64.641 Y-5.348 Z0.447
X64.656 Y-5.289 Z0.376
X64.674 Y-5.22 Z0.315
X64.694 Y-5.142 Z0.265
X64.716 Y-5.058 Z0.229
X64.738 Y-4.969 Z0.207
X64.762 Y-4.878 Z0.2
G3 X65.03 Y-3.012 R8.75
G1 Y-2.862 F600.
X64.794 Y-2.008
X64.625 Y-1.138
X64.506 Y-0.26
X64.423 Y0.622
X64.364 Y1.506
X64.323 Y2.392
X64.295 Y3.277
X64.275 Y4.163
X64.261 Y5.049
X64.252 Y5.935
X64.245 Y6.821
X64.24 Y7.707
X64.235 Y9.48
X64.232 Y12.138
X64.23 Y18.341
Y47.583
Y98.092
Y102.523
X64.381 Y102.939
X64.849 Y103.691
X65.521 Y104.269
X66.296 Y104.698
X67.125 Y105.011
X67.983 Y105.236
X68.854 Y105.395
X69.662 Y105.499
X69.969 Y105.571
X70.255 Y105.705
X70.508 Y105.894
X70.716 Y106.131
X70.871 Y106.405
X70.968 Y106.706
X71. Y107.02
G3 X69.8 Y106.993 R0.6
X69.801 Y106.978 R0.6
G1 X69.804 Y106.884 Z0.207
X69.807 Y106.793 Z0.229
X69.81 Y106.706 Z0.265
X69.813 Y106.626 Z0.315
X69.816 Y106.554 Z0.376
X69.818 Y106.493 Z0.447
X69.819 Y106.444 Z0.528
X69.821 Y106.408 Z0.615
Y106.386 Z0.706
X69.822 Y106.378 Z0.8
G0 Z13.
X70.162 Y-5.323
Z1.4
G1 Z0.8 F200.
X70.166 Y-5.317 Z0.706
X70.177 Y-5.298 Z0.615
X70.196 Y-5.267 Z0.528
X70.221 Y-5.225 Z0.447
X70.252 Y-5.172 Z0.376
X70.289 Y-5.11 Z0.315
X70.33 Y-5.041 Z0.265
X70.374 Y-4.967 Z0.229
X70.421 Y-4.888 Z0.207
X70.469 Y-4.807 Z0.2
G3 X71. Y-2.999 R3.798
G1 Y-2.757 F600.
X70.998 Y-2.719
X70.904 Y-2.603
X70.792 Y-2.488
X70.647 Y-2.359
X70.461 Y-2.217
X70.224 Y-2.063
X69.921 Y-1.896
X69.114 Y-1.529
X68.434 Y-0.961
X67.906 Y-0.25
X67.506 Y0.541
X67.209 Y1.376
X66.991 Y2.235
X66.832 Y3.107
X66.717 Y3.985
X66.635 Y4.867
X66.576 Y5.752
X66.533 Y6.637
X66.503 Y7.522
X66.482 Y8.408
X66.467 Y9.294
X66.456 Y10.18
X66.448 Y11.066
X66.443 Y11.952
X66.439 Y12.839
X66.435 Y14.611
X66.432 Y17.269
X66.43 Y24.358
Y45.625
Y96.134
Y99.679
X66.711 Y100.519
X67.233 Y101.235
X67.906 Y101.812
X68.655 Y102.286
X69.427 Y102.72
X70.124 Y103.133
X70.344 Y103.287
X70.568 Y103.478
X70.752 Y103.708
X70.888 Y103.969
X70.972 Y104.251
X71. Y104.544
Y104.938
G3 X69.8 Y104.912 R0.6
X69.801 Y104.897 R0.6
G1 X69.804 Y104.803 Z0.207
X69.807 Y104.711 Z0.229
X69.81 Y104.624 Z0.265
X69.813 Y104.544 Z0.315
X69.816 Y104.473 Z0.376
X69.818 Y104.412 Z0.447
X69.819 Y104.362 Z0.528
X69.821 Y104.326 Z0.615
Y104.304 Z0.706
X69.822 Y104.297 Z0.8
G0 Z13.
X70.162 Y-5.081
Z1.4
G1 Z0.8 F200.
X70.166 Y-5.075 Z0.706
X70.177 Y-5.056 Z0.615
X70.196 Y-5.025 Z0.528
X70.221 Y-4.982 Z0.447
X70.252 Y-4.93 Z0.376
X70.289 Y-4.868 Z0.315
X70.33 Y-4.799 Z0.265
X70.374 Y-4.725 Z0.229
X70.421 Y-4.646 Z0.207
X70.469 Y-4.565 Z0.2
G3 X71. Y-2.757 R3.798
G1 Y-2.042 F600.
X70.993 Y-1.892
X70.663 Y-1.07
X70.3 Y-0.261
X69.969 Y0.561
X69.685 Y1.4
X69.45 Y2.255
X69.262 Y3.12
X69.112 Y3.994
X68.995 Y4.872
X68.905 Y5.754
X68.836 Y6.637
X68.784 Y7.522
X68.744 Y8.407
X68.714 Y9.293
X68.692 Y10.178
X68.676 Y11.064
X68.664 Y11.95
X68.655 Y12.836
X68.648 Y13.723
X68.643 Y14.609
X68.637 Y16.381
X68.633 Y19.039
X68.631 Y23.47
X68.63 Y48.281
Y97.018
X68.838 Y97.88
X69.242 Y98.668
X69.767 Y99.382
X70.358 Y100.042
X70.587 Y100.288
X70.763 Y100.516
X70.893 Y100.772
X70.973 Y101.048
X71. Y101.335
Y104.544
G3 X69.8 Y104.517 R0.6
X69.801 Y104.502 R0.6
G1 X69.804 Y104.409 Z0.207
X69.807 Y104.317 Z0.229
X69.81 Y104.23 Z0.265
X69.813 Y104.15 Z0.315
X69.816 Y104.078 Z0.376
X69.818 Y104.017 Z0.447
X69.819 Y103.968 Z0.528
X69.821 Y103.932 Z0.615
Y103.91 Z0.706
X69.822 Y103.903 Z0.8
G0 Z13.
X70.162 Y-4.366
Z1.4
G1 Z0.8 F200.
X70.166 Y-4.36 Z0.706
X70.177 Y-4.341 Z0.615
X70.196 Y-4.31 Z0.528
X70.221 Y-4.268 Z0.447
X70.252 Y-4.215 Z0.376
X70.289 Y-4.154 Z0.315
X70.33 Y-4.085 Z0.265
X70.374 Y-4.01 Z0.229
X70.421 Y-3.931 Z0.207
X70.469 Y-3.851 Z0.2
G3 X71. Y-2.042 R3.798
G1 Y101.335 F600.
G3 X70.059 Y101.807 R0.6
G1 X70.007 Y101.755 Z0.205
X69.955 Y101.703 Z0.218
X69.906 Y101.653 Z0.241
X69.873 Y101.581 Z0.279
X69.844 Y101.514 Z0.329
X69.817 Y101.455 Z0.388
X69.812 Y101.408 Z0.445
X69.807 Y101.369 Z0.507
X69.803 Y101.337 Z0.573
X69.8 Y101.314 Z0.643
Y101.308 Z0.667
X69.801 Y101.296 Z0.733
Y101.293 Z0.8
G0 Z13.
X64.613 Y-5.459
Z1.1
G1 Z0.5 F200.
X64.615 Y-5.452 Z0.406
X64.62 Y-5.431 Z0.315
X64.629 Y-5.396 Z0.228
X64.641 Y-5.348 Z0.147
X64.656 Y-5.289 Z0.076
X64.674 Y-5.22 Z0.015
X64.694 Y-5.142 Z-0.035
X64.716 Y-5.058 Z-0.071
X64.738 Y-4.969 Z-0.093
X64.762 Y-4.878 Z-0.1
G3 X65.03 Y-3.012 R8.75
G1 Y-2.862 F600.
X64.794 Y-2.008
X64.625 Y-1.138
X64.506 Y-0.26
X64.423 Y0.622
X64.364 Y1.506
X64.323 Y2.392
X64.295 Y3.277
X64.275 Y4.163
X64.261 Y5.049
X64.252 Y5.935
X64.245 Y6.821
X64.24 Y7.707
X64.235 Y9.48
X64.232 Y12.138
X64.23 Y18.341
Y47.583
Y98.092
Y102.523
X64.381 Y102.939
X64.849 Y103.691
X65.521 Y104.269
X66.296 Y104.698
X67.125 Y105.011
X67.983 Y105.236
X68.854 Y105.395
X69.662 Y105.499
X69.969 Y105.571
X70.255 Y105.705
X70.508 Y105.894
X70.716 Y106.131
X70.871 Y106.405
X70.968 Y106.706
X71. Y107.02
G3 X69.8 Y106.993 R0.6
X69.801 Y106.978 R0.6
G1 X69.804 Y106.884 Z-0.093
X69.807 Y106.793 Z-0.071
X69.81 Y106.706 Z-0.035
X69.813 Y106.626 Z0.015
X69.816 Y106.554 Z0.076
X69.818 Y106.493 Z0.147
X69.819 Y106.444 Z0.228
X69.821 Y106.408 Z0.315
Y106.386 Z0.406
X69.822 Y106.378 Z0.5
G0 Z13.
X70.162 Y-5.323
Z1.1
G1 Z0.5 F200.
X70.166 Y-5.317 Z0.406
X70.177 Y-5.298 Z0.315
X70.196 Y-5.267 Z0.228
X70.221 Y-5.225 Z0.147
X70.252 Y-5.172 Z0.076
X70.289 Y-5.11 Z0.015
X70.33 Y-5.041 Z-0.035
X70.374 Y-4.967 Z-0.071
X70.421 Y-4.888 Z-0.093
X70.469 Y-4.807 Z-0.1
G3 X71. Y-2.999 R3.798
G1 Y-2.757 F600.
X70.998 Y-2.719
X70.904 Y-2.603
X70.792 Y-2.488
X70.647 Y-2.359
X70.461 Y-2.217
X70.224 Y-2.063
X69.921 Y-1.896
X69.114 Y-1.529
X68.434 Y-0.961
X67.906 Y-0.25
X67.506 Y0.541
X67.209 Y1.376
X66.991 Y2.235
X66.832 Y3.107
X66.717 Y3.985
X66.635 Y4.867
X66.576 Y5.752
X66.533 Y6.637
X66.503 Y7.522
X66.482 Y8.408
X66.467 Y9.294
X66.456 Y10.18
X66.448 Y11.066
X66.443 Y11.952
X66.439 Y12.839
X66.435 Y14.611
X66.432 Y17.269
X66.43 Y24.358
Y45.625
Y96.134
Y99.679
X66.711 Y100.519
X67.233 Y101.235
X67.906 Y101.812
X68.655 Y102.286
X69.427 Y102.72
X70.124 Y103.133
X70.344 Y103.287
X70.568 Y103.478
X70.752 Y103.708
X70.888 Y103.969
X70.972 Y104.251
X71. Y104.544
Y104.938
G3 X69.8 Y104.912 R0.6
X69.801 Y104.897 R0.6
G1 X69.804 Y104.803 Z-0.093
X69.807 Y104.711 Z-0.071
X69.81 Y104.624 Z-0.035
X69.813 Y104.544 Z0.015
X69.816 Y104.473 Z0.076
X69.818 Y104.412 Z0.147
X69.819 Y104.362 Z0.228
X69.821 Y104.326 Z0.315
Y104.304 Z0.406
X69.822 Y104.297 Z0.5
G0 Z13.
X70.162 Y-5.081
Z1.1
G1 Z0.5 F200.
X70.166 Y-5.075 Z0.406
X70.177 Y-5.056 Z0.315
X70.196 Y-5.025 Z0.228
X70.221 Y-4.982 Z0.147
X70.252 Y-4.93 Z0.076
X70.289 Y-4.868 Z0.015
X70.33 Y-4.799 Z-0.035
X70.374 Y-4.725 Z-0.071
X70.421 Y-4.646 Z-0.093
X70.469 Y-4.565 Z-0.1
G3 X71. Y-2.757 R3.798
G1 Y-2.042 F600.
X70.993 Y-1.892
X70.663 Y-1.07
X70.3 Y-0.261
X69.969 Y0.561
X69.685 Y1.4
X69.45 Y2.255
X69.262 Y3.12
X69.112 Y3.994
X68.995 Y4.872
X68.905 Y5.754
X68.836 Y6.637
X68.784 Y7.522
X68.744 Y8.407
X68.714 Y9.293
X68.692 Y10.178
X68.676 Y11.064
X68.664 Y11.95
X68.655 Y12.836
X68.648 Y13.723
X68.643 Y14.609
X68.637 Y16.381
X68.633 Y19.039
X68.631 Y23.47
X68.63 Y48.281
Y97.018
X68.838 Y97.88
X69.242 Y98.668
X69.767 Y99.382
X70.358 Y100.042
X70.587 Y100.288
X70.763 Y100.516
X70.893 Y100.772
X70.973 Y101.048
X71. Y101.335
Y104.544
G3 X69.8 Y104.517 R0.6
X69.801 Y104.502 R0.6
G1 X69.804 Y104.409 Z-0.093
X69.807 Y104.317 Z-0.071
X69.81 Y104.23 Z-0.035
X69.813 Y104.15 Z0.015
X69.816 Y104.078 Z0.076
X69.818 Y104.017 Z0.147
X69.819 Y103.968 Z0.228
X69.821 Y103.932 Z0.315
Y103.91 Z0.406
X69.822 Y103.903 Z0.5
G0 Z13.
X70.162 Y-4.366
Z1.1
G1 Z0.5 F200.
X70.166 Y-4.36 Z0.406
X70.177 Y-4.341 Z0.315
X70.196 Y-4.31 Z0.228
X70.221 Y-4.268 Z0.147
X70.252 Y-4.215 Z0.076
X70.289 Y-4.154 Z0.015
X70.33 Y-4.085 Z-0.035
X70.374 Y-4.01 Z-0.071
X70.421 Y-3.931 Z-0.093
X70.469 Y-3.851 Z-0.1
G3 X71. Y-2.042 R3.798
G1 Y101.335 F600.
G3 X69.8 Y101.308 R0.6
X69.801 Y101.293 R0.6
G1 X69.804 Y101.199 Z-0.093
X69.807 Y101.107 Z-0.071
X69.81 Y101.021 Z-0.035
X69.813 Y100.94 Z0.015
X69.816 Y100.869 Z0.076
X69.818 Y100.808 Z0.147
X69.819 Y100.758 Z0.228
X69.821 Y100.722 Z0.315
Y100.7 Z0.406
X69.822 Y100.693 Z0.5
G0 Z23.

M9
G28 G91 Z0.
G28 X0. Y0.
M30
