(BLOCK CAM ASSEMBLY_CAM002)
(T1  D=6. CR=0. - ZMIN=-0.1 - SCHAFTFRSER)
G90 G94 G91.1 G40 G49 G17
G21
G28 G91 Z0.
G90

(2D ADAPTIVE1 3)
M5
M9
T1 M6
S10000 M3
G54
M7
G0 X-0.387 Y-5.459
G43 Z23. H1
Z13.
Z8.705
G1 Z8.105 F200.
X-0.385 Y-5.452 Z8.011
X-0.38 Y-5.431 Z7.92
X-0.371 Y-5.396 Z7.833
X-0.359 Y-5.348 Z7.752
X-0.344 Y-5.289 Z7.681
X-0.326 Y-5.22 Z7.62
X-0.306 Y-5.142 Z7.57
X-0.284 Y-5.058 Z7.534
X-0.262 Y-4.969 Z7.512
X-0.238 Y-4.878 Z7.505
G3 X0.03 Y-3.012 R8.75
G1 Y-2.862 F600.
X-0.236 Y-2.017
X-0.426 Y-1.151
X-0.56 Y-0.275
X-0.654 Y0.606
X-0.72 Y1.489
X-0.766 Y2.374
X-0.798 Y3.26
X-0.82 Y4.146
X-0.836 Y5.032
X-0.846 Y5.918
X-0.854 Y6.804
X-0.859 Y7.69
X-0.862 Y8.576
X-0.866 Y10.348
X-0.869 Y13.007
X-0.87 Y21.868
Y47.565
Y98.074
Y102.505
X-0.738 Y102.928
X-0.3 Y103.698
X0.353 Y104.297
X0.46 Y104.36
X0.727 Y104.557
X0.949 Y104.805
X1.114 Y105.093
X1.216 Y105.41
X1.25 Y105.74
G3 X0.051 Y105.698 R0.6
G1 X0.054 Y105.604 Z7.512
X0.057 Y105.513 Z7.534
X0.06 Y105.426 Z7.57
X0.063 Y105.346 Z7.62
X0.066 Y105.274 Z7.681
X0.068 Y105.213 Z7.752
X0.069 Y105.164 Z7.833
X0.071 Y105.128 Z7.92
Y105.106 Z8.011
X0.072 Y105.098 Z8.105
G0 Z13.
X0.412 Y-5.081
Z8.705
G1 Z8.105 F200.
X0.416 Y-5.075 Z8.011
X0.427 Y-5.056 Z7.92
X0.446 Y-5.025 Z7.833
X0.471 Y-4.982 Z7.752
X0.502 Y-4.93 Z7.681
X0.539 Y-4.868 Z7.62
X0.58 Y-4.799 Z7.57
X0.624 Y-4.725 Z7.534
X0.671 Y-4.646 Z7.512
X0.719 Y-4.565 Z7.505
G3 X1.25 Y-2.757 R3.798
G1 Y104.938 F600.
G3 X0.309 Y105.411 R0.6
G1 X0.257 Y105.358 Z7.51
X0.205 Y105.307 Z7.523
X0.156 Y105.257 Z7.546
X0.123 Y105.185 Z7.584
X0.094 Y105.118 Z7.634
X0.067 Y105.059 Z7.693
X0.062 Y105.012 Z7.75
X0.057 Y104.973 Z7.812
X0.053 Y104.941 Z7.878
X0.05 Y104.918 Z7.948
Y104.912 Z7.972
X0.051 Y104.9 Z8.038
Y104.897 Z8.105
G0 Z13.
X-0.387 Y-5.459
Z8.21
G1 Z7.61 F200.
X-0.385 Y-5.452 Z7.516
X-0.38 Y-5.431 Z7.425
X-0.371 Y-5.396 Z7.338
X-0.359 Y-5.348 Z7.257
X-0.344 Y-5.289 Z7.186
X-0.326 Y-5.22 Z7.125
X-0.306 Y-5.142 Z7.075
X-0.284 Y-5.058 Z7.039
X-0.262 Y-4.969 Z7.017
X-0.238 Y-4.878 Z7.01
G3 X0.03 Y-3.012 R8.75
G1 Y-2.862 F600.
X-0.236 Y-2.017
X-0.426 Y-1.151
X-0.56 Y-0.275
X-0.654 Y0.606
X-0.72 Y1.489
X-0.766 Y2.374
X-0.798 Y3.26
X-0.82 Y4.146
X-0.836 Y5.032
X-0.846 Y5.918
X-0.854 Y6.804
X-0.859 Y7.69
X-0.862 Y8.576
X-0.866 Y10.348
X-0.869 Y13.007
X-0.87 Y21.868
Y47.565
Y98.074
Y102.505
X-0.738 Y102.928
X-0.3 Y103.698
X0.353 Y104.297
X0.46 Y104.36
X0.727 Y104.557
X0.949 Y104.805
X1.114 Y105.093
X1.216 Y105.41
X1.25 Y105.74
G3 X0.051 Y105.698 R0.6
G1 X0.054 Y105.604 Z7.017
X0.057 Y105.513 Z7.039
X0.06 Y105.426 Z7.075
X0.063 Y105.346 Z7.125
X0.066 Y105.274 Z7.186
X0.068 Y105.213 Z7.257
X0.069 Y105.164 Z7.338
X0.071 Y105.128 Z7.425
Y105.106 Z7.516
X0.072 Y105.098 Z7.61
G0 Z13.
X0.412 Y-5.081
Z8.21
G1 Z7.61 F200.
X0.416 Y-5.075 Z7.516
X0.427 Y-5.056 Z7.425
X0.446 Y-5.025 Z7.338
X0.471 Y-4.982 Z7.257
X0.502 Y-4.93 Z7.186
X0.539 Y-4.868 Z7.125
X0.58 Y-4.799 Z7.075
X0.624 Y-4.725 Z7.039
X0.671 Y-4.646 Z7.017
X0.719 Y-4.565 Z7.01
G3 X1.25 Y-2.757 R3.798
G1 Y104.938 F600.
G3 X0.309 Y105.411 R0.6
G1 X0.257 Y105.358 Z7.015
X0.205 Y105.307 Z7.028
X0.156 Y105.257 Z7.051
X0.123 Y105.185 Z7.089
X0.094 Y105.118 Z7.139
X0.067 Y105.059 Z7.198
X0.062 Y105.012 Z7.255
X0.057 Y104.973 Z7.317
X0.053 Y104.941 Z7.383
X0.05 Y104.918 Z7.453
Y104.912 Z7.477
X0.051 Y104.9 Z7.543
Y104.897 Z7.61
G0 Z7.715
X-0.387 Y-5.459
G1 Z7.115 F200.
X-0.385 Y-5.452 Z7.021
X-0.38 Y-5.431 Z6.93
X-0.371 Y-5.396 Z6.843
X-0.359 Y-5.348 Z6.762
X-0.344 Y-5.289 Z6.691
X-0.326 Y-5.22 Z6.63
X-0.306 Y-5.142 Z6.58
X-0.284 Y-5.058 Z6.544
X-0.262 Y-4.969 Z6.522
X-0.238 Y-4.878 Z6.515
G3 X0.03 Y-3.012 R8.75
G1 Y-2.862 F600.
X-0.236 Y-2.017
X-0.426 Y-1.151
X-0.56 Y-0.275
X-0.654 Y0.606
X-0.72 Y1.489
X-0.766 Y2.374
X-0.798 Y3.26
X-0.82 Y4.146
X-0.836 Y5.032
X-0.846 Y5.918
X-0.854 Y6.804
X-0.859 Y7.69
X-0.862 Y8.576
X-0.866 Y10.348
X-0.869 Y13.007
X-0.87 Y21.868
Y47.565
Y98.074
Y102.505
X-0.738 Y102.928
X-0.3 Y103.698
X0.353 Y104.297
X0.46 Y104.36
X0.727 Y104.557
X0.949 Y104.805
X1.114 Y105.093
X1.216 Y105.41
X1.25 Y105.74
G3 X0.051 Y105.698 R0.6
G1 X0.054 Y105.604 Z6.522
X0.057 Y105.513 Z6.544
X0.06 Y105.426 Z6.58
X0.063 Y105.346 Z6.63
X0.066 Y105.274 Z6.691
X0.068 Y105.213 Z6.762
X0.069 Y105.164 Z6.843
X0.071 Y105.128 Z6.93
Y105.106 Z7.021
X0.072 Y105.098 Z7.115
G0 Z7.715
X0.412 Y-5.081
G1 Z7.115 F200.
X0.416 Y-5.075 Z7.021
X0.427 Y-5.056 Z6.93
X0.446 Y-5.025 Z6.843
X0.471 Y-4.982 Z6.762
X0.502 Y-4.93 Z6.691
X0.539 Y-4.868 Z6.63
X0.58 Y-4.799 Z6.58
X0.624 Y-4.725 Z6.544
X0.671 Y-4.646 Z6.522
X0.719 Y-4.565 Z6.515
G3 X1.25 Y-2.757 R3.798
G1 Y104.938 F600.
G3 X0.309 Y105.411 R0.6
G1 X0.257 Y105.358 Z6.52
X0.205 Y105.307 Z6.533
X0.156 Y105.257 Z6.556
X0.123 Y105.185 Z6.594
X0.094 Y105.118 Z6.644
X0.067 Y105.059 Z6.703
X0.062 Y105.012 Z6.76
X0.057 Y104.973 Z6.822
X0.053 Y104.941 Z6.888
X0.05 Y104.918 Z6.958
Y104.912 Z6.982
X0.051 Y104.9 Z7.048
Y104.897 Z7.115
G0 Z7.22
X-0.387 Y-5.459
G1 Z6.62 F200.
X-0.385 Y-5.452 Z6.526
X-0.38 Y-5.431 Z6.435
X-0.371 Y-5.396 Z6.348
X-0.359 Y-5.348 Z6.267
X-0.344 Y-5.289 Z6.196
X-0.326 Y-5.22 Z6.135
X-0.306 Y-5.142 Z6.085
X-0.284 Y-5.058 Z6.049
X-0.262 Y-4.969 Z6.027
X-0.238 Y-4.878 Z6.02
G3 X0.03 Y-3.012 R8.75
G1 Y-2.862 F600.
X-0.236 Y-2.017
X-0.426 Y-1.151
X-0.56 Y-0.275
X-0.654 Y0.606
X-0.72 Y1.489
X-0.766 Y2.374
X-0.798 Y3.26
X-0.82 Y4.146
X-0.836 Y5.032
X-0.846 Y5.918
X-0.854 Y6.804
X-0.859 Y7.69
X-0.862 Y8.576
X-0.866 Y10.348
X-0.869 Y13.007
X-0.87 Y21.868
Y47.565
Y98.074
Y102.505
X-0.738 Y102.928
X-0.3 Y103.698
X0.353 Y104.297
X0.46 Y104.36
X0.727 Y104.557
X0.949 Y104.805
X1.114 Y105.093
X1.216 Y105.41
X1.25 Y105.74
G3 X0.051 Y105.698 R0.6
G1 X0.054 Y105.604 Z6.027
X0.057 Y105.513 Z6.049
X0.06 Y105.426 Z6.085
X0.063 Y105.346 Z6.135
X0.066 Y105.274 Z6.196
X0.068 Y105.213 Z6.267
X0.069 Y105.164 Z6.348
X0.071 Y105.128 Z6.435
Y105.106 Z6.526
X0.072 Y105.098 Z6.62
G0 Z7.22
X0.412 Y-5.081
G1 Z6.62 F200.
X0.416 Y-5.075 Z6.526
X0.427 Y-5.056 Z6.435
X0.446 Y-5.025 Z6.348
X0.471 Y-4.982 Z6.267
X0.502 Y-4.93 Z6.196
X0.539 Y-4.868 Z6.135
X0.58 Y-4.799 Z6.085
X0.624 Y-4.725 Z6.049
X0.671 Y-4.646 Z6.027
X0.719 Y-4.565 Z6.02
G3 X1.25 Y-2.757 R3.798
G1 Y104.938 F600.
G3 X0.309 Y105.411 R0.6
G1 X0.257 Y105.358 Z6.025
X0.205 Y105.307 Z6.038
X0.156 Y105.257 Z6.061
X0.123 Y105.185 Z6.099
X0.094 Y105.118 Z6.149
X0.067 Y105.059 Z6.208
X0.062 Y105.012 Z6.265
X0.057 Y104.973 Z6.327
X0.053 Y104.941 Z6.393
X0.05 Y104.918 Z6.463
Y104.912 Z6.487
X0.051 Y104.9 Z6.553
Y104.897 Z6.62
G0 Z6.725
X-0.387 Y-5.459
G1 Z6.125 F200.
X-0.385 Y-5.452 Z6.031
X-0.38 Y-5.431 Z5.94
X-0.371 Y-5.396 Z5.853
X-0.359 Y-5.348 Z5.772
X-0.344 Y-5.289 Z5.701
X-0.326 Y-5.22 Z5.64
X-0.306 Y-5.142 Z5.59
X-0.284 Y-5.058 Z5.554
X-0.262 Y-4.969 Z5.532
X-0.238 Y-4.878 Z5.525
G3 X0.03 Y-3.012 R8.75
G1 Y-2.862 F600.
X-0.236 Y-2.017
X-0.426 Y-1.151
X-0.56 Y-0.275
X-0.654 Y0.606
X-0.72 Y1.489
X-0.766 Y2.374
X-0.798 Y3.26
X-0.82 Y4.146
X-0.836 Y5.032
X-0.846 Y5.918
X-0.854 Y6.804
X-0.859 Y7.69
X-0.862 Y8.576
X-0.866 Y10.348
X-0.869 Y13.007
X-0.87 Y21.868
Y47.565
Y98.074
Y102.505
X-0.738 Y102.928
X-0.3 Y103.698
X0.353 Y104.297
X0.46 Y104.36
X0.727 Y104.557
X0.949 Y104.805
X1.114 Y105.093
X1.216 Y105.41
X1.25 Y105.74
G3 X0.051 Y105.698 R0.6
G1 X0.054 Y105.604 Z5.532
X0.057 Y105.513 Z5.554
X0.06 Y105.426 Z5.59
X0.063 Y105.346 Z5.64
X0.066 Y105.274 Z5.701
X0.068 Y105.213 Z5.772
X0.069 Y105.164 Z5.853
X0.071 Y105.128 Z5.94
Y105.106 Z6.031
X0.072 Y105.098 Z6.125
G0 Z6.725
X0.412 Y-5.081
G1 Z6.125 F200.
X0.416 Y-5.075 Z6.031
X0.427 Y-5.056 Z5.94
X0.446 Y-5.025 Z5.853
X0.471 Y-4.982 Z5.772
X0.502 Y-4.93 Z5.701
X0.539 Y-4.868 Z5.64
X0.58 Y-4.799 Z5.59
X0.624 Y-4.725 Z5.554
X0.671 Y-4.646 Z5.532
X0.719 Y-4.565 Z5.525
G3 X1.25 Y-2.757 R3.798
G1 Y104.938 F600.
G3 X0.309 Y105.411 R0.6
G1 X0.257 Y105.358 Z5.53
X0.205 Y105.307 Z5.543
X0.156 Y105.257 Z5.566
X0.123 Y105.185 Z5.604
X0.094 Y105.118 Z5.654
X0.067 Y105.059 Z5.713
X0.062 Y105.012 Z5.77
X0.057 Y104.973 Z5.832
X0.053 Y104.941 Z5.898
X0.05 Y104.918 Z5.968
Y104.912 Z5.992
X0.051 Y104.9 Z6.058
Y104.897 Z6.125
G0 Z6.23
X-0.387 Y-5.459
G1 Z5.63 F200.
X-0.385 Y-5.452 Z5.536
X-0.38 Y-5.431 Z5.445
X-0.371 Y-5.396 Z5.358
X-0.359 Y-5.348 Z5.277
X-0.344 Y-5.289 Z5.206
X-0.326 Y-5.22 Z5.145
X-0.306 Y-5.142 Z5.095
X-0.284 Y-5.058 Z5.059
X-0.262 Y-4.969 Z5.037
X-0.238 Y-4.878 Z5.03
G3 X0.03 Y-3.012 R8.75
G1 Y-2.862 F600.
X-0.236 Y-2.017
X-0.426 Y-1.151
X-0.56 Y-0.275
X-0.654 Y0.606
X-0.72 Y1.489
X-0.766 Y2.374
X-0.798 Y3.26
X-0.82 Y4.146
X-0.836 Y5.032
X-0.846 Y5.918
X-0.854 Y6.804
X-0.859 Y7.69
X-0.862 Y8.576
X-0.866 Y10.348
X-0.869 Y13.007
X-0.87 Y21.868
Y47.565
Y98.074
Y102.505
X-0.738 Y102.928
X-0.3 Y103.698
X0.353 Y104.297
X0.46 Y104.36
X0.727 Y104.557
X0.949 Y104.805
X1.114 Y105.093
X1.216 Y105.41
X1.25 Y105.74
G3 X0.051 Y105.698 R0.6
G1 X0.054 Y105.604 Z5.037
X0.057 Y105.513 Z5.059
X0.06 Y105.426 Z5.095
X0.063 Y105.346 Z5.145
X0.066 Y105.274 Z5.206
X0.068 Y105.213 Z5.277
X0.069 Y105.164 Z5.358
X0.071 Y105.128 Z5.445
Y105.106 Z5.536
X0.072 Y105.098 Z5.63
G0 Z6.23
X0.412 Y-5.081
G1 Z5.63 F200.
X0.416 Y-5.075 Z5.536
X0.427 Y-5.056 Z5.445
X0.446 Y-5.025 Z5.358
X0.471 Y-4.982 Z5.277
X0.502 Y-4.93 Z5.206
X0.539 Y-4.868 Z5.145
X0.58 Y-4.799 Z5.095
X0.624 Y-4.725 Z5.059
X0.671 Y-4.646 Z5.037
X0.719 Y-4.565 Z5.03
G3 X1.25 Y-2.757 R3.798
G1 Y104.938 F600.
G3 X0.309 Y105.411 R0.6
G1 X0.257 Y105.358 Z5.035
X0.205 Y105.307 Z5.048
X0.156 Y105.257 Z5.071
X0.123 Y105.185 Z5.109
X0.094 Y105.118 Z5.159
X0.067 Y105.059 Z5.218
X0.062 Y105.012 Z5.275
X0.057 Y104.973 Z5.337
X0.053 Y104.941 Z5.403
X0.05 Y104.918 Z5.473
Y104.912 Z5.497
X0.051 Y104.9 Z5.563
Y104.897 Z5.63
G0 Z5.735
X-0.387 Y-5.459
G1 Z5.135 F200.
X-0.385 Y-5.452 Z5.041
X-0.38 Y-5.431 Z4.95
X-0.371 Y-5.396 Z4.863
X-0.359 Y-5.348 Z4.782
X-0.344 Y-5.289 Z4.711
X-0.326 Y-5.22 Z4.65
X-0.306 Y-5.142 Z4.6
X-0.284 Y-5.058 Z4.564
X-0.262 Y-4.969 Z4.542
X-0.238 Y-4.878 Z4.535
G3 X0.03 Y-3.012 R8.75
G1 Y-2.862 F600.
X-0.236 Y-2.017
X-0.426 Y-1.151
X-0.56 Y-0.275
X-0.654 Y0.606
X-0.72 Y1.489
X-0.766 Y2.374
X-0.798 Y3.26
X-0.82 Y4.146
X-0.836 Y5.032
X-0.846 Y5.918
X-0.854 Y6.804
X-0.859 Y7.69
X-0.862 Y8.576
X-0.866 Y10.348
X-0.869 Y13.007
X-0.87 Y21.868
Y47.565
Y98.074
Y102.505
X-0.738 Y102.928
X-0.3 Y103.698
X0.353 Y104.297
X0.46 Y104.36
X0.727 Y104.557
X0.949 Y104.805
X1.114 Y105.093
X1.216 Y105.41
X1.25 Y105.74
G3 X0.051 Y105.698 R0.6
G1 X0.054 Y105.604 Z4.542
X0.057 Y105.513 Z4.564
X0.06 Y105.426 Z4.6
X0.063 Y105.346 Z4.65
X0.066 Y105.274 Z4.711
X0.068 Y105.213 Z4.782
X0.069 Y105.164 Z4.863
X0.071 Y105.128 Z4.95
Y105.106 Z5.041
X0.072 Y105.098 Z5.135
G0 Z5.735
X0.412 Y-5.081
G1 Z5.135 F200.
X0.416 Y-5.075 Z5.041
X0.427 Y-5.056 Z4.95
X0.446 Y-5.025 Z4.863
X0.471 Y-4.982 Z4.782
X0.502 Y-4.93 Z4.711
X0.539 Y-4.868 Z4.65
X0.58 Y-4.799 Z4.6
X0.624 Y-4.725 Z4.564
X0.671 Y-4.646 Z4.542
X0.719 Y-4.565 Z4.535
G3 X1.25 Y-2.757 R3.798
G1 Y104.938 F600.
G3 X0.309 Y105.411 R0.6
G1 X0.257 Y105.358 Z4.54
X0.205 Y105.307 Z4.553
X0.156 Y105.257 Z4.576
X0.123 Y105.185 Z4.614
X0.094 Y105.118 Z4.664
X0.067 Y105.059 Z4.723
X0.062 Y105.012 Z4.78
X0.057 Y104.973 Z4.842
X0.053 Y104.941 Z4.908
X0.05 Y104.918 Z4.978
Y104.912 Z5.002
X0.051 Y104.9 Z5.068
Y104.897 Z5.135
G0 Z5.24
X-0.387 Y-5.459
G1 Z4.64 F200.
X-0.385 Y-5.452 Z4.546
X-0.38 Y-5.431 Z4.455
X-0.371 Y-5.396 Z4.368
X-0.359 Y-5.348 Z4.287
X-0.344 Y-5.289 Z4.216
X-0.326 Y-5.22 Z4.155
X-0.306 Y-5.142 Z4.105
X-0.284 Y-5.058 Z4.069
X-0.262 Y-4.969 Z4.047
X-0.238 Y-4.878 Z4.04
G3 X0.03 Y-3.012 R8.75
G1 Y-2.862 F600.
X-0.236 Y-2.017
X-0.426 Y-1.151
X-0.56 Y-0.275
X-0.654 Y0.606
X-0.72 Y1.489
X-0.766 Y2.374
X-0.798 Y3.26
X-0.82 Y4.146
X-0.836 Y5.032
X-0.846 Y5.918
X-0.854 Y6.804
X-0.859 Y7.69
X-0.862 Y8.576
X-0.866 Y10.348
X-0.869 Y13.007
X-0.87 Y21.868
Y47.565
Y98.074
Y102.505
X-0.738 Y102.928
X-0.3 Y103.698
X0.353 Y104.297
X0.46 Y104.36
X0.727 Y104.557
X0.949 Y104.805
X1.114 Y105.093
X1.216 Y105.41
X1.25 Y105.74
G3 X0.051 Y105.698 R0.6
G1 X0.054 Y105.604 Z4.047
X0.057 Y105.513 Z4.069
X0.06 Y105.426 Z4.105
X0.063 Y105.346 Z4.155
X0.066 Y105.274 Z4.216
X0.068 Y105.213 Z4.287
X0.069 Y105.164 Z4.368
X0.071 Y105.128 Z4.455
Y105.106 Z4.546
X0.072 Y105.098 Z4.64
G0 Z5.24
X0.412 Y-5.081
G1 Z4.64 F200.
X0.416 Y-5.075 Z4.546
X0.427 Y-5.056 Z4.455
X0.446 Y-5.025 Z4.368
X0.471 Y-4.982 Z4.287
X0.502 Y-4.93 Z4.216
X0.539 Y-4.868 Z4.155
X0.58 Y-4.799 Z4.105
X0.624 Y-4.725 Z4.069
X0.671 Y-4.646 Z4.047
X0.719 Y-4.565 Z4.04
G3 X1.25 Y-2.757 R3.798
G1 Y104.938 F600.
G3 X0.309 Y105.411 R0.6
G1 X0.257 Y105.358 Z4.045
X0.205 Y105.307 Z4.058
X0.156 Y105.257 Z4.081
X0.123 Y105.185 Z4.119
X0.094 Y105.118 Z4.169
X0.067 Y105.059 Z4.228
X0.062 Y105.012 Z4.285
X0.057 Y104.973 Z4.347
X0.053 Y104.941 Z4.413
X0.05 Y104.918 Z4.483
Y104.912 Z4.507
X0.051 Y104.9 Z4.573
Y104.897 Z4.64
G0 Z4.745
X-0.387 Y-5.459
G1 Z4.145 F200.
X-0.385 Y-5.452 Z4.051
X-0.38 Y-5.431 Z3.96
X-0.371 Y-5.396 Z3.873
X-0.359 Y-5.348 Z3.792
X-0.344 Y-5.289 Z3.721
X-0.326 Y-5.22 Z3.66
X-0.306 Y-5.142 Z3.61
X-0.284 Y-5.058 Z3.574
X-0.262 Y-4.969 Z3.552
X-0.238 Y-4.878 Z3.545
G3 X0.03 Y-3.012 R8.75
G1 Y-2.862 F600.
X-0.236 Y-2.017
X-0.426 Y-1.151
X-0.56 Y-0.275
X-0.654 Y0.606
X-0.72 Y1.489
X-0.766 Y2.374
X-0.798 Y3.26
X-0.82 Y4.146
X-0.836 Y5.032
X-0.846 Y5.918
X-0.854 Y6.804
X-0.859 Y7.69
X-0.862 Y8.576
X-0.866 Y10.348
X-0.869 Y13.007
X-0.87 Y21.868
Y47.565
Y98.074
Y102.505
X-0.738 Y102.928
X-0.3 Y103.698
X0.353 Y104.297
X0.46 Y104.36
X0.727 Y104.557
X0.949 Y104.805
X1.114 Y105.093
X1.216 Y105.41
X1.25 Y105.74
G3 X0.051 Y105.698 R0.6
G1 X0.054 Y105.604 Z3.552
X0.057 Y105.513 Z3.574
X0.06 Y105.426 Z3.61
X0.063 Y105.346 Z3.66
X0.066 Y105.274 Z3.721
X0.068 Y105.213 Z3.792
X0.069 Y105.164 Z3.873
X0.071 Y105.128 Z3.96
Y105.106 Z4.051
X0.072 Y105.098 Z4.145
G0 Z4.745
X0.412 Y-5.081
G1 Z4.145 F200.
X0.416 Y-5.075 Z4.051
X0.427 Y-5.056 Z3.96
X0.446 Y-5.025 Z3.873
X0.471 Y-4.982 Z3.792
X0.502 Y-4.93 Z3.721
X0.539 Y-4.868 Z3.66
X0.58 Y-4.799 Z3.61
X0.624 Y-4.725 Z3.574
X0.671 Y-4.646 Z3.552
X0.719 Y-4.565 Z3.545
G3 X1.25 Y-2.757 R3.798
G1 Y104.938 F600.
G3 X0.309 Y105.411 R0.6
G1 X0.257 Y105.358 Z3.55
X0.205 Y105.307 Z3.563
X0.156 Y105.257 Z3.586
X0.123 Y105.185 Z3.624
X0.094 Y105.118 Z3.674
X0.067 Y105.059 Z3.733
X0.062 Y105.012 Z3.79
X0.057 Y104.973 Z3.852
X0.053 Y104.941 Z3.918
X0.05 Y104.918 Z3.988
Y104.912 Z4.012
X0.051 Y104.9 Z4.078
Y104.897 Z4.145
G0 Z4.25
X-0.387 Y-5.459
G1 Z3.65 F200.
X-0.385 Y-5.452 Z3.556
X-0.38 Y-5.431 Z3.465
X-0.371 Y-5.396 Z3.378
X-0.359 Y-5.348 Z3.297
X-0.344 Y-5.289 Z3.226
X-0.326 Y-5.22 Z3.165
X-0.306 Y-5.142 Z3.115
X-0.284 Y-5.058 Z3.079
X-0.262 Y-4.969 Z3.057
X-0.238 Y-4.878 Z3.05
G3 X0.03 Y-3.012 R8.75
G1 Y-2.862 F600.
X-0.236 Y-2.017
X-0.426 Y-1.151
X-0.56 Y-0.275
X-0.654 Y0.606
X-0.72 Y1.489
X-0.766 Y2.374
X-0.798 Y3.26
X-0.82 Y4.146
X-0.836 Y5.032
X-0.846 Y5.918
X-0.854 Y6.804
X-0.859 Y7.69
X-0.862 Y8.576
X-0.866 Y10.348
X-0.869 Y13.007
X-0.87 Y21.868
Y47.565
Y98.074
Y102.505
X-0.738 Y102.928
X-0.3 Y103.698
X0.353 Y104.297
X0.46 Y104.36
X0.727 Y104.557
X0.949 Y104.805
X1.114 Y105.093
X1.216 Y105.41
X1.25 Y105.74
G3 X0.051 Y105.698 R0.6
G1 X0.054 Y105.604 Z3.057
X0.057 Y105.513 Z3.079
X0.06 Y105.426 Z3.115
X0.063 Y105.346 Z3.165
X0.066 Y105.274 Z3.226
X0.068 Y105.213 Z3.297
X0.069 Y105.164 Z3.378
X0.071 Y105.128 Z3.465
Y105.106 Z3.556
X0.072 Y105.098 Z3.65
G0 Z4.25
X0.412 Y-5.081
G1 Z3.65 F200.
X0.416 Y-5.075 Z3.556
X0.427 Y-5.056 Z3.465
X0.446 Y-5.025 Z3.378
X0.471 Y-4.982 Z3.297
X0.502 Y-4.93 Z3.226
X0.539 Y-4.868 Z3.165
X0.58 Y-4.799 Z3.115
X0.624 Y-4.725 Z3.079
X0.671 Y-4.646 Z3.057
X0.719 Y-4.565 Z3.05
G3 X1.25 Y-2.757 R3.798
G1 Y104.938 F600.
G3 X0.309 Y105.411 R0.6
G1 X0.257 Y105.358 Z3.055
X0.205 Y105.307 Z3.068
X0.156 Y105.257 Z3.091
X0.123 Y105.185 Z3.129
X0.094 Y105.118 Z3.179
X0.067 Y105.059 Z3.238
X0.062 Y105.012 Z3.295
X0.057 Y104.973 Z3.357
X0.053 Y104.941 Z3.423
X0.05 Y104.918 Z3.493
Y104.912 Z3.517
X0.051 Y104.9 Z3.583
Y104.897 Z3.65
G0 Z3.755
X-0.387 Y-5.459
G1 Z3.155 F200.
X-0.385 Y-5.452 Z3.061
X-0.38 Y-5.431 Z2.97
X-0.371 Y-5.396 Z2.883
X-0.359 Y-5.348 Z2.802
X-0.344 Y-5.289 Z2.731
X-0.326 Y-5.22 Z2.67
X-0.306 Y-5.142 Z2.62
X-0.284 Y-5.058 Z2.584
X-0.262 Y-4.969 Z2.562
X-0.238 Y-4.878 Z2.555
G3 X0.03 Y-3.012 R8.75
G1 Y-2.862 F600.
X-0.236 Y-2.017
X-0.426 Y-1.151
X-0.56 Y-0.275
X-0.654 Y0.606
X-0.72 Y1.489
X-0.766 Y2.374
X-0.798 Y3.26
X-0.82 Y4.146
X-0.836 Y5.032
X-0.846 Y5.918
X-0.854 Y6.804
X-0.859 Y7.69
X-0.862 Y8.576
X-0.866 Y10.348
X-0.869 Y13.007
X-0.87 Y21.868
Y47.565
Y98.074
Y102.505
X-0.738 Y102.928
X-0.3 Y103.698
X0.353 Y104.297
X0.46 Y104.36
X0.727 Y104.557
X0.949 Y104.805
X1.114 Y105.093
X1.216 Y105.41
X1.25 Y105.74
G3 X0.051 Y105.698 R0.6
G1 X0.054 Y105.604 Z2.562
X0.057 Y105.513 Z2.584
X0.06 Y105.426 Z2.62
X0.063 Y105.346 Z2.67
X0.066 Y105.274 Z2.731
X0.068 Y105.213 Z2.802
X0.069 Y105.164 Z2.883
X0.071 Y105.128 Z2.97
Y105.106 Z3.061
X0.072 Y105.098 Z3.155
G0 Z3.755
X0.412 Y-5.081
G1 Z3.155 F200.
X0.416 Y-5.075 Z3.061
X0.427 Y-5.056 Z2.97
X0.446 Y-5.025 Z2.883
X0.471 Y-4.982 Z2.802
X0.502 Y-4.93 Z2.731
X0.539 Y-4.868 Z2.67
X0.58 Y-4.799 Z2.62
X0.624 Y-4.725 Z2.584
X0.671 Y-4.646 Z2.562
X0.719 Y-4.565 Z2.555
G3 X1.25 Y-2.757 R3.798
G1 Y104.938 F600.
G3 X0.309 Y105.411 R0.6
G1 X0.257 Y105.358 Z2.56
X0.205 Y105.307 Z2.573
X0.156 Y105.257 Z2.596
X0.123 Y105.185 Z2.634
X0.094 Y105.118 Z2.684
X0.067 Y105.059 Z2.743
X0.062 Y105.012 Z2.8
X0.057 Y104.973 Z2.862
X0.053 Y104.941 Z2.928
X0.05 Y104.918 Z2.998
Y104.912 Z3.022
X0.051 Y104.9 Z3.088
Y104.897 Z3.155
G0 Z3.26
X-0.387 Y-5.459
G1 Z2.66 F200.
X-0.385 Y-5.452 Z2.566
X-0.38 Y-5.431 Z2.475
X-0.371 Y-5.396 Z2.388
X-0.359 Y-5.348 Z2.307
X-0.344 Y-5.289 Z2.236
X-0.326 Y-5.22 Z2.175
X-0.306 Y-5.142 Z2.125
X-0.284 Y-5.058 Z2.089
X-0.262 Y-4.969 Z2.067
X-0.238 Y-4.878 Z2.06
G3 X0.03 Y-3.012 R8.75
G1 Y-2.862 F600.
X-0.236 Y-2.017
X-0.426 Y-1.151
X-0.56 Y-0.275
X-0.654 Y0.606
X-0.72 Y1.489
X-0.766 Y2.374
X-0.798 Y3.26
X-0.82 Y4.146
X-0.836 Y5.032
X-0.846 Y5.918
X-0.854 Y6.804
X-0.859 Y7.69
X-0.862 Y8.576
X-0.866 Y10.348
X-0.869 Y13.007
X-0.87 Y21.868
Y47.565
Y98.074
Y102.505
X-0.738 Y102.928
X-0.3 Y103.698
X0.353 Y104.297
X0.46 Y104.36
X0.727 Y104.557
X0.949 Y104.805
X1.114 Y105.093
X1.216 Y105.41
X1.25 Y105.74
G3 X0.051 Y105.698 R0.6
G1 X0.054 Y105.604 Z2.067
X0.057 Y105.513 Z2.089
X0.06 Y105.426 Z2.125
X0.063 Y105.346 Z2.175
X0.066 Y105.274 Z2.236
X0.068 Y105.213 Z2.307
X0.069 Y105.164 Z2.388
X0.071 Y105.128 Z2.475
Y105.106 Z2.566
X0.072 Y105.098 Z2.66
G0 Z3.26
X0.412 Y-5.081
G1 Z2.66 F200.
X0.416 Y-5.075 Z2.566
X0.427 Y-5.056 Z2.475
X0.446 Y-5.025 Z2.388
X0.471 Y-4.982 Z2.307
X0.502 Y-4.93 Z2.236
X0.539 Y-4.868 Z2.175
X0.58 Y-4.799 Z2.125
X0.624 Y-4.725 Z2.089
X0.671 Y-4.646 Z2.067
X0.719 Y-4.565 Z2.06
G3 X1.25 Y-2.757 R3.798
G1 Y104.938 F600.
G3 X0.309 Y105.411 R0.6
G1 X0.257 Y105.358 Z2.065
X0.205 Y105.307 Z2.078
X0.156 Y105.257 Z2.101
X0.123 Y105.185 Z2.139
X0.094 Y105.118 Z2.189
X0.067 Y105.059 Z2.248
X0.062 Y105.012 Z2.305
X0.057 Y104.973 Z2.367
X0.053 Y104.941 Z2.433
X0.05 Y104.918 Z2.503
Y104.912 Z2.527
X0.051 Y104.9 Z2.593
Y104.897 Z2.66
G0 Z2.765
X-0.387 Y-5.459
G1 Z2.165 F200.
X-0.385 Y-5.452 Z2.071
X-0.38 Y-5.431 Z1.98
X-0.371 Y-5.396 Z1.893
X-0.359 Y-5.348 Z1.812
X-0.344 Y-5.289 Z1.741
X-0.326 Y-5.22 Z1.68
X-0.306 Y-5.142 Z1.63
X-0.284 Y-5.058 Z1.594
X-0.262 Y-4.969 Z1.572
X-0.238 Y-4.878 Z1.565
G3 X0.03 Y-3.012 R8.75
G1 Y-2.862 F600.
X-0.236 Y-2.017
X-0.426 Y-1.151
X-0.56 Y-0.275
X-0.654 Y0.606
X-0.72 Y1.489
X-0.766 Y2.374
X-0.798 Y3.26
X-0.82 Y4.146
X-0.836 Y5.032
X-0.846 Y5.918
X-0.854 Y6.804
X-0.859 Y7.69
X-0.862 Y8.576
X-0.866 Y10.348
X-0.869 Y13.007
X-0.87 Y21.868
Y47.565
Y98.074
Y102.505
X-0.738 Y102.928
X-0.3 Y103.698
X0.353 Y104.297
X0.46 Y104.36
X0.727 Y104.557
X0.949 Y104.805
X1.114 Y105.093
X1.216 Y105.41
X1.25 Y105.74
G3 X0.051 Y105.698 R0.6
G1 X0.054 Y105.604 Z1.572
X0.057 Y105.513 Z1.594
X0.06 Y105.426 Z1.63
X0.063 Y105.346 Z1.68
X0.066 Y105.274 Z1.741
X0.068 Y105.213 Z1.812
X0.069 Y105.164 Z1.893
X0.071 Y105.128 Z1.98
Y105.106 Z2.071
X0.072 Y105.098 Z2.165
G0 Z2.765
X0.412 Y-5.081
G1 Z2.165 F200.
X0.416 Y-5.075 Z2.071
X0.427 Y-5.056 Z1.98
X0.446 Y-5.025 Z1.893
X0.471 Y-4.982 Z1.812
X0.502 Y-4.93 Z1.741
X0.539 Y-4.868 Z1.68
X0.58 Y-4.799 Z1.63
X0.624 Y-4.725 Z1.594
X0.671 Y-4.646 Z1.572
X0.719 Y-4.565 Z1.565
G3 X1.25 Y-2.757 R3.798
G1 Y104.938 F600.
G3 X0.309 Y105.411 R0.6
G1 X0.257 Y105.358 Z1.57
X0.205 Y105.307 Z1.583
X0.156 Y105.257 Z1.606
X0.123 Y105.185 Z1.644
X0.094 Y105.118 Z1.694
X0.067 Y105.059 Z1.753
X0.062 Y105.012 Z1.81
X0.057 Y104.973 Z1.872
X0.053 Y104.941 Z1.938
X0.05 Y104.918 Z2.008
Y104.912 Z2.032
X0.051 Y104.9 Z2.098
Y104.897 Z2.165
G0 Z2.27
X-0.387 Y-5.459
G1 Z1.67 F200.
X-0.385 Y-5.452 Z1.576
X-0.38 Y-5.431 Z1.485
X-0.371 Y-5.396 Z1.398
X-0.359 Y-5.348 Z1.317
X-0.344 Y-5.289 Z1.246
X-0.326 Y-5.22 Z1.185
X-0.306 Y-5.142 Z1.135
X-0.284 Y-5.058 Z1.099
X-0.262 Y-4.969 Z1.077
X-0.238 Y-4.878 Z1.07
G3 X0.03 Y-3.012 R8.75
G1 Y-2.862 F600.
X-0.236 Y-2.017
X-0.426 Y-1.151
X-0.56 Y-0.275
X-0.654 Y0.606
X-0.72 Y1.489
X-0.766 Y2.374
X-0.798 Y3.26
X-0.82 Y4.146
X-0.836 Y5.032
X-0.846 Y5.918
X-0.854 Y6.804
X-0.859 Y7.69
X-0.862 Y8.576
X-0.866 Y10.348
X-0.869 Y13.007
X-0.87 Y21.868
Y47.565
Y98.074
Y102.505
X-0.738 Y102.928
X-0.3 Y103.698
X0.353 Y104.297
X0.46 Y104.36
X0.727 Y104.557
X0.949 Y104.805
X1.114 Y105.093
X1.216 Y105.41
X1.25 Y105.74
G3 X0.051 Y105.698 R0.6
G1 X0.054 Y105.604 Z1.077
X0.057 Y105.513 Z1.099
X0.06 Y105.426 Z1.135
X0.063 Y105.346 Z1.185
X0.066 Y105.274 Z1.246
X0.068 Y105.213 Z1.317
X0.069 Y105.164 Z1.398
X0.071 Y105.128 Z1.485
Y105.106 Z1.576
X0.072 Y105.098 Z1.67
G0 Z2.27
X0.412 Y-5.081
G1 Z1.67 F200.
X0.416 Y-5.075 Z1.576
X0.427 Y-5.056 Z1.485
X0.446 Y-5.025 Z1.398
X0.471 Y-4.982 Z1.317
X0.502 Y-4.93 Z1.246
X0.539 Y-4.868 Z1.185
X0.58 Y-4.799 Z1.135
X0.624 Y-4.725 Z1.099
X0.671 Y-4.646 Z1.077
X0.719 Y-4.565 Z1.07
G3 X1.25 Y-2.757 R3.798
G1 Y104.938 F600.
G3 X0.309 Y105.411 R0.6
G1 X0.257 Y105.358 Z1.075
X0.205 Y105.307 Z1.088
X0.156 Y105.257 Z1.111
X0.123 Y105.185 Z1.149
X0.094 Y105.118 Z1.199
X0.067 Y105.059 Z1.258
X0.062 Y105.012 Z1.315
X0.057 Y104.973 Z1.377
X0.053 Y104.941 Z1.443
X0.05 Y104.918 Z1.513
Y104.912 Z1.537
X0.051 Y104.9 Z1.603
Y104.897 Z1.67
G0 Z1.775
X-0.387 Y-5.459
G1 Z1.175 F200.
X-0.385 Y-5.452 Z1.081
X-0.38 Y-5.431 Z0.99
X-0.371 Y-5.396 Z0.903
X-0.359 Y-5.348 Z0.822
X-0.344 Y-5.289 Z0.751
X-0.326 Y-5.22 Z0.69
X-0.306 Y-5.142 Z0.64
X-0.284 Y-5.058 Z0.604
X-0.262 Y-4.969 Z0.582
X-0.238 Y-4.878 Z0.575
G3 X0.03 Y-3.012 R8.75
G1 Y-2.862 F600.
X-0.236 Y-2.017
X-0.426 Y-1.151
X-0.56 Y-0.275
X-0.654 Y0.606
X-0.72 Y1.489
X-0.766 Y2.374
X-0.798 Y3.26
X-0.82 Y4.146
X-0.836 Y5.032
X-0.846 Y5.918
X-0.854 Y6.804
X-0.859 Y7.69
X-0.862 Y8.576
X-0.866 Y10.348
X-0.869 Y13.007
X-0.87 Y21.868
Y47.565
Y98.074
Y102.505
X-0.738 Y102.928
X-0.3 Y103.698
X0.353 Y104.297
X0.46 Y104.36
X0.727 Y104.557
X0.949 Y104.805
X1.114 Y105.093
X1.216 Y105.41
X1.25 Y105.74
G3 X0.051 Y105.698 R0.6
G1 X0.054 Y105.604 Z0.582
X0.057 Y105.513 Z0.604
X0.06 Y105.426 Z0.64
X0.063 Y105.346 Z0.69
X0.066 Y105.274 Z0.751
X0.068 Y105.213 Z0.822
X0.069 Y105.164 Z0.903
X0.071 Y105.128 Z0.99
Y105.106 Z1.081
X0.072 Y105.098 Z1.175
G0 Z1.775
X0.412 Y-5.081
G1 Z1.175 F200.
X0.416 Y-5.075 Z1.081
X0.427 Y-5.056 Z0.99
X0.446 Y-5.025 Z0.903
X0.471 Y-4.982 Z0.822
X0.502 Y-4.93 Z0.751
X0.539 Y-4.868 Z0.69
X0.58 Y-4.799 Z0.64
X0.624 Y-4.725 Z0.604
X0.671 Y-4.646 Z0.582
X0.719 Y-4.565 Z0.575
G3 X1.25 Y-2.757 R3.798
G1 Y104.938 F600.
G3 X0.309 Y105.411 R0.6
G1 X0.257 Y105.358 Z0.58
X0.205 Y105.307 Z0.593
X0.156 Y105.257 Z0.616
X0.123 Y105.185 Z0.654
X0.094 Y105.118 Z0.704
X0.067 Y105.059 Z0.763
X0.062 Y105.012 Z0.82
X0.057 Y104.973 Z0.882
X0.053 Y104.941 Z0.948
X0.05 Y104.918 Z1.018
Y104.912 Z1.042
X0.051 Y104.9 Z1.108
Y104.897 Z1.175
G0 Z1.28
X-0.387 Y-5.459
G1 Z0.68 F200.
X-0.385 Y-5.452 Z0.586
X-0.38 Y-5.431 Z0.495
X-0.371 Y-5.396 Z0.408
X-0.359 Y-5.348 Z0.327
X-0.344 Y-5.289 Z0.256
X-0.326 Y-5.22 Z0.195
X-0.306 Y-5.142 Z0.145
X-0.284 Y-5.058 Z0.109
X-0.262 Y-4.969 Z0.087
X-0.238 Y-4.878 Z0.08
G3 X0.03 Y-3.012 R8.75
G1 Y-2.862 F600.
X-0.236 Y-2.017
X-0.426 Y-1.151
X-0.56 Y-0.275
X-0.654 Y0.606
X-0.72 Y1.489
X-0.766 Y2.374
X-0.798 Y3.26
X-0.82 Y4.146
X-0.836 Y5.032
X-0.846 Y5.918
X-0.854 Y6.804
X-0.859 Y7.69
X-0.862 Y8.576
X-0.866 Y10.348
X-0.869 Y13.007
X-0.87 Y21.868
Y47.565
Y98.074
Y102.505
X-0.738 Y102.928
X-0.3 Y103.698
X0.353 Y104.297
X0.46 Y104.36
X0.727 Y104.557
X0.949 Y104.805
X1.114 Y105.093
X1.216 Y105.41
X1.25 Y105.74
G3 X0.051 Y105.698 R0.6
G1 X0.054 Y105.604 Z0.087
X0.057 Y105.513 Z0.109
X0.06 Y105.426 Z0.145
X0.063 Y105.346 Z0.195
X0.066 Y105.274 Z0.256
X0.068 Y105.213 Z0.327
X0.069 Y105.164 Z0.408
X0.071 Y105.128 Z0.495
Y105.106 Z0.586
X0.072 Y105.098 Z0.68
G0 Z1.28
X0.412 Y-5.081
G1 Z0.68 F200.
X0.416 Y-5.075 Z0.586
X0.427 Y-5.056 Z0.495
X0.446 Y-5.025 Z0.408
X0.471 Y-4.982 Z0.327
X0.502 Y-4.93 Z0.256
X0.539 Y-4.868 Z0.195
X0.58 Y-4.799 Z0.145
X0.624 Y-4.725 Z0.109
X0.671 Y-4.646 Z0.087
X0.719 Y-4.565 Z0.08
G3 X1.25 Y-2.757 R3.798
G1 Y104.938 F600.
G3 X0.309 Y105.411 R0.6
G1 X0.257 Y105.358 Z0.085
X0.205 Y105.307 Z0.098
X0.156 Y105.257 Z0.121
X0.123 Y105.185 Z0.159
X0.094 Y105.118 Z0.209
X0.067 Y105.059 Z0.268
X0.062 Y105.012 Z0.325
X0.057 Y104.973 Z0.387
X0.053 Y104.941 Z0.453
X0.05 Y104.918 Z0.523
Y104.912 Z0.547
X0.051 Y104.9 Z0.613
Y104.897 Z0.68
G0 Z1.1
X-0.387 Y-5.459
G1 Z0.5 F200.
X-0.385 Y-5.452 Z0.406
X-0.38 Y-5.431 Z0.315
X-0.371 Y-5.396 Z0.228
X-0.359 Y-5.348 Z0.147
X-0.344 Y-5.289 Z0.076
X-0.326 Y-5.22 Z0.015
X-0.306 Y-5.142 Z-0.035
X-0.284 Y-5.058 Z-0.071
X-0.262 Y-4.969 Z-0.093
X-0.238 Y-4.878 Z-0.1
G3 X0.03 Y-3.012 R8.75
G1 Y-2.862 F600.
X-0.236 Y-2.017
X-0.426 Y-1.151
X-0.56 Y-0.275
X-0.654 Y0.606
X-0.72 Y1.489
X-0.766 Y2.374
X-0.798 Y3.26
X-0.82 Y4.146
X-0.836 Y5.032
X-0.846 Y5.918
X-0.854 Y6.804
X-0.859 Y7.69
X-0.862 Y8.576
X-0.866 Y10.348
X-0.869 Y13.007
X-0.87 Y21.868
Y47.565
Y98.074
Y102.505
X-0.738 Y102.928
X-0.3 Y103.698
X0.353 Y104.297
X0.46 Y104.36
X0.727 Y104.557
X0.949 Y104.805
X1.114 Y105.093
X1.216 Y105.41
X1.25 Y105.74
G3 X0.051 Y105.698 R0.6
G1 X0.054 Y105.604 Z-0.093
X0.057 Y105.513 Z-0.071
X0.06 Y105.426 Z-0.035
X0.063 Y105.346 Z0.015
X0.066 Y105.274 Z0.076
X0.068 Y105.213 Z0.147
X0.069 Y105.164 Z0.228
X0.071 Y105.128 Z0.315
Y105.106 Z0.406
X0.072 Y105.098 Z0.5
G0 Z1.1
X0.412 Y-5.081
G1 Z0.5 F200.
X0.416 Y-5.075 Z0.406
X0.427 Y-5.056 Z0.315
X0.446 Y-5.025 Z0.228
X0.471 Y-4.982 Z0.147
X0.502 Y-4.93 Z0.076
X0.539 Y-4.868 Z0.015
X0.58 Y-4.799 Z-0.035
X0.624 Y-4.725 Z-0.071
X0.671 Y-4.646 Z-0.093
X0.719 Y-4.565 Z-0.1
G3 X1.25 Y-2.757 R3.798
G1 Y104.938 F600.
G3 X0.629 Y105.517 R0.6
X0.051 Y104.897 R0.6
G1 X0.054 Y104.803 Z-0.093
X0.057 Y104.711 Z-0.071
X0.06 Y104.624 Z-0.035
X0.063 Y104.544 Z0.015
X0.066 Y104.473 Z0.076
X0.068 Y104.412 Z0.147
X0.069 Y104.362 Z0.228
X0.071 Y104.326 Z0.315
Y104.304 Z0.406
X0.072 Y104.297 Z0.5
G0 Z23.

M9
G28 G91 Z0.
G28 X0. Y0.
M30
