(CLAMPING BLOCK_CNC001)
(T1  D=6. CR=0. - ZMIN=-8. - SCHAFTFRSER)
(T2  D=3. CR=0. - ZMIN=-20.5 - SCHAFTFRSER)
G90 G94 G91.1 G40 G49 G17
G21
G28 G91 Z0.
G90

(2D ADAPTIVE1)
M5
M9
T1 M6
S10000 M3
G54
M7
G0 X40.465 Y-0.387
G43 Z15. H1
Z5.
Z0.705
G1 Z0.105 F200.
X40.458 Y-0.385 Z0.011
X40.437 Y-0.38 Z-0.08
X40.402 Y-0.371 Z-0.167
X40.354 Y-0.359 Z-0.248
X40.295 Y-0.344 Z-0.319
X40.226 Y-0.326 Z-0.38
X40.148 Y-0.306 Z-0.43
X40.064 Y-0.284 Z-0.466
X39.975 Y-0.262 Z-0.488
X39.884 Y-0.238 Z-0.495
G3 X38.018 Y0.03 R8.75
G1 X37.908 F500.
X37.034 Y0.177
X36.154 Y0.281
X35.271 Y0.355
X34.386 Y0.407
X33.501 Y0.444
X32.615 Y0.47
X31.729 Y0.488
X30.843 Y0.5
X29.957 Y0.509
X29.071 Y0.515
X28.185 Y0.52
X26.413 Y0.525
X23.754 Y0.528
X17.551 Y0.53
X2.93
X2.721 Y0.603
X2.631 Y0.667
X2.289 Y0.949
X1.728 Y1.635
X1.355 Y2.439
X1.102 Y3.288
X0.928 Y4.157
X0.807 Y5.035
X0.723 Y5.917
X0.665 Y6.801
X0.625 Y7.686
X0.596 Y8.572
X0.59 Y8.848
X0.554 Y9.051
X0.457 Y9.232
X0.31 Y9.376
X0.127 Y9.468
X-0.077 Y9.5
G3 X-0.05 Y8.3 R0.6
X-0.035 Y8.301 R0.6
G1 X0.059 Y8.304 Z-0.488
X0.151 Y8.307 Z-0.466
X0.238 Y8.31 Z-0.43
X0.318 Y8.313 Z-0.38
X0.389 Y8.316 Z-0.319
X0.45 Y8.318 Z-0.248
X0.5 Y8.319 Z-0.167
X0.536 Y8.321 Z-0.08
X0.558 Z0.011
X0.565 Y8.322 Z0.105
G0 Z5.
X-5.339 Y41.338
Z0.705
G1 Z0.105 F200.
X-5.332 Y41.334 Z0.011
X-5.314 Y41.323 Z-0.08
X-5.283 Y41.304 Z-0.167
X-5.24 Y41.279 Z-0.248
X-5.188 Y41.248 Z-0.319
X-5.126 Y41.211 Z-0.38
X-5.057 Y41.17 Z-0.43
X-4.982 Y41.126 Z-0.466
X-4.904 Y41.079 Z-0.488
X-4.823 Y41.031 Z-0.495
G3 X-3.014 Y40.5 R3.798
G1 X-2.32 F500.
X-2.245 Y40.504
X-1.998 Y40.653
X-1.722 Y40.868
X-1.421 Y41.165
X-1.1 Y41.569
X-0.762 Y42.115
X-0.414 Y42.865
X-0.139 Y43.707
X0.058 Y44.571
X0.197 Y45.446
X0.296 Y46.327
X0.331 Y46.768
X0.346 Y46.989
X0.407 Y47.202
X0.644 Y47.577
X1.288 Y48.185
X2.078 Y48.586
X2.922 Y48.858
X3.788 Y49.045
X4.665 Y49.174
X5.546 Y49.263
X6.43 Y49.326
X7.315 Y49.369
X8.201 Y49.399
X9.087 Y49.421
X9.973 Y49.435
X10.859 Y49.446
X11.745 Y49.453
X12.631 Y49.458
X13.517 Y49.462
X15.289 Y49.466
X17.948 Y49.469
X25.923 Y49.47
X32.126
X32.335 Y49.397
X32.422 Y49.329
X33.086 Y48.742
X33.52 Y47.97
X33.813 Y47.133
X34.014 Y46.27
X34.152 Y45.395
X34.248 Y44.514
X34.315 Y43.63
X34.362 Y42.746
X34.394 Y41.86
X34.417 Y40.974
X34.433 Y40.088
X34.444 Y39.202
X34.452 Y38.316
X34.457 Y37.43
X34.461 Y36.544
X34.466 Y34.772
X34.468 Y32.113
X34.47 Y25.024
Y6.194
X34.397 Y5.985
X34.329 Y5.898
X33.696 Y5.278
X32.905 Y4.877
X32.061 Y4.609
X31.193 Y4.428
X30.316 Y4.304
X29.434 Y4.219
X28.55 Y4.16
X27.664 Y4.12
X26.779 Y4.092
X25.893 Y4.073
X25.007 Y4.06
X24.121 Y4.051
X23.235 Y4.044
X22.348 Y4.04
X20.576 Y4.035
X17.918 Y4.032
X10.829 Y4.03
X7.063
X6.843 Y4.053
X6.427 Y4.207
X5.721 Y4.742
X5.229 Y5.479
X4.884 Y6.295
X4.639 Y7.147
X4.423 Y8.006
X4.164 Y8.854
X4.062 Y9.093
X3.961 Y9.259
X3.817 Y9.389
X3.641 Y9.472
X3.449 Y9.5
X-0.077
G3 X-0.05 Y8.3 R0.6
X-0.035 Y8.301 R0.6
G1 X0.059 Y8.304 Z-0.488
X0.151 Y8.307 Z-0.466
X0.238 Y8.31 Z-0.43
X0.318 Y8.313 Z-0.38
X0.389 Y8.316 Z-0.319
X0.45 Y8.318 Z-0.248
X0.5 Y8.319 Z-0.167
X0.536 Y8.321 Z-0.08
X0.558 Z0.011
X0.565 Y8.322 Z0.105
G0 Z5.
X-4.645 Y41.338
Z0.705
G1 Z0.105 F200.
X-4.638 Y41.334 Z0.011
X-4.619 Y41.323 Z-0.08
X-4.588 Y41.304 Z-0.167
X-4.546 Y41.279 Z-0.248
X-4.494 Y41.248 Z-0.319
X-4.432 Y41.211 Z-0.38
X-4.363 Y41.17 Z-0.43
X-4.288 Y41.126 Z-0.466
X-4.21 Y41.079 Z-0.488
X-4.129 Y41.031 Z-0.495
G3 X-2.32 Y40.5 R3.798
G1 X-0.71 F500.
X-0.561 Y40.507
X-0.263 Y40.56
X0.045 Y40.653
X0.402 Y40.809
X0.771 Y41.025
X1.164 Y41.324
X1.575 Y41.72
X2.003 Y42.245
X2.429 Y42.916
X2.62 Y43.316
X3.138 Y44.035
X3.846 Y44.568
X4.643 Y44.954
X5.484 Y45.235
X6.346 Y45.438
X7.22 Y45.585
X8.1 Y45.691
X8.983 Y45.768
X9.867 Y45.824
X10.752 Y45.865
X11.638 Y45.894
X12.524 Y45.915
X13.41 Y45.93
X14.296 Y45.942
X15.182 Y45.949
X16.068 Y45.955
X16.954 Y45.959
X18.726 Y45.965
X21.385 Y45.968
X27.588 Y45.97
X28.031
X28.248 Y45.925
X28.652 Y45.743
X29.338 Y45.183
X29.813 Y44.435
X30.147 Y43.614
X30.384 Y42.76
X30.551 Y41.89
X30.671 Y41.012
X30.756 Y40.13
X30.817 Y39.246
X30.86 Y38.361
X30.892 Y37.475
X30.914 Y36.589
X30.93 Y35.703
X30.941 Y34.817
X30.95 Y33.931
X30.955 Y33.045
X30.96 Y32.159
X30.965 Y30.387
X30.968 Y27.728
X30.969 Y26.842
X30.97 Y17.981
Y10.449
X30.934 Y10.23
X30.757 Y9.824
X30.196 Y9.138
X29.447 Y8.665
X28.625 Y8.334
X27.77 Y8.101
X26.899 Y7.936
X26.021 Y7.819
X25.139 Y7.736
X24.254 Y7.677
X23.369 Y7.635
X22.484 Y7.605
X21.598 Y7.583
X20.712 Y7.568
X19.826 Y7.557
X18.94 Y7.549
X18.054 Y7.544
X17.168 Y7.54
X15.395 Y7.535
X12.737 Y7.532
X10.522 Y7.531
X10.097 Y7.658
X9.344 Y8.124
X8.739 Y8.772
X8.375 Y9.241
X8.229 Y9.381
X8.047 Y9.469
X7.848 Y9.5
X3.449
G3 X3.476 Y8.3 R0.6
X3.49 Y8.301 R0.6
G1 X3.584 Y8.304 Z-0.488
X3.676 Y8.307 Z-0.466
X3.763 Y8.31 Z-0.43
X3.843 Y8.313 Z-0.38
X3.914 Y8.316 Z-0.319
X3.976 Y8.318 Z-0.248
X4.025 Y8.319 Z-0.167
X4.061 Y8.321 Z-0.08
X4.083 Z0.011
X4.09 Y8.322 Z0.105
G0 Z5.
X-3.035 Y41.338
Z0.705
G1 Z0.105 F200.
X-3.028 Y41.334 Z0.011
X-3.01 Y41.323 Z-0.08
X-2.979 Y41.304 Z-0.167
X-2.936 Y41.279 Z-0.248
X-2.884 Y41.248 Z-0.319
X-2.822 Y41.211 Z-0.38
X-2.753 Y41.17 Z-0.43
X-2.678 Y41.126 Z-0.466
X-2.6 Y41.079 Z-0.488
X-2.519 Y41.031 Z-0.495
G3 X-0.71 Y40.5 R3.798
G1 X1.905 F500.
X2.245 Y40.517
X2.599 Y40.577
X3.449 Y40.829
X4.286 Y41.119
X5.13 Y41.389
X5.986 Y41.619
X6.852 Y41.808
X7.725 Y41.96
X8.603 Y42.079
X9.484 Y42.172
X10.367 Y42.244
X11.252 Y42.3
X12.137 Y42.342
X13.022 Y42.374
X13.908 Y42.398
X14.794 Y42.416
X15.68 Y42.43
X16.566 Y42.44
X17.452 Y42.448
X18.338 Y42.454
X19.224 Y42.458
X20.997 Y42.463
X23.655 Y42.467
X24.32 Y42.468
X24.539 Y42.44
X24.956 Y42.29
X25.675 Y41.772
X26.184 Y41.047
X26.546 Y40.238
X26.804 Y39.39
X26.99 Y38.524
X27.123 Y37.648
X27.22 Y36.767
X27.289 Y35.884
X27.339 Y34.999
X27.376 Y34.113
X27.402 Y33.228
X27.421 Y32.342
X27.434 Y31.456
X27.444 Y30.57
X27.451 Y29.684
X27.457 Y28.798
X27.46 Y27.911
X27.465 Y26.139
X27.468 Y23.481
X27.47 Y17.278
Y15.506
Y14.177
X27.447 Y13.956
X27.302 Y13.538
X26.786 Y12.817
X26.06 Y12.309
X25.251 Y11.948
X24.403 Y11.69
X23.536 Y11.505
X22.66 Y11.373
X21.779 Y11.277
X20.896 Y11.208
X20.011 Y11.159
X19.126 Y11.123
X18.24 Y11.097
X18.023 Y11.092
X17.813 Y11.055
X17.624 Y10.957
X17.473 Y10.806
X17.399 Y10.706
X17.324 Y10.605
X17.139 Y10.404
X16.997 Y10.272
X16.796 Y10.106
X16.655 Y10.001
X16.595 Y9.962
X16.393 Y9.849
X16.299 Y9.8
X16.192 Y9.75
X15.991 Y9.67
X15.75 Y9.598
X15.588 Y9.562
X15.387 Y9.529
X14.985 Y9.509
X14.784 Y9.5
X7.848
G3 X7.875 Y8.3 R0.6
X7.89 Y8.301 R0.6
G1 X7.984 Y8.304 Z-0.488
X8.075 Y8.307 Z-0.466
X8.162 Y8.31 Z-0.43
X8.242 Y8.313 Z-0.38
X8.314 Y8.316 Z-0.319
X8.375 Y8.318 Z-0.248
X8.424 Y8.319 Z-0.167
X8.46 Y8.321 Z-0.08
X8.482 Z0.011
X8.489 Y8.322 Z0.105
G0 Z5.
X-0.419 Y41.338
Z0.705
G1 Z0.105 F200.
X-0.413 Y41.334 Z0.011
X-0.394 Y41.323 Z-0.08
X-0.363 Y41.304 Z-0.167
X-0.32 Y41.279 Z-0.248
X-0.268 Y41.248 Z-0.319
X-0.206 Y41.211 Z-0.38
X-0.137 Y41.17 Z-0.43
X-0.063 Y41.126 Z-0.466
X0.016 Y41.079 Z-0.488
X0.097 Y41.031 Z-0.495
G3 X1.905 Y40.5 R3.798
G1 X14.784 F500.
X15.186 Y40.481
X15.387 Y40.471
X15.588 Y40.438
X15.751 Y40.401
X15.991 Y40.33
X16.192 Y40.25
X16.3 Y40.2
X16.97 Y39.892
X17.814 Y39.62
X18.678 Y39.427
X19.554 Y39.29
X20.435 Y39.194
X20.877 Y39.16
X21.301 Y39.032
X21.673 Y38.792
X22.316 Y38.182
X22.776 Y37.425
X23.106 Y36.602
X23.343 Y35.749
X23.515 Y34.879
X23.64 Y34.002
X23.73 Y33.12
X23.795 Y32.237
X23.843 Y31.352
X23.878 Y30.466
X23.903 Y29.581
X23.921 Y28.695
X23.934 Y27.809
X23.944 Y26.923
X23.951 Y26.037
X23.956 Y25.15
X23.96 Y24.264
X23.965 Y22.492
X23.968 Y19.834
X23.969 Y17.618
X23.863 Y17.188
X23.628 Y16.813
X23.021 Y16.167
X22.264 Y15.708
X21.44 Y15.38
X20.586 Y15.144
X19.717 Y14.973
X18.847 Y14.804
X18.494 Y14.709
X18.296 Y14.619
X18.138 Y14.47
X18.035 Y14.279
X18. Y14.065
Y13.021
X17.999 Y12.82
X17.996 Y12.618
G3 X18.609 Y12.031 R0.6
X19.196 Y12.644 R0.6
G1 X19.194 Y12.738 Z-0.488
X19.192 Y12.829 Z-0.466
X19.19 Y12.916 Z-0.43
X19.188 Y12.997 Z-0.38
X19.187 Y13.068 Z-0.319
X19.185 Y13.129 Z-0.248
X19.184 Y13.179 Z-0.167
X19.183 Y13.215 Z-0.08
Y13.237 Z0.011
Y13.244 Z0.105
G0 Z5.
X14.323 Y41.701
Z0.705
G1 Z0.105 F200.
X14.329 Y41.696 Z0.011
X14.345 Y41.681 Z-0.08
X14.372 Y41.657 Z-0.167
X14.408 Y41.624 Z-0.248
X14.454 Y41.584 Z-0.319
X14.507 Y41.536 Z-0.38
X14.567 Y41.482 Z-0.43
X14.632 Y41.424 Z-0.466
X14.7 Y41.363 Z-0.488
X14.77 Y41.3 Z-0.495
G3 X16.3 Y40.2 R8.75
G1 X16.393 Y40.151 F500.
X16.595 Y40.038
X16.655 Y39.999
X16.796 Y39.894
X16.997 Y39.728
X17.139 Y39.596
X17.324 Y39.395
X17.399 Y39.294
X17.473 Y39.193
X17.601 Y38.989
X17.705 Y38.791
X17.792 Y38.589
X17.866 Y38.44
X18.35 Y37.697
X18.812 Y36.941
X19.193 Y36.141
X19.495 Y35.308
X19.73 Y34.454
X19.91 Y33.586
X20.048 Y32.711
X20.153 Y31.831
X20.232 Y30.948
X20.292 Y30.064
X20.337 Y29.179
X20.371 Y28.294
X20.396 Y27.408
X20.415 Y26.522
X20.429 Y25.636
X20.44 Y24.75
X20.448 Y23.864
X20.453 Y22.978
X20.458 Y22.092
X20.461 Y21.206
X20.379 Y20.77
X19.937 Y20.002
X19.267 Y19.422
X18.53 Y18.93
X18.3 Y18.779
X18.14 Y18.631
X18.036 Y18.438
X18. Y18.222
Y14.065
G3 X19.2 Y14.092 R0.6
X19.199 Y14.107 R0.6
G1 X19.196 Y14.2 Z-0.488
X19.193 Y14.292 Z-0.466
X19.19 Y14.379 Z-0.43
X19.187 Y14.459 Z-0.38
X19.184 Y14.531 Z-0.319
X19.182 Y14.592 Z-0.248
X19.181 Y14.641 Z-0.167
X19.179 Y14.677 Z-0.08
Y14.699 Z0.011
X19.178 Y14.706 Z0.105
G0 Z5.
X17.203 Y41.
Z0.705
G1 Z0.105 F200.
X17.204 Y40.993 Z0.011
X17.207 Y40.971 Z-0.08
X17.213 Y40.936 Z-0.167
X17.221 Y40.887 Z-0.248
X17.23 Y40.827 Z-0.319
X17.241 Y40.756 Z-0.38
X17.254 Y40.677 Z-0.43
X17.268 Y40.591 Z-0.466
X17.282 Y40.501 Z-0.488
X17.297 Y40.408 Z-0.495
G3 X17.792 Y38.589 R8.75
G1 X17.802 Y38.568 F500.
X17.861 Y38.388
X17.917 Y38.187
X17.96 Y37.985
X17.983 Y37.784
X17.993 Y37.583
X17.999 Y37.18
X18. Y36.979
Y18.222
G3 X18.941 Y17.75 R0.6
G1 X18.993 Y17.802 Z-0.49
X19.045 Y17.854 Z-0.477
X19.094 Y17.904 Z-0.454
X19.127 Y17.976 Z-0.416
X19.156 Y18.043 Z-0.366
X19.183 Y18.102 Z-0.307
X19.188 Y18.149 Z-0.25
X19.193 Y18.188 Z-0.188
X19.197 Y18.22 Z-0.122
X19.2 Y18.243 Z-0.052
Y18.249 Z-0.028
X19.199 Y18.26 Z0.038
Y18.264 Z0.105
G0 Z5.
X40.465 Y-0.387
Z0.21
G1 Z-0.39 F200.
X40.458 Y-0.385 Z-0.484
X40.437 Y-0.38 Z-0.575
X40.402 Y-0.371 Z-0.662
X40.354 Y-0.359 Z-0.743
X40.295 Y-0.344 Z-0.814
X40.226 Y-0.326 Z-0.875
X40.148 Y-0.306 Z-0.925
X40.064 Y-0.284 Z-0.961
X39.975 Y-0.262 Z-0.983
X39.884 Y-0.238 Z-0.99
G3 X38.018 Y0.03 R8.75
G1 X37.908 F500.
X37.034 Y0.177
X36.154 Y0.281
X35.271 Y0.355
X34.386 Y0.407
X33.501 Y0.444
X32.615 Y0.47
X31.729 Y0.488
X30.843 Y0.5
X29.957 Y0.509
X29.071 Y0.515
X28.185 Y0.52
X26.413 Y0.525
X23.754 Y0.528
X17.551 Y0.53
X2.93
X2.721 Y0.603
X2.631 Y0.667
X2.289 Y0.949
X1.728 Y1.635
X1.355 Y2.439
X1.102 Y3.288
X0.928 Y4.157
X0.807 Y5.035
X0.723 Y5.917
X0.665 Y6.801
X0.625 Y7.686
X0.596 Y8.572
X0.59 Y8.848
X0.554 Y9.051
X0.457 Y9.232
X0.31 Y9.376
X0.127 Y9.468
X-0.077 Y9.5
G3 X-0.05 Y8.3 R0.6
X-0.035 Y8.301 R0.6
G1 X0.059 Y8.304 Z-0.983
X0.151 Y8.307 Z-0.961
X0.238 Y8.31 Z-0.925
X0.318 Y8.313 Z-0.875
X0.389 Y8.316 Z-0.814
X0.45 Y8.318 Z-0.743
X0.5 Y8.319 Z-0.662
X0.536 Y8.321 Z-0.575
X0.558 Z-0.484
X0.565 Y8.322 Z-0.39
G0 Z5.
X-5.339 Y41.338
Z0.21
G1 Z-0.39 F200.
X-5.332 Y41.334 Z-0.484
X-5.314 Y41.323 Z-0.575
X-5.283 Y41.304 Z-0.662
X-5.24 Y41.279 Z-0.743
X-5.188 Y41.248 Z-0.814
X-5.126 Y41.211 Z-0.875
X-5.057 Y41.17 Z-0.925
X-4.982 Y41.126 Z-0.961
X-4.904 Y41.079 Z-0.983
X-4.823 Y41.031 Z-0.99
G3 X-3.014 Y40.5 R3.798
G1 X-2.32 F500.
X-2.245 Y40.504
X-1.998 Y40.653
X-1.722 Y40.868
X-1.421 Y41.165
X-1.1 Y41.569
X-0.762 Y42.115
X-0.414 Y42.865
X-0.139 Y43.707
X0.058 Y44.571
X0.197 Y45.446
X0.296 Y46.327
X0.331 Y46.768
X0.346 Y46.989
X0.407 Y47.202
X0.644 Y47.577
X1.288 Y48.185
X2.078 Y48.586
X2.922 Y48.858
X3.788 Y49.045
X4.665 Y49.174
X5.546 Y49.263
X6.43 Y49.326
X7.315 Y49.369
X8.201 Y49.399
X9.087 Y49.421
X9.973 Y49.435
X10.859 Y49.446
X11.745 Y49.453
X12.631 Y49.458
X13.517 Y49.462
X15.289 Y49.466
X17.948 Y49.469
X25.923 Y49.47
X32.126
X32.335 Y49.397
X32.422 Y49.329
X33.086 Y48.742
X33.52 Y47.97
X33.813 Y47.133
X34.014 Y46.27
X34.152 Y45.395
X34.248 Y44.514
X34.315 Y43.63
X34.362 Y42.746
X34.394 Y41.86
X34.417 Y40.974
X34.433 Y40.088
X34.444 Y39.202
X34.452 Y38.316
X34.457 Y37.43
X34.461 Y36.544
X34.466 Y34.772
X34.468 Y32.113
X34.47 Y25.024
Y6.194
X34.397 Y5.985
X34.329 Y5.898
X33.696 Y5.278
X32.905 Y4.877
X32.061 Y4.609
X31.193 Y4.428
X30.316 Y4.304
X29.434 Y4.219
X28.55 Y4.16
X27.664 Y4.12
X26.779 Y4.092
X25.893 Y4.073
X25.007 Y4.06
X24.121 Y4.051
X23.235 Y4.044
X22.348 Y4.04
X20.576 Y4.035
X17.918 Y4.032
X10.829 Y4.03
X7.063
X6.843 Y4.053
X6.427 Y4.207
X5.721 Y4.742
X5.229 Y5.479
X4.884 Y6.295
X4.639 Y7.147
X4.423 Y8.006
X4.164 Y8.854
X4.062 Y9.093
X3.961 Y9.259
X3.817 Y9.389
X3.641 Y9.472
X3.449 Y9.5
X-0.077
G3 X-0.05 Y8.3 R0.6
X-0.035 Y8.301 R0.6
G1 X0.059 Y8.304 Z-0.983
X0.151 Y8.307 Z-0.961
X0.238 Y8.31 Z-0.925
X0.318 Y8.313 Z-0.875
X0.389 Y8.316 Z-0.814
X0.45 Y8.318 Z-0.743
X0.5 Y8.319 Z-0.662
X0.536 Y8.321 Z-0.575
X0.558 Z-0.484
X0.565 Y8.322 Z-0.39
G0 Z5.
X-4.645 Y41.338
Z0.21
G1 Z-0.39 F200.
X-4.638 Y41.334 Z-0.484
X-4.619 Y41.323 Z-0.575
X-4.588 Y41.304 Z-0.662
X-4.546 Y41.279 Z-0.743
X-4.494 Y41.248 Z-0.814
X-4.432 Y41.211 Z-0.875
X-4.363 Y41.17 Z-0.925
X-4.288 Y41.126 Z-0.961
X-4.21 Y41.079 Z-0.983
X-4.129 Y41.031 Z-0.99
G3 X-2.32 Y40.5 R3.798
G1 X-0.71 F500.
X-0.561 Y40.507
X-0.263 Y40.56
X0.045 Y40.653
X0.402 Y40.809
X0.771 Y41.025
X1.164 Y41.324
X1.575 Y41.72
X2.003 Y42.245
X2.429 Y42.916
X2.62 Y43.316
X3.138 Y44.035
X3.846 Y44.568
X4.643 Y44.954
X5.484 Y45.235
X6.346 Y45.438
X7.22 Y45.585
X8.1 Y45.691
X8.983 Y45.768
X9.867 Y45.824
X10.752 Y45.865
X11.638 Y45.894
X12.524 Y45.915
X13.41 Y45.93
X14.296 Y45.942
X15.182 Y45.949
X16.068 Y45.955
X16.954 Y45.959
X18.726 Y45.965
X21.385 Y45.968
X27.588 Y45.97
X28.031
X28.248 Y45.925
X28.652 Y45.743
X29.338 Y45.183
X29.813 Y44.435
X30.147 Y43.614
X30.384 Y42.76
X30.551 Y41.89
X30.671 Y41.012
X30.756 Y40.13
X30.817 Y39.246
X30.86 Y38.361
X30.892 Y37.475
X30.914 Y36.589
X30.93 Y35.703
X30.941 Y34.817
X30.95 Y33.931
X30.955 Y33.045
X30.96 Y32.159
X30.965 Y30.387
X30.968 Y27.728
X30.969 Y26.842
X30.97 Y17.981
Y10.449
X30.934 Y10.23
X30.757 Y9.824
X30.196 Y9.138
X29.447 Y8.665
X28.625 Y8.334
X27.77 Y8.101
X26.899 Y7.936
X26.021 Y7.819
X25.139 Y7.736
X24.254 Y7.677
X23.369 Y7.635
X22.484 Y7.605
X21.598 Y7.583
X20.712 Y7.568
X19.826 Y7.557
X18.94 Y7.549
X18.054 Y7.544
X17.168 Y7.54
X15.395 Y7.535
X12.737 Y7.532
X10.522 Y7.531
X10.097 Y7.658
X9.344 Y8.124
X8.739 Y8.772
X8.375 Y9.241
X8.229 Y9.381
X8.047 Y9.469
X7.848 Y9.5
X3.449
G3 X3.476 Y8.3 R0.6
X3.49 Y8.301 R0.6
G1 X3.584 Y8.304 Z-0.983
X3.676 Y8.307 Z-0.961
X3.763 Y8.31 Z-0.925
X3.843 Y8.313 Z-0.875
X3.914 Y8.316 Z-0.814
X3.976 Y8.318 Z-0.743
X4.025 Y8.319 Z-0.662
X4.061 Y8.321 Z-0.575
X4.083 Z-0.484
X4.09 Y8.322 Z-0.39
G0 Z5.
X-3.035 Y41.338
Z0.21
G1 Z-0.39 F200.
X-3.028 Y41.334 Z-0.484
X-3.01 Y41.323 Z-0.575
X-2.979 Y41.304 Z-0.662
X-2.936 Y41.279 Z-0.743
X-2.884 Y41.248 Z-0.814
X-2.822 Y41.211 Z-0.875
X-2.753 Y41.17 Z-0.925
X-2.678 Y41.126 Z-0.961
X-2.6 Y41.079 Z-0.983
X-2.519 Y41.031 Z-0.99
G3 X-0.71 Y40.5 R3.798
G1 X1.905 F500.
X2.245 Y40.517
X2.599 Y40.577
X3.449 Y40.829
X4.286 Y41.119
X5.13 Y41.389
X5.986 Y41.619
X6.852 Y41.808
X7.725 Y41.96
X8.603 Y42.079
X9.484 Y42.172
X10.367 Y42.244
X11.252 Y42.3
X12.137 Y42.342
X13.022 Y42.374
X13.908 Y42.398
X14.794 Y42.416
X15.68 Y42.43
X16.566 Y42.44
X17.452 Y42.448
X18.338 Y42.454
X19.224 Y42.458
X20.997 Y42.463
X23.655 Y42.467
X24.32 Y42.468
X24.539 Y42.44
X24.956 Y42.29
X25.675 Y41.772
X26.184 Y41.047
X26.546 Y40.238
X26.804 Y39.39
X26.99 Y38.524
X27.123 Y37.648
X27.22 Y36.767
X27.289 Y35.884
X27.339 Y34.999
X27.376 Y34.113
X27.402 Y33.228
X27.421 Y32.342
X27.434 Y31.456
X27.444 Y30.57
X27.451 Y29.684
X27.457 Y28.798
X27.46 Y27.911
X27.465 Y26.139
X27.468 Y23.481
X27.47 Y17.278
Y15.506
Y14.177
X27.447 Y13.956
X27.302 Y13.538
X26.786 Y12.817
X26.06 Y12.309
X25.251 Y11.948
X24.403 Y11.69
X23.536 Y11.505
X22.66 Y11.373
X21.779 Y11.277
X20.896 Y11.208
X20.011 Y11.159
X19.126 Y11.123
X18.24 Y11.097
X18.023 Y11.092
X17.813 Y11.055
X17.624 Y10.957
X17.473 Y10.806
X17.399 Y10.706
X17.324 Y10.605
X17.139 Y10.404
X16.997 Y10.272
X16.796 Y10.106
X16.655 Y10.001
X16.595 Y9.962
X16.393 Y9.849
X16.299 Y9.8
X16.192 Y9.75
X15.991 Y9.67
X15.75 Y9.598
X15.588 Y9.562
X15.387 Y9.529
X14.985 Y9.509
X14.784 Y9.5
X7.848
G3 X7.875 Y8.3 R0.6
X7.89 Y8.301 R0.6
G1 X7.984 Y8.304 Z-0.983
X8.075 Y8.307 Z-0.961
X8.162 Y8.31 Z-0.925
X8.242 Y8.313 Z-0.875
X8.314 Y8.316 Z-0.814
X8.375 Y8.318 Z-0.743
X8.424 Y8.319 Z-0.662
X8.46 Y8.321 Z-0.575
X8.482 Z-0.484
X8.489 Y8.322 Z-0.39
G0 Z5.
X-0.419 Y41.338
Z0.21
G1 Z-0.39 F200.
X-0.413 Y41.334 Z-0.484
X-0.394 Y41.323 Z-0.575
X-0.363 Y41.304 Z-0.662
X-0.32 Y41.279 Z-0.743
X-0.268 Y41.248 Z-0.814
X-0.206 Y41.211 Z-0.875
X-0.137 Y41.17 Z-0.925
X-0.063 Y41.126 Z-0.961
X0.016 Y41.079 Z-0.983
X0.097 Y41.031 Z-0.99
G3 X1.905 Y40.5 R3.798
G1 X14.784 F500.
X15.186 Y40.481
X15.387 Y40.471
X15.588 Y40.438
X15.751 Y40.401
X15.991 Y40.33
X16.192 Y40.25
X16.3 Y40.2
X16.97 Y39.892
X17.814 Y39.62
X18.678 Y39.427
X19.554 Y39.29
X20.435 Y39.194
X20.877 Y39.16
X21.301 Y39.032
X21.673 Y38.792
X22.316 Y38.182
X22.776 Y37.425
X23.106 Y36.602
X23.343 Y35.749
X23.515 Y34.879
X23.64 Y34.002
X23.73 Y33.12
X23.795 Y32.237
X23.843 Y31.352
X23.878 Y30.466
X23.903 Y29.581
X23.921 Y28.695
X23.934 Y27.809
X23.944 Y26.923
X23.951 Y26.037
X23.956 Y25.15
X23.96 Y24.264
X23.965 Y22.492
X23.968 Y19.834
X23.969 Y17.618
X23.863 Y17.188
X23.628 Y16.813
X23.021 Y16.167
X22.264 Y15.708
X21.44 Y15.38
X20.586 Y15.144
X19.717 Y14.973
X18.847 Y14.804
X18.494 Y14.709
X18.296 Y14.619
X18.138 Y14.47
X18.035 Y14.279
X18. Y14.065
Y13.021
X17.999 Y12.82
X17.996 Y12.618
G3 X18.609 Y12.031 R0.6
X19.196 Y12.644 R0.6
G1 X19.194 Y12.738 Z-0.983
X19.192 Y12.829 Z-0.961
X19.19 Y12.916 Z-0.925
X19.188 Y12.997 Z-0.875
X19.187 Y13.068 Z-0.814
X19.185 Y13.129 Z-0.743
X19.184 Y13.179 Z-0.662
X19.183 Y13.215 Z-0.575
Y13.237 Z-0.484
Y13.244 Z-0.39
G0 Z5.
X14.323 Y41.701
Z0.21
G1 Z-0.39 F200.
X14.329 Y41.696 Z-0.484
X14.345 Y41.681 Z-0.575
X14.372 Y41.657 Z-0.662
X14.408 Y41.624 Z-0.743
X14.454 Y41.584 Z-0.814
X14.507 Y41.536 Z-0.875
X14.567 Y41.482 Z-0.925
X14.632 Y41.424 Z-0.961
X14.7 Y41.363 Z-0.983
X14.77 Y41.3 Z-0.99
G3 X16.3 Y40.2 R8.75
G1 X16.393 Y40.151 F500.
X16.595 Y40.038
X16.655 Y39.999
X16.796 Y39.894
X16.997 Y39.728
X17.139 Y39.596
X17.324 Y39.395
X17.399 Y39.294
X17.473 Y39.193
X17.601 Y38.989
X17.705 Y38.791
X17.792 Y38.589
X17.866 Y38.44
X18.35 Y37.697
X18.812 Y36.941
X19.193 Y36.141
X19.495 Y35.308
X19.73 Y34.454
X19.91 Y33.586
X20.048 Y32.711
X20.153 Y31.831
X20.232 Y30.948
X20.292 Y30.064
X20.337 Y29.179
X20.371 Y28.294
X20.396 Y27.408
X20.415 Y26.522
X20.429 Y25.636
X20.44 Y24.75
X20.448 Y23.864
X20.453 Y22.978
X20.458 Y22.092
X20.461 Y21.206
X20.379 Y20.77
X19.937 Y20.002
X19.267 Y19.422
X18.53 Y18.93
X18.3 Y18.779
X18.14 Y18.631
X18.036 Y18.438
X18. Y18.222
Y14.065
G3 X19.2 Y14.092 R0.6
X19.199 Y14.107 R0.6
G1 X19.196 Y14.2 Z-0.983
X19.193 Y14.292 Z-0.961
X19.19 Y14.379 Z-0.925
X19.187 Y14.459 Z-0.875
X19.184 Y14.531 Z-0.814
X19.182 Y14.592 Z-0.743
X19.181 Y14.641 Z-0.662
X19.179 Y14.677 Z-0.575
Y14.699 Z-0.484
X19.178 Y14.706 Z-0.39
G0 Z5.
X17.203 Y41.
Z0.21
G1 Z-0.39 F200.
X17.204 Y40.993 Z-0.484
X17.207 Y40.971 Z-0.575
X17.213 Y40.936 Z-0.662
X17.221 Y40.887 Z-0.743
X17.23 Y40.827 Z-0.814
X17.241 Y40.756 Z-0.875
X17.254 Y40.677 Z-0.925
X17.268 Y40.591 Z-0.961
X17.282 Y40.501 Z-0.983
X17.297 Y40.408 Z-0.99
G3 X17.792 Y38.589 R8.75
G1 X17.802 Y38.568 F500.
X17.861 Y38.388
X17.917 Y38.187
X17.96 Y37.985
X17.983 Y37.784
X17.993 Y37.583
X17.999 Y37.18
X18. Y36.979
Y18.222
G3 X18.941 Y17.75 R0.6
G1 X18.993 Y17.802 Z-0.985
X19.045 Y17.854 Z-0.972
X19.094 Y17.904 Z-0.949
X19.127 Y17.976 Z-0.911
X19.156 Y18.043 Z-0.861
X19.183 Y18.102 Z-0.802
X19.188 Y18.149 Z-0.745
X19.193 Y18.188 Z-0.683
X19.197 Y18.22 Z-0.617
X19.2 Y18.243 Z-0.547
Y18.249 Z-0.523
X19.199 Y18.26 Z-0.457
Y18.264 Z-0.39
G0 Z5.
X40.465 Y-0.387
Z-0.285
G1 Z-0.885 F200.
X40.458 Y-0.385 Z-0.979
X40.437 Y-0.38 Z-1.07
X40.402 Y-0.371 Z-1.157
X40.354 Y-0.359 Z-1.238
X40.295 Y-0.344 Z-1.309
X40.226 Y-0.326 Z-1.37
X40.148 Y-0.306 Z-1.42
X40.064 Y-0.284 Z-1.456
X39.975 Y-0.262 Z-1.478
X39.884 Y-0.238 Z-1.485
G3 X38.018 Y0.03 R8.75
G1 X37.908 F500.
X37.034 Y0.177
X36.154 Y0.281
X35.271 Y0.355
X34.386 Y0.407
X33.501 Y0.444
X32.615 Y0.47
X31.729 Y0.488
X30.843 Y0.5
X29.957 Y0.509
X29.071 Y0.515
X28.185 Y0.52
X26.413 Y0.525
X23.754 Y0.528
X17.551 Y0.53
X2.93
X2.721 Y0.603
X2.631 Y0.667
X2.289 Y0.949
X1.728 Y1.635
X1.355 Y2.439
X1.102 Y3.288
X0.928 Y4.157
X0.807 Y5.035
X0.723 Y5.917
X0.665 Y6.801
X0.625 Y7.686
X0.596 Y8.572
X0.59 Y8.848
X0.554 Y9.051
X0.457 Y9.232
X0.31 Y9.376
X0.127 Y9.468
X-0.077 Y9.5
G3 X-0.05 Y8.3 R0.6
X-0.035 Y8.301 R0.6
G1 X0.059 Y8.304 Z-1.478
X0.151 Y8.307 Z-1.456
X0.238 Y8.31 Z-1.42
X0.318 Y8.313 Z-1.37
X0.389 Y8.316 Z-1.309
X0.45 Y8.318 Z-1.238
X0.5 Y8.319 Z-1.157
X0.536 Y8.321 Z-1.07
X0.558 Z-0.979
X0.565 Y8.322 Z-0.885
G0 Z5.
X-5.339 Y41.338
Z-0.285
G1 Z-0.885 F200.
X-5.332 Y41.334 Z-0.979
X-5.314 Y41.323 Z-1.07
X-5.283 Y41.304 Z-1.157
X-5.24 Y41.279 Z-1.238
X-5.188 Y41.248 Z-1.309
X-5.126 Y41.211 Z-1.37
X-5.057 Y41.17 Z-1.42
X-4.982 Y41.126 Z-1.456
X-4.904 Y41.079 Z-1.478
X-4.823 Y41.031 Z-1.485
G3 X-3.014 Y40.5 R3.798
G1 X-2.32 F500.
X-2.245 Y40.504
X-1.998 Y40.653
X-1.722 Y40.868
X-1.421 Y41.165
X-1.1 Y41.569
X-0.762 Y42.115
X-0.414 Y42.865
X-0.139 Y43.707
X0.058 Y44.571
X0.197 Y45.446
X0.296 Y46.327
X0.331 Y46.768
X0.346 Y46.989
X0.407 Y47.202
X0.644 Y47.577
X1.288 Y48.185
X2.078 Y48.586
X2.922 Y48.858
X3.788 Y49.045
X4.665 Y49.174
X5.546 Y49.263
X6.43 Y49.326
X7.315 Y49.369
X8.201 Y49.399
X9.087 Y49.421
X9.973 Y49.435
X10.859 Y49.446
X11.745 Y49.453
X12.631 Y49.458
X13.517 Y49.462
X15.289 Y49.466
X17.948 Y49.469
X25.923 Y49.47
X32.126
X32.335 Y49.397
X32.422 Y49.329
X33.086 Y48.742
X33.52 Y47.97
X33.813 Y47.133
X34.014 Y46.27
X34.152 Y45.395
X34.248 Y44.514
X34.315 Y43.63
X34.362 Y42.746
X34.394 Y41.86
X34.417 Y40.974
X34.433 Y40.088
X34.444 Y39.202
X34.452 Y38.316
X34.457 Y37.43
X34.461 Y36.544
X34.466 Y34.772
X34.468 Y32.113
X34.47 Y25.024
Y6.194
X34.397 Y5.985
X34.329 Y5.898
X33.696 Y5.278
X32.905 Y4.877
X32.061 Y4.609
X31.193 Y4.428
X30.316 Y4.304
X29.434 Y4.219
X28.55 Y4.16
X27.664 Y4.12
X26.779 Y4.092
X25.893 Y4.073
X25.007 Y4.06
X24.121 Y4.051
X23.235 Y4.044
X22.348 Y4.04
X20.576 Y4.035
X17.918 Y4.032
X10.829 Y4.03
X7.063
X6.843 Y4.053
X6.427 Y4.207
X5.721 Y4.742
X5.229 Y5.479
X4.884 Y6.295
X4.639 Y7.147
X4.423 Y8.006
X4.164 Y8.854
X4.062 Y9.093
X3.961 Y9.259
X3.817 Y9.389
X3.641 Y9.472
X3.449 Y9.5
X-0.077
G3 X-0.05 Y8.3 R0.6
X-0.035 Y8.301 R0.6
G1 X0.059 Y8.304 Z-1.478
X0.151 Y8.307 Z-1.456
X0.238 Y8.31 Z-1.42
X0.318 Y8.313 Z-1.37
X0.389 Y8.316 Z-1.309
X0.45 Y8.318 Z-1.238
X0.5 Y8.319 Z-1.157
X0.536 Y8.321 Z-1.07
X0.558 Z-0.979
X0.565 Y8.322 Z-0.885
G0 Z5.
X-4.645 Y41.338
Z-0.285
G1 Z-0.885 F200.
X-4.638 Y41.334 Z-0.979
X-4.619 Y41.323 Z-1.07
X-4.588 Y41.304 Z-1.157
X-4.546 Y41.279 Z-1.238
X-4.494 Y41.248 Z-1.309
X-4.432 Y41.211 Z-1.37
X-4.363 Y41.17 Z-1.42
X-4.288 Y41.126 Z-1.456
X-4.21 Y41.079 Z-1.478
X-4.129 Y41.031 Z-1.485
G3 X-2.32 Y40.5 R3.798
G1 X-0.71 F500.
X-0.561 Y40.507
X-0.263 Y40.56
X0.045 Y40.653
X0.402 Y40.809
X0.771 Y41.025
X1.164 Y41.324
X1.575 Y41.72
X2.003 Y42.245
X2.429 Y42.916
X2.62 Y43.316
X3.138 Y44.035
X3.846 Y44.568
X4.643 Y44.954
X5.484 Y45.235
X6.346 Y45.438
X7.22 Y45.585
X8.1 Y45.691
X8.983 Y45.768
X9.867 Y45.824
X10.752 Y45.865
X11.638 Y45.894
X12.524 Y45.915
X13.41 Y45.93
X14.296 Y45.942
X15.182 Y45.949
X16.068 Y45.955
X16.954 Y45.959
X18.726 Y45.965
X21.385 Y45.968
X27.588 Y45.97
X28.031
X28.248 Y45.925
X28.652 Y45.743
X29.338 Y45.183
X29.813 Y44.435
X30.147 Y43.614
X30.384 Y42.76
X30.551 Y41.89
X30.671 Y41.012
X30.756 Y40.13
X30.817 Y39.246
X30.86 Y38.361
X30.892 Y37.475
X30.914 Y36.589
X30.93 Y35.703
X30.941 Y34.817
X30.95 Y33.931
X30.955 Y33.045
X30.96 Y32.159
X30.965 Y30.387
X30.968 Y27.728
X30.969 Y26.842
X30.97 Y17.981
Y10.449
X30.934 Y10.23
X30.757 Y9.824
X30.196 Y9.138
X29.447 Y8.665
X28.625 Y8.334
X27.77 Y8.101
X26.899 Y7.936
X26.021 Y7.819
X25.139 Y7.736
X24.254 Y7.677
X23.369 Y7.635
X22.484 Y7.605
X21.598 Y7.583
X20.712 Y7.568
X19.826 Y7.557
X18.94 Y7.549
X18.054 Y7.544
X17.168 Y7.54
X15.395 Y7.535
X12.737 Y7.532
X10.522 Y7.531
X10.097 Y7.658
X9.344 Y8.124
X8.739 Y8.772
X8.375 Y9.241
X8.229 Y9.381
X8.047 Y9.469
X7.848 Y9.5
X3.449
G3 X3.476 Y8.3 R0.6
X3.49 Y8.301 R0.6
G1 X3.584 Y8.304 Z-1.478
X3.676 Y8.307 Z-1.456
X3.763 Y8.31 Z-1.42
X3.843 Y8.313 Z-1.37
X3.914 Y8.316 Z-1.309
X3.976 Y8.318 Z-1.238
X4.025 Y8.319 Z-1.157
X4.061 Y8.321 Z-1.07
X4.083 Z-0.979
X4.09 Y8.322 Z-0.885
G0 Z5.
X-3.035 Y41.338
Z-0.285
G1 Z-0.885 F200.
X-3.028 Y41.334 Z-0.979
X-3.01 Y41.323 Z-1.07
X-2.979 Y41.304 Z-1.157
X-2.936 Y41.279 Z-1.238
X-2.884 Y41.248 Z-1.309
X-2.822 Y41.211 Z-1.37
X-2.753 Y41.17 Z-1.42
X-2.678 Y41.126 Z-1.456
X-2.6 Y41.079 Z-1.478
X-2.519 Y41.031 Z-1.485
G3 X-0.71 Y40.5 R3.798
G1 X1.905 F500.
X2.245 Y40.517
X2.599 Y40.577
X3.449 Y40.829
X4.286 Y41.119
X5.13 Y41.389
X5.986 Y41.619
X6.852 Y41.808
X7.725 Y41.96
X8.603 Y42.079
X9.484 Y42.172
X10.367 Y42.244
X11.252 Y42.3
X12.137 Y42.342
X13.022 Y42.374
X13.908 Y42.398
X14.794 Y42.416
X15.68 Y42.43
X16.566 Y42.44
X17.452 Y42.448
X18.338 Y42.454
X19.224 Y42.458
X20.997 Y42.463
X23.655 Y42.467
X24.32 Y42.468
X24.539 Y42.44
X24.956 Y42.29
X25.675 Y41.772
X26.184 Y41.047
X26.546 Y40.238
X26.804 Y39.39
X26.99 Y38.524
X27.123 Y37.648
X27.22 Y36.767
X27.289 Y35.884
X27.339 Y34.999
X27.376 Y34.113
X27.402 Y33.228
X27.421 Y32.342
X27.434 Y31.456
X27.444 Y30.57
X27.451 Y29.684
X27.457 Y28.798
X27.46 Y27.911
X27.465 Y26.139
X27.468 Y23.481
X27.47 Y17.278
Y15.506
Y14.177
X27.447 Y13.956
X27.302 Y13.538
X26.786 Y12.817
X26.06 Y12.309
X25.251 Y11.948
X24.403 Y11.69
X23.536 Y11.505
X22.66 Y11.373
X21.779 Y11.277
X20.896 Y11.208
X20.011 Y11.159
X19.126 Y11.123
X18.24 Y11.097
X18.023 Y11.092
X17.813 Y11.055
X17.624 Y10.957
X17.473 Y10.806
X17.399 Y10.706
X17.324 Y10.605
X17.139 Y10.404
X16.997 Y10.272
X16.796 Y10.106
X16.655 Y10.001
X16.595 Y9.962
X16.393 Y9.849
X16.299 Y9.8
X16.192 Y9.75
X15.991 Y9.67
X15.75 Y9.598
X15.588 Y9.562
X15.387 Y9.529
X14.985 Y9.509
X14.784 Y9.5
X7.848
G3 X7.875 Y8.3 R0.6
X7.89 Y8.301 R0.6
G1 X7.984 Y8.304 Z-1.478
X8.075 Y8.307 Z-1.456
X8.162 Y8.31 Z-1.42
X8.242 Y8.313 Z-1.37
X8.314 Y8.316 Z-1.309
X8.375 Y8.318 Z-1.238
X8.424 Y8.319 Z-1.157
X8.46 Y8.321 Z-1.07
X8.482 Z-0.979
X8.489 Y8.322 Z-0.885
G0 Z5.
X-0.419 Y41.338
Z-0.285
G1 Z-0.885 F200.
X-0.413 Y41.334 Z-0.979
X-0.394 Y41.323 Z-1.07
X-0.363 Y41.304 Z-1.157
X-0.32 Y41.279 Z-1.238
X-0.268 Y41.248 Z-1.309
X-0.206 Y41.211 Z-1.37
X-0.137 Y41.17 Z-1.42
X-0.063 Y41.126 Z-1.456
X0.016 Y41.079 Z-1.478
X0.097 Y41.031 Z-1.485
G3 X1.905 Y40.5 R3.798
G1 X14.784 F500.
X15.186 Y40.481
X15.387 Y40.471
X15.588 Y40.438
X15.751 Y40.401
X15.991 Y40.33
X16.192 Y40.25
X16.3 Y40.2
X16.97 Y39.892
X17.814 Y39.62
X18.678 Y39.427
X19.554 Y39.29
X20.435 Y39.194
X20.877 Y39.16
X21.301 Y39.032
X21.673 Y38.792
X22.316 Y38.182
X22.776 Y37.425
X23.106 Y36.602
X23.343 Y35.749
X23.515 Y34.879
X23.64 Y34.002
X23.73 Y33.12
X23.795 Y32.237
X23.843 Y31.352
X23.878 Y30.466
X23.903 Y29.581
X23.921 Y28.695
X23.934 Y27.809
X23.944 Y26.923
X23.951 Y26.037
X23.956 Y25.15
X23.96 Y24.264
X23.965 Y22.492
X23.968 Y19.834
X23.969 Y17.618
X23.863 Y17.188
X23.628 Y16.813
X23.021 Y16.167
X22.264 Y15.708
X21.44 Y15.38
X20.586 Y15.144
X19.717 Y14.973
X18.847 Y14.804
X18.494 Y14.709
X18.296 Y14.619
X18.138 Y14.47
X18.035 Y14.279
X18. Y14.065
Y13.021
X17.999 Y12.82
X17.996 Y12.618
G3 X18.609 Y12.031 R0.6
X19.196 Y12.644 R0.6
G1 X19.194 Y12.738 Z-1.478
X19.192 Y12.829 Z-1.456
X19.19 Y12.916 Z-1.42
X19.188 Y12.997 Z-1.37
X19.187 Y13.068 Z-1.309
X19.185 Y13.129 Z-1.238
X19.184 Y13.179 Z-1.157
X19.183 Y13.215 Z-1.07
Y13.237 Z-0.979
Y13.244 Z-0.885
G0 Z5.
X14.323 Y41.701
Z-0.285
G1 Z-0.885 F200.
X14.329 Y41.696 Z-0.979
X14.345 Y41.681 Z-1.07
X14.372 Y41.657 Z-1.157
X14.408 Y41.624 Z-1.238
X14.454 Y41.584 Z-1.309
X14.507 Y41.536 Z-1.37
X14.567 Y41.482 Z-1.42
X14.632 Y41.424 Z-1.456
X14.7 Y41.363 Z-1.478
X14.77 Y41.3 Z-1.485
G3 X16.3 Y40.2 R8.75
G1 X16.393 Y40.151 F500.
X16.595 Y40.038
X16.655 Y39.999
X16.796 Y39.894
X16.997 Y39.728
X17.139 Y39.596
X17.324 Y39.395
X17.399 Y39.294
X17.473 Y39.193
X17.601 Y38.989
X17.705 Y38.791
X17.792 Y38.589
X17.866 Y38.44
X18.35 Y37.697
X18.812 Y36.941
X19.193 Y36.141
X19.495 Y35.308
X19.73 Y34.454
X19.91 Y33.586
X20.048 Y32.711
X20.153 Y31.831
X20.232 Y30.948
X20.292 Y30.064
X20.337 Y29.179
X20.371 Y28.294
X20.396 Y27.408
X20.415 Y26.522
X20.429 Y25.636
X20.44 Y24.75
X20.448 Y23.864
X20.453 Y22.978
X20.458 Y22.092
X20.461 Y21.206
X20.379 Y20.77
X19.937 Y20.002
X19.267 Y19.422
X18.53 Y18.93
X18.3 Y18.779
X18.14 Y18.631
X18.036 Y18.438
X18. Y18.222
Y14.065
G3 X19.2 Y14.092 R0.6
X19.199 Y14.107 R0.6
G1 X19.196 Y14.2 Z-1.478
X19.193 Y14.292 Z-1.456
X19.19 Y14.379 Z-1.42
X19.187 Y14.459 Z-1.37
X19.184 Y14.531 Z-1.309
X19.182 Y14.592 Z-1.238
X19.181 Y14.641 Z-1.157
X19.179 Y14.677 Z-1.07
Y14.699 Z-0.979
X19.178 Y14.706 Z-0.885
G0 Z5.
X17.203 Y41.
Z-0.285
G1 Z-0.885 F200.
X17.204 Y40.993 Z-0.979
X17.207 Y40.971 Z-1.07
X17.213 Y40.936 Z-1.157
X17.221 Y40.887 Z-1.238
X17.23 Y40.827 Z-1.309
X17.241 Y40.756 Z-1.37
X17.254 Y40.677 Z-1.42
X17.268 Y40.591 Z-1.456
X17.282 Y40.501 Z-1.478
X17.297 Y40.408 Z-1.485
G3 X17.792 Y38.589 R8.75
G1 X17.802 Y38.568 F500.
X17.861 Y38.388
X17.917 Y38.187
X17.96 Y37.985
X17.983 Y37.784
X17.993 Y37.583
X17.999 Y37.18
X18. Y36.979
Y18.222
G3 X18.941 Y17.75 R0.6
G1 X18.993 Y17.802 Z-1.48
X19.045 Y17.854 Z-1.467
X19.094 Y17.904 Z-1.444
X19.127 Y17.976 Z-1.406
X19.156 Y18.043 Z-1.356
X19.183 Y18.102 Z-1.297
X19.188 Y18.149 Z-1.24
X19.193 Y18.188 Z-1.178
X19.197 Y18.22 Z-1.112
X19.2 Y18.243 Z-1.042
Y18.249 Z-1.018
X19.199 Y18.26 Z-0.952
Y18.264 Z-0.885
G0 Z5.
X40.465 Y-0.387
Z-0.78
G1 Z-1.38 F200.
X40.458 Y-0.385 Z-1.474
X40.437 Y-0.38 Z-1.565
X40.402 Y-0.371 Z-1.652
X40.354 Y-0.359 Z-1.733
X40.295 Y-0.344 Z-1.804
X40.226 Y-0.326 Z-1.865
X40.148 Y-0.306 Z-1.915
X40.064 Y-0.284 Z-1.951
X39.975 Y-0.262 Z-1.973
X39.884 Y-0.238 Z-1.98
G3 X38.018 Y0.03 R8.75
G1 X37.908 F500.
X37.034 Y0.177
X36.154 Y0.281
X35.271 Y0.355
X34.386 Y0.407
X33.501 Y0.444
X32.615 Y0.47
X31.729 Y0.488
X30.843 Y0.5
X29.957 Y0.509
X29.071 Y0.515
X28.185 Y0.52
X26.413 Y0.525
X23.754 Y0.528
X17.551 Y0.53
X2.93
X2.721 Y0.603
X2.631 Y0.667
X2.289 Y0.949
X1.728 Y1.635
X1.355 Y2.439
X1.102 Y3.288
X0.928 Y4.157
X0.807 Y5.035
X0.723 Y5.917
X0.665 Y6.801
X0.625 Y7.686
X0.596 Y8.572
X0.59 Y8.848
X0.554 Y9.051
X0.457 Y9.232
X0.31 Y9.376
X0.127 Y9.468
X-0.077 Y9.5
G3 X-0.05 Y8.3 R0.6
X-0.035 Y8.301 R0.6
G1 X0.059 Y8.304 Z-1.973
X0.151 Y8.307 Z-1.951
X0.238 Y8.31 Z-1.915
X0.318 Y8.313 Z-1.865
X0.389 Y8.316 Z-1.804
X0.45 Y8.318 Z-1.733
X0.5 Y8.319 Z-1.652
X0.536 Y8.321 Z-1.565
X0.558 Z-1.474
X0.565 Y8.322 Z-1.38
G0 Z5.
X-5.339 Y41.338
Z-0.78
G1 Z-1.38 F200.
X-5.332 Y41.334 Z-1.474
X-5.314 Y41.323 Z-1.565
X-5.283 Y41.304 Z-1.652
X-5.24 Y41.279 Z-1.733
X-5.188 Y41.248 Z-1.804
X-5.126 Y41.211 Z-1.865
X-5.057 Y41.17 Z-1.915
X-4.982 Y41.126 Z-1.951
X-4.904 Y41.079 Z-1.973
X-4.823 Y41.031 Z-1.98
G3 X-3.014 Y40.5 R3.798
G1 X-2.32 F500.
X-2.245 Y40.504
X-1.998 Y40.653
X-1.722 Y40.868
X-1.421 Y41.165
X-1.1 Y41.569
X-0.762 Y42.115
X-0.414 Y42.865
X-0.139 Y43.707
X0.058 Y44.571
X0.197 Y45.446
X0.296 Y46.327
X0.331 Y46.768
X0.346 Y46.989
X0.407 Y47.202
X0.644 Y47.577
X1.288 Y48.185
X2.078 Y48.586
X2.922 Y48.858
X3.788 Y49.045
X4.665 Y49.174
X5.546 Y49.263
X6.43 Y49.326
X7.315 Y49.369
X8.201 Y49.399
X9.087 Y49.421
X9.973 Y49.435
X10.859 Y49.446
X11.745 Y49.453
X12.631 Y49.458
X13.517 Y49.462
X15.289 Y49.466
X17.948 Y49.469
X25.923 Y49.47
X32.126
X32.335 Y49.397
X32.422 Y49.329
X33.086 Y48.742
X33.52 Y47.97
X33.813 Y47.133
X34.014 Y46.27
X34.152 Y45.395
X34.248 Y44.514
X34.315 Y43.63
X34.362 Y42.746
X34.394 Y41.86
X34.417 Y40.974
X34.433 Y40.088
X34.444 Y39.202
X34.452 Y38.316
X34.457 Y37.43
X34.461 Y36.544
X34.466 Y34.772
X34.468 Y32.113
X34.47 Y25.024
Y6.194
X34.397 Y5.985
X34.329 Y5.898
X33.696 Y5.278
X32.905 Y4.877
X32.061 Y4.609
X31.193 Y4.428
X30.316 Y4.304
X29.434 Y4.219
X28.55 Y4.16
X27.664 Y4.12
X26.779 Y4.092
X25.893 Y4.073
X25.007 Y4.06
X24.121 Y4.051
X23.235 Y4.044
X22.348 Y4.04
X20.576 Y4.035
X17.918 Y4.032
X10.829 Y4.03
X7.063
X6.843 Y4.053
X6.427 Y4.207
X5.721 Y4.742
X5.229 Y5.479
X4.884 Y6.295
X4.639 Y7.147
X4.423 Y8.006
X4.164 Y8.854
X4.062 Y9.093
X3.961 Y9.259
X3.817 Y9.389
X3.641 Y9.472
X3.449 Y9.5
X-0.077
G3 X-0.05 Y8.3 R0.6
X-0.035 Y8.301 R0.6
G1 X0.059 Y8.304 Z-1.973
X0.151 Y8.307 Z-1.951
X0.238 Y8.31 Z-1.915
X0.318 Y8.313 Z-1.865
X0.389 Y8.316 Z-1.804
X0.45 Y8.318 Z-1.733
X0.5 Y8.319 Z-1.652
X0.536 Y8.321 Z-1.565
X0.558 Z-1.474
X0.565 Y8.322 Z-1.38
G0 Z5.
X-4.645 Y41.338
Z-0.78
G1 Z-1.38 F200.
X-4.638 Y41.334 Z-1.474
X-4.619 Y41.323 Z-1.565
X-4.588 Y41.304 Z-1.652
X-4.546 Y41.279 Z-1.733
X-4.494 Y41.248 Z-1.804
X-4.432 Y41.211 Z-1.865
X-4.363 Y41.17 Z-1.915
X-4.288 Y41.126 Z-1.951
X-4.21 Y41.079 Z-1.973
X-4.129 Y41.031 Z-1.98
G3 X-2.32 Y40.5 R3.798
G1 X-0.71 F500.
X-0.561 Y40.507
X-0.263 Y40.56
X0.045 Y40.653
X0.402 Y40.809
X0.771 Y41.025
X1.164 Y41.324
X1.575 Y41.72
X2.003 Y42.245
X2.429 Y42.916
X2.62 Y43.316
X3.138 Y44.035
X3.846 Y44.568
X4.643 Y44.954
X5.484 Y45.235
X6.346 Y45.438
X7.22 Y45.585
X8.1 Y45.691
X8.983 Y45.768
X9.867 Y45.824
X10.752 Y45.865
X11.638 Y45.894
X12.524 Y45.915
X13.41 Y45.93
X14.296 Y45.942
X15.182 Y45.949
X16.068 Y45.955
X16.954 Y45.959
X18.726 Y45.965
X21.385 Y45.968
X27.588 Y45.97
X28.031
X28.248 Y45.925
X28.652 Y45.743
X29.338 Y45.183
X29.813 Y44.435
X30.147 Y43.614
X30.384 Y42.76
X30.551 Y41.89
X30.671 Y41.012
X30.756 Y40.13
X30.817 Y39.246
X30.86 Y38.361
X30.892 Y37.475
X30.914 Y36.589
X30.93 Y35.703
X30.941 Y34.817
X30.95 Y33.931
X30.955 Y33.045
X30.96 Y32.159
X30.965 Y30.387
X30.968 Y27.728
X30.969 Y26.842
X30.97 Y17.981
Y10.449
X30.934 Y10.23
X30.757 Y9.824
X30.196 Y9.138
X29.447 Y8.665
X28.625 Y8.334
X27.77 Y8.101
X26.899 Y7.936
X26.021 Y7.819
X25.139 Y7.736
X24.254 Y7.677
X23.369 Y7.635
X22.484 Y7.605
X21.598 Y7.583
X20.712 Y7.568
X19.826 Y7.557
X18.94 Y7.549
X18.054 Y7.544
X17.168 Y7.54
X15.395 Y7.535
X12.737 Y7.532
X10.522 Y7.531
X10.097 Y7.658
X9.344 Y8.124
X8.739 Y8.772
X8.375 Y9.241
X8.229 Y9.381
X8.047 Y9.469
X7.848 Y9.5
X3.449
G3 X3.476 Y8.3 R0.6
X3.49 Y8.301 R0.6
G1 X3.584 Y8.304 Z-1.973
X3.676 Y8.307 Z-1.951
X3.763 Y8.31 Z-1.915
X3.843 Y8.313 Z-1.865
X3.914 Y8.316 Z-1.804
X3.976 Y8.318 Z-1.733
X4.025 Y8.319 Z-1.652
X4.061 Y8.321 Z-1.565
X4.083 Z-1.474
X4.09 Y8.322 Z-1.38
G0 Z5.
X-3.035 Y41.338
Z-0.78
G1 Z-1.38 F200.
X-3.028 Y41.334 Z-1.474
X-3.01 Y41.323 Z-1.565
X-2.979 Y41.304 Z-1.652
X-2.936 Y41.279 Z-1.733
X-2.884 Y41.248 Z-1.804
X-2.822 Y41.211 Z-1.865
X-2.753 Y41.17 Z-1.915
X-2.678 Y41.126 Z-1.951
X-2.6 Y41.079 Z-1.973
X-2.519 Y41.031 Z-1.98
G3 X-0.71 Y40.5 R3.798
G1 X1.905 F500.
X2.245 Y40.517
X2.599 Y40.577
X3.449 Y40.829
X4.286 Y41.119
X5.13 Y41.389
X5.986 Y41.619
X6.852 Y41.808
X7.725 Y41.96
X8.603 Y42.079
X9.484 Y42.172
X10.367 Y42.244
X11.252 Y42.3
X12.137 Y42.342
X13.022 Y42.374
X13.908 Y42.398
X14.794 Y42.416
X15.68 Y42.43
X16.566 Y42.44
X17.452 Y42.448
X18.338 Y42.454
X19.224 Y42.458
X20.997 Y42.463
X23.655 Y42.467
X24.32 Y42.468
X24.539 Y42.44
X24.956 Y42.29
X25.675 Y41.772
X26.184 Y41.047
X26.546 Y40.238
X26.804 Y39.39
X26.99 Y38.524
X27.123 Y37.648
X27.22 Y36.767
X27.289 Y35.884
X27.339 Y34.999
X27.376 Y34.113
X27.402 Y33.228
X27.421 Y32.342
X27.434 Y31.456
X27.444 Y30.57
X27.451 Y29.684
X27.457 Y28.798
X27.46 Y27.911
X27.465 Y26.139
X27.468 Y23.481
X27.47 Y17.278
Y15.506
Y14.177
X27.447 Y13.956
X27.302 Y13.538
X26.786 Y12.817
X26.06 Y12.309
X25.251 Y11.948
X24.403 Y11.69
X23.536 Y11.505
X22.66 Y11.373
X21.779 Y11.277
X20.896 Y11.208
X20.011 Y11.159
X19.126 Y11.123
X18.24 Y11.097
X18.023 Y11.092
X17.813 Y11.055
X17.624 Y10.957
X17.473 Y10.806
X17.399 Y10.706
X17.324 Y10.605
X17.139 Y10.404
X16.997 Y10.272
X16.796 Y10.106
X16.655 Y10.001
X16.595 Y9.962
X16.393 Y9.849
X16.299 Y9.8
X16.192 Y9.75
X15.991 Y9.67
X15.75 Y9.598
X15.588 Y9.562
X15.387 Y9.529
X14.985 Y9.509
X14.784 Y9.5
X7.848
G3 X7.875 Y8.3 R0.6
X7.89 Y8.301 R0.6
G1 X7.984 Y8.304 Z-1.973
X8.075 Y8.307 Z-1.951
X8.162 Y8.31 Z-1.915
X8.242 Y8.313 Z-1.865
X8.314 Y8.316 Z-1.804
X8.375 Y8.318 Z-1.733
X8.424 Y8.319 Z-1.652
X8.46 Y8.321 Z-1.565
X8.482 Z-1.474
X8.489 Y8.322 Z-1.38
G0 Z5.
X-0.419 Y41.338
Z-0.78
G1 Z-1.38 F200.
X-0.413 Y41.334 Z-1.474
X-0.394 Y41.323 Z-1.565
X-0.363 Y41.304 Z-1.652
X-0.32 Y41.279 Z-1.733
X-0.268 Y41.248 Z-1.804
X-0.206 Y41.211 Z-1.865
X-0.137 Y41.17 Z-1.915
X-0.063 Y41.126 Z-1.951
X0.016 Y41.079 Z-1.973
X0.097 Y41.031 Z-1.98
G3 X1.905 Y40.5 R3.798
G1 X14.784 F500.
X15.186 Y40.481
X15.387 Y40.471
X15.588 Y40.438
X15.751 Y40.401
X15.991 Y40.33
X16.192 Y40.25
X16.3 Y40.2
X16.97 Y39.892
X17.814 Y39.62
X18.678 Y39.427
X19.554 Y39.29
X20.435 Y39.194
X20.877 Y39.16
X21.301 Y39.032
X21.673 Y38.792
X22.316 Y38.182
X22.776 Y37.425
X23.106 Y36.602
X23.343 Y35.749
X23.515 Y34.879
X23.64 Y34.002
X23.73 Y33.12
X23.795 Y32.237
X23.843 Y31.352
X23.878 Y30.466
X23.903 Y29.581
X23.921 Y28.695
X23.934 Y27.809
X23.944 Y26.923
X23.951 Y26.037
X23.956 Y25.15
X23.96 Y24.264
X23.965 Y22.492
X23.968 Y19.834
X23.969 Y17.618
X23.863 Y17.188
X23.628 Y16.813
X23.021 Y16.167
X22.264 Y15.708
X21.44 Y15.38
X20.586 Y15.144
X19.717 Y14.973
X18.847 Y14.804
X18.494 Y14.709
X18.296 Y14.619
X18.138 Y14.47
X18.035 Y14.279
X18. Y14.065
Y13.021
X17.999 Y12.82
X17.996 Y12.618
G3 X18.609 Y12.031 R0.6
X19.196 Y12.644 R0.6
G1 X19.194 Y12.738 Z-1.973
X19.192 Y12.829 Z-1.951
X19.19 Y12.916 Z-1.915
X19.188 Y12.997 Z-1.865
X19.187 Y13.068 Z-1.804
X19.185 Y13.129 Z-1.733
X19.184 Y13.179 Z-1.652
X19.183 Y13.215 Z-1.565
Y13.237 Z-1.474
Y13.244 Z-1.38
G0 Z5.
X14.323 Y41.701
Z-0.78
G1 Z-1.38 F200.
X14.329 Y41.696 Z-1.474
X14.345 Y41.681 Z-1.565
X14.372 Y41.657 Z-1.652
X14.408 Y41.624 Z-1.733
X14.454 Y41.584 Z-1.804
X14.507 Y41.536 Z-1.865
X14.567 Y41.482 Z-1.915
X14.632 Y41.424 Z-1.951
X14.7 Y41.363 Z-1.973
X14.77 Y41.3 Z-1.98
G3 X16.3 Y40.2 R8.75
G1 X16.393 Y40.151 F500.
X16.595 Y40.038
X16.655 Y39.999
X16.796 Y39.894
X16.997 Y39.728
X17.139 Y39.596
X17.324 Y39.395
X17.399 Y39.294
X17.473 Y39.193
X17.601 Y38.989
X17.705 Y38.791
X17.792 Y38.589
X17.866 Y38.44
X18.35 Y37.697
X18.812 Y36.941
X19.193 Y36.141
X19.495 Y35.308
X19.73 Y34.454
X19.91 Y33.586
X20.048 Y32.711
X20.153 Y31.831
X20.232 Y30.948
X20.292 Y30.064
X20.337 Y29.179
X20.371 Y28.294
X20.396 Y27.408
X20.415 Y26.522
X20.429 Y25.636
X20.44 Y24.75
X20.448 Y23.864
X20.453 Y22.978
X20.458 Y22.092
X20.461 Y21.206
X20.379 Y20.77
X19.937 Y20.002
X19.267 Y19.422
X18.53 Y18.93
X18.3 Y18.779
X18.14 Y18.631
X18.036 Y18.438
X18. Y18.222
Y14.065
G3 X19.2 Y14.092 R0.6
X19.199 Y14.107 R0.6
G1 X19.196 Y14.2 Z-1.973
X19.193 Y14.292 Z-1.951
X19.19 Y14.379 Z-1.915
X19.187 Y14.459 Z-1.865
X19.184 Y14.531 Z-1.804
X19.182 Y14.592 Z-1.733
X19.181 Y14.641 Z-1.652
X19.179 Y14.677 Z-1.565
Y14.699 Z-1.474
X19.178 Y14.706 Z-1.38
G0 Z5.
X17.203 Y41.
Z-0.78
G1 Z-1.38 F200.
X17.204 Y40.993 Z-1.474
X17.207 Y40.971 Z-1.565
X17.213 Y40.936 Z-1.652
X17.221 Y40.887 Z-1.733
X17.23 Y40.827 Z-1.804
X17.241 Y40.756 Z-1.865
X17.254 Y40.677 Z-1.915
X17.268 Y40.591 Z-1.951
X17.282 Y40.501 Z-1.973
X17.297 Y40.408 Z-1.98
G3 X17.792 Y38.589 R8.75
G1 X17.802 Y38.568 F500.
X17.861 Y38.388
X17.917 Y38.187
X17.96 Y37.985
X17.983 Y37.784
X17.993 Y37.583
X17.999 Y37.18
X18. Y36.979
Y18.222
G3 X18.941 Y17.75 R0.6
G1 X18.993 Y17.802 Z-1.975
X19.045 Y17.854 Z-1.962
X19.094 Y17.904 Z-1.939
X19.127 Y17.976 Z-1.901
X19.156 Y18.043 Z-1.851
X19.183 Y18.102 Z-1.792
X19.188 Y18.149 Z-1.735
X19.193 Y18.188 Z-1.673
X19.197 Y18.22 Z-1.607
X19.2 Y18.243 Z-1.537
Y18.249 Z-1.513
X19.199 Y18.26 Z-1.447
Y18.264 Z-1.38
G0 Z5.
X40.465 Y-0.387
Z-1.275
G1 Z-1.875 F200.
X40.458 Y-0.385 Z-1.969
X40.437 Y-0.38 Z-2.06
X40.402 Y-0.371 Z-2.147
X40.354 Y-0.359 Z-2.228
X40.295 Y-0.344 Z-2.299
X40.226 Y-0.326 Z-2.36
X40.148 Y-0.306 Z-2.41
X40.064 Y-0.284 Z-2.446
X39.975 Y-0.262 Z-2.468
X39.884 Y-0.238 Z-2.475
G3 X38.018 Y0.03 R8.75
G1 X37.908 F500.
X37.034 Y0.177
X36.154 Y0.281
X35.271 Y0.355
X34.386 Y0.407
X33.501 Y0.444
X32.615 Y0.47
X31.729 Y0.488
X30.843 Y0.5
X29.957 Y0.509
X29.071 Y0.515
X28.185 Y0.52
X26.413 Y0.525
X23.754 Y0.528
X17.551 Y0.53
X2.93
X2.721 Y0.603
X2.631 Y0.667
X2.289 Y0.949
X1.728 Y1.635
X1.355 Y2.439
X1.102 Y3.288
X0.928 Y4.157
X0.807 Y5.035
X0.723 Y5.917
X0.665 Y6.801
X0.625 Y7.686
X0.596 Y8.572
X0.59 Y8.848
X0.554 Y9.051
X0.457 Y9.232
X0.31 Y9.376
X0.127 Y9.468
X-0.077 Y9.5
G3 X-0.05 Y8.3 R0.6
X-0.035 Y8.301 R0.6
G1 X0.059 Y8.304 Z-2.468
X0.151 Y8.307 Z-2.446
X0.238 Y8.31 Z-2.41
X0.318 Y8.313 Z-2.36
X0.389 Y8.316 Z-2.299
X0.45 Y8.318 Z-2.228
X0.5 Y8.319 Z-2.147
X0.536 Y8.321 Z-2.06
X0.558 Z-1.969
X0.565 Y8.322 Z-1.875
G0 Z5.
X-5.339 Y41.338
Z-1.275
G1 Z-1.875 F200.
X-5.332 Y41.334 Z-1.969
X-5.314 Y41.323 Z-2.06
X-5.283 Y41.304 Z-2.147
X-5.24 Y41.279 Z-2.228
X-5.188 Y41.248 Z-2.299
X-5.126 Y41.211 Z-2.36
X-5.057 Y41.17 Z-2.41
X-4.982 Y41.126 Z-2.446
X-4.904 Y41.079 Z-2.468
X-4.823 Y41.031 Z-2.475
G3 X-3.014 Y40.5 R3.798
G1 X-2.32 F500.
X-2.245 Y40.504
X-1.998 Y40.653
X-1.722 Y40.868
X-1.421 Y41.165
X-1.1 Y41.569
X-0.762 Y42.115
X-0.414 Y42.865
X-0.139 Y43.707
X0.058 Y44.571
X0.197 Y45.446
X0.296 Y46.327
X0.331 Y46.768
X0.346 Y46.989
X0.407 Y47.202
X0.644 Y47.577
X1.288 Y48.185
X2.078 Y48.586
X2.922 Y48.858
X3.788 Y49.045
X4.665 Y49.174
X5.546 Y49.263
X6.43 Y49.326
X7.315 Y49.369
X8.201 Y49.399
X9.087 Y49.421
X9.973 Y49.435
X10.859 Y49.446
X11.745 Y49.453
X12.631 Y49.458
X13.517 Y49.462
X15.289 Y49.466
X17.948 Y49.469
X25.923 Y49.47
X32.126
X32.335 Y49.397
X32.422 Y49.329
X33.086 Y48.742
X33.52 Y47.97
X33.813 Y47.133
X34.014 Y46.27
X34.152 Y45.395
X34.248 Y44.514
X34.315 Y43.63
X34.362 Y42.746
X34.394 Y41.86
X34.417 Y40.974
X34.433 Y40.088
X34.444 Y39.202
X34.452 Y38.316
X34.457 Y37.43
X34.461 Y36.544
X34.466 Y34.772
X34.468 Y32.113
X34.47 Y25.024
Y6.194
X34.397 Y5.985
X34.329 Y5.898
X33.696 Y5.278
X32.905 Y4.877
X32.061 Y4.609
X31.193 Y4.428
X30.316 Y4.304
X29.434 Y4.219
X28.55 Y4.16
X27.664 Y4.12
X26.779 Y4.092
X25.893 Y4.073
X25.007 Y4.06
X24.121 Y4.051
X23.235 Y4.044
X22.348 Y4.04
X20.576 Y4.035
X17.918 Y4.032
X10.829 Y4.03
X7.063
X6.843 Y4.053
X6.427 Y4.207
X5.721 Y4.742
X5.229 Y5.479
X4.884 Y6.295
X4.639 Y7.147
X4.423 Y8.006
X4.164 Y8.854
X4.062 Y9.093
X3.961 Y9.259
X3.817 Y9.389
X3.641 Y9.472
X3.449 Y9.5
X-0.077
G3 X-0.05 Y8.3 R0.6
X-0.035 Y8.301 R0.6
G1 X0.059 Y8.304 Z-2.468
X0.151 Y8.307 Z-2.446
X0.238 Y8.31 Z-2.41
X0.318 Y8.313 Z-2.36
X0.389 Y8.316 Z-2.299
X0.45 Y8.318 Z-2.228
X0.5 Y8.319 Z-2.147
X0.536 Y8.321 Z-2.06
X0.558 Z-1.969
X0.565 Y8.322 Z-1.875
G0 Z5.
X-4.645 Y41.338
Z-1.275
G1 Z-1.875 F200.
X-4.638 Y41.334 Z-1.969
X-4.619 Y41.323 Z-2.06
X-4.588 Y41.304 Z-2.147
X-4.546 Y41.279 Z-2.228
X-4.494 Y41.248 Z-2.299
X-4.432 Y41.211 Z-2.36
X-4.363 Y41.17 Z-2.41
X-4.288 Y41.126 Z-2.446
X-4.21 Y41.079 Z-2.468
X-4.129 Y41.031 Z-2.475
G3 X-2.32 Y40.5 R3.798
G1 X-0.71 F500.
X-0.561 Y40.507
X-0.263 Y40.56
X0.045 Y40.653
X0.402 Y40.809
X0.771 Y41.025
X1.164 Y41.324
X1.575 Y41.72
X2.003 Y42.245
X2.429 Y42.916
X2.62 Y43.316
X3.138 Y44.035
X3.846 Y44.568
X4.643 Y44.954
X5.484 Y45.235
X6.346 Y45.438
X7.22 Y45.585
X8.1 Y45.691
X8.983 Y45.768
X9.867 Y45.824
X10.752 Y45.865
X11.638 Y45.894
X12.524 Y45.915
X13.41 Y45.93
X14.296 Y45.942
X15.182 Y45.949
X16.068 Y45.955
X16.954 Y45.959
X18.726 Y45.965
X21.385 Y45.968
X27.588 Y45.97
X28.031
X28.248 Y45.925
X28.652 Y45.743
X29.338 Y45.183
X29.813 Y44.435
X30.147 Y43.614
X30.384 Y42.76
X30.551 Y41.89
X30.671 Y41.012
X30.756 Y40.13
X30.817 Y39.246
X30.86 Y38.361
X30.892 Y37.475
X30.914 Y36.589
X30.93 Y35.703
X30.941 Y34.817
X30.95 Y33.931
X30.955 Y33.045
X30.96 Y32.159
X30.965 Y30.387
X30.968 Y27.728
X30.969 Y26.842
X30.97 Y17.981
Y10.449
X30.934 Y10.23
X30.757 Y9.824
X30.196 Y9.138
X29.447 Y8.665
X28.625 Y8.334
X27.77 Y8.101
X26.899 Y7.936
X26.021 Y7.819
X25.139 Y7.736
X24.254 Y7.677
X23.369 Y7.635
X22.484 Y7.605
X21.598 Y7.583
X20.712 Y7.568
X19.826 Y7.557
X18.94 Y7.549
X18.054 Y7.544
X17.168 Y7.54
X15.395 Y7.535
X12.737 Y7.532
X10.522 Y7.531
X10.097 Y7.658
X9.344 Y8.124
X8.739 Y8.772
X8.375 Y9.241
X8.229 Y9.381
X8.047 Y9.469
X7.848 Y9.5
X3.449
G3 X3.476 Y8.3 R0.6
X3.49 Y8.301 R0.6
G1 X3.584 Y8.304 Z-2.468
X3.676 Y8.307 Z-2.446
X3.763 Y8.31 Z-2.41
X3.843 Y8.313 Z-2.36
X3.914 Y8.316 Z-2.299
X3.976 Y8.318 Z-2.228
X4.025 Y8.319 Z-2.147
X4.061 Y8.321 Z-2.06
X4.083 Z-1.969
X4.09 Y8.322 Z-1.875
G0 Z5.
X-3.035 Y41.338
Z-1.275
G1 Z-1.875 F200.
X-3.028 Y41.334 Z-1.969
X-3.01 Y41.323 Z-2.06
X-2.979 Y41.304 Z-2.147
X-2.936 Y41.279 Z-2.228
X-2.884 Y41.248 Z-2.299
X-2.822 Y41.211 Z-2.36
X-2.753 Y41.17 Z-2.41
X-2.678 Y41.126 Z-2.446
X-2.6 Y41.079 Z-2.468
X-2.519 Y41.031 Z-2.475
G3 X-0.71 Y40.5 R3.798
G1 X1.905 F500.
X2.245 Y40.517
X2.599 Y40.577
X3.449 Y40.829
X4.286 Y41.119
X5.13 Y41.389
X5.986 Y41.619
X6.852 Y41.808
X7.725 Y41.96
X8.603 Y42.079
X9.484 Y42.172
X10.367 Y42.244
X11.252 Y42.3
X12.137 Y42.342
X13.022 Y42.374
X13.908 Y42.398
X14.794 Y42.416
X15.68 Y42.43
X16.566 Y42.44
X17.452 Y42.448
X18.338 Y42.454
X19.224 Y42.458
X20.997 Y42.463
X23.655 Y42.467
X24.32 Y42.468
X24.539 Y42.44
X24.956 Y42.29
X25.675 Y41.772
X26.184 Y41.047
X26.546 Y40.238
X26.804 Y39.39
X26.99 Y38.524
X27.123 Y37.648
X27.22 Y36.767
X27.289 Y35.884
X27.339 Y34.999
X27.376 Y34.113
X27.402 Y33.228
X27.421 Y32.342
X27.434 Y31.456
X27.444 Y30.57
X27.451 Y29.684
X27.457 Y28.798
X27.46 Y27.911
X27.465 Y26.139
X27.468 Y23.481
X27.47 Y17.278
Y15.506
Y14.177
X27.447 Y13.956
X27.302 Y13.538
X26.786 Y12.817
X26.06 Y12.309
X25.251 Y11.948
X24.403 Y11.69
X23.536 Y11.505
X22.66 Y11.373
X21.779 Y11.277
X20.896 Y11.208
X20.011 Y11.159
X19.126 Y11.123
X18.24 Y11.097
X18.023 Y11.092
X17.813 Y11.055
X17.624 Y10.957
X17.473 Y10.806
X17.399 Y10.706
X17.324 Y10.605
X17.139 Y10.404
X16.997 Y10.272
X16.796 Y10.106
X16.655 Y10.001
X16.595 Y9.962
X16.393 Y9.849
X16.299 Y9.8
X16.192 Y9.75
X15.991 Y9.67
X15.75 Y9.598
X15.588 Y9.562
X15.387 Y9.529
X14.985 Y9.509
X14.784 Y9.5
X7.848
G3 X7.875 Y8.3 R0.6
X7.89 Y8.301 R0.6
G1 X7.984 Y8.304 Z-2.468
X8.075 Y8.307 Z-2.446
X8.162 Y8.31 Z-2.41
X8.242 Y8.313 Z-2.36
X8.314 Y8.316 Z-2.299
X8.375 Y8.318 Z-2.228
X8.424 Y8.319 Z-2.147
X8.46 Y8.321 Z-2.06
X8.482 Z-1.969
X8.489 Y8.322 Z-1.875
G0 Z5.
X-0.419 Y41.338
Z-1.275
G1 Z-1.875 F200.
X-0.413 Y41.334 Z-1.969
X-0.394 Y41.323 Z-2.06
X-0.363 Y41.304 Z-2.147
X-0.32 Y41.279 Z-2.228
X-0.268 Y41.248 Z-2.299
X-0.206 Y41.211 Z-2.36
X-0.137 Y41.17 Z-2.41
X-0.063 Y41.126 Z-2.446
X0.016 Y41.079 Z-2.468
X0.097 Y41.031 Z-2.475
G3 X1.905 Y40.5 R3.798
G1 X14.784 F500.
X15.186 Y40.481
X15.387 Y40.471
X15.588 Y40.438
X15.751 Y40.401
X15.991 Y40.33
X16.192 Y40.25
X16.3 Y40.2
X16.97 Y39.892
X17.814 Y39.62
X18.678 Y39.427
X19.554 Y39.29
X20.435 Y39.194
X20.877 Y39.16
X21.301 Y39.032
X21.673 Y38.792
X22.316 Y38.182
X22.776 Y37.425
X23.106 Y36.602
X23.343 Y35.749
X23.515 Y34.879
X23.64 Y34.002
X23.73 Y33.12
X23.795 Y32.237
X23.843 Y31.352
X23.878 Y30.466
X23.903 Y29.581
X23.921 Y28.695
X23.934 Y27.809
X23.944 Y26.923
X23.951 Y26.037
X23.956 Y25.15
X23.96 Y24.264
X23.965 Y22.492
X23.968 Y19.834
X23.969 Y17.618
X23.863 Y17.188
X23.628 Y16.813
X23.021 Y16.167
X22.264 Y15.708
X21.44 Y15.38
X20.586 Y15.144
X19.717 Y14.973
X18.847 Y14.804
X18.494 Y14.709
X18.296 Y14.619
X18.138 Y14.47
X18.035 Y14.279
X18. Y14.065
Y13.021
X17.999 Y12.82
X17.996 Y12.618
G3 X18.609 Y12.031 R0.6
X19.196 Y12.644 R0.6
G1 X19.194 Y12.738 Z-2.468
X19.192 Y12.829 Z-2.446
X19.19 Y12.916 Z-2.41
X19.188 Y12.997 Z-2.36
X19.187 Y13.068 Z-2.299
X19.185 Y13.129 Z-2.228
X19.184 Y13.179 Z-2.147
X19.183 Y13.215 Z-2.06
Y13.237 Z-1.969
Y13.244 Z-1.875
G0 Z5.
X14.323 Y41.701
Z-1.275
G1 Z-1.875 F200.
X14.329 Y41.696 Z-1.969
X14.345 Y41.681 Z-2.06
X14.372 Y41.657 Z-2.147
X14.408 Y41.624 Z-2.228
X14.454 Y41.584 Z-2.299
X14.507 Y41.536 Z-2.36
X14.567 Y41.482 Z-2.41
X14.632 Y41.424 Z-2.446
X14.7 Y41.363 Z-2.468
X14.77 Y41.3 Z-2.475
G3 X16.3 Y40.2 R8.75
G1 X16.393 Y40.151 F500.
X16.595 Y40.038
X16.655 Y39.999
X16.796 Y39.894
X16.997 Y39.728
X17.139 Y39.596
X17.324 Y39.395
X17.399 Y39.294
X17.473 Y39.193
X17.601 Y38.989
X17.705 Y38.791
X17.792 Y38.589
X17.866 Y38.44
X18.35 Y37.697
X18.812 Y36.941
X19.193 Y36.141
X19.495 Y35.308
X19.73 Y34.454
X19.91 Y33.586
X20.048 Y32.711
X20.153 Y31.831
X20.232 Y30.948
X20.292 Y30.064
X20.337 Y29.179
X20.371 Y28.294
X20.396 Y27.408
X20.415 Y26.522
X20.429 Y25.636
X20.44 Y24.75
X20.448 Y23.864
X20.453 Y22.978
X20.458 Y22.092
X20.461 Y21.206
X20.379 Y20.77
X19.937 Y20.002
X19.267 Y19.422
X18.53 Y18.93
X18.3 Y18.779
X18.14 Y18.631
X18.036 Y18.438
X18. Y18.222
Y14.065
G3 X19.2 Y14.092 R0.6
X19.199 Y14.107 R0.6
G1 X19.196 Y14.2 Z-2.468
X19.193 Y14.292 Z-2.446
X19.19 Y14.379 Z-2.41
X19.187 Y14.459 Z-2.36
X19.184 Y14.531 Z-2.299
X19.182 Y14.592 Z-2.228
X19.181 Y14.641 Z-2.147
X19.179 Y14.677 Z-2.06
Y14.699 Z-1.969
X19.178 Y14.706 Z-1.875
G0 Z5.
X17.203 Y41.
Z-1.275
G1 Z-1.875 F200.
X17.204 Y40.993 Z-1.969
X17.207 Y40.971 Z-2.06
X17.213 Y40.936 Z-2.147
X17.221 Y40.887 Z-2.228
X17.23 Y40.827 Z-2.299
X17.241 Y40.756 Z-2.36
X17.254 Y40.677 Z-2.41
X17.268 Y40.591 Z-2.446
X17.282 Y40.501 Z-2.468
X17.297 Y40.408 Z-2.475
G3 X17.792 Y38.589 R8.75
G1 X17.802 Y38.568 F500.
X17.861 Y38.388
X17.917 Y38.187
X17.96 Y37.985
X17.983 Y37.784
X17.993 Y37.583
X17.999 Y37.18
X18. Y36.979
Y18.222
G3 X18.941 Y17.75 R0.6
G1 X18.993 Y17.802 Z-2.47
X19.045 Y17.854 Z-2.457
X19.094 Y17.904 Z-2.434
X19.127 Y17.976 Z-2.396
X19.156 Y18.043 Z-2.346
X19.183 Y18.102 Z-2.287
X19.188 Y18.149 Z-2.23
X19.193 Y18.188 Z-2.168
X19.197 Y18.22 Z-2.102
X19.2 Y18.243 Z-2.032
Y18.249 Z-2.008
X19.199 Y18.26 Z-1.942
Y18.264 Z-1.875
G0 Z5.
X40.465 Y-0.387
Z-1.77
G1 Z-2.37 F200.
X40.458 Y-0.385 Z-2.464
X40.437 Y-0.38 Z-2.555
X40.402 Y-0.371 Z-2.642
X40.354 Y-0.359 Z-2.723
X40.295 Y-0.344 Z-2.794
X40.226 Y-0.326 Z-2.855
X40.148 Y-0.306 Z-2.905
X40.064 Y-0.284 Z-2.941
X39.975 Y-0.262 Z-2.963
X39.884 Y-0.238 Z-2.97
G3 X38.018 Y0.03 R8.75
G1 X37.908 F500.
X37.034 Y0.177
X36.154 Y0.281
X35.271 Y0.355
X34.386 Y0.407
X33.501 Y0.444
X32.615 Y0.47
X31.729 Y0.488
X30.843 Y0.5
X29.957 Y0.509
X29.071 Y0.515
X28.185 Y0.52
X26.413 Y0.525
X23.754 Y0.528
X17.551 Y0.53
X2.93
X2.721 Y0.603
X2.631 Y0.667
X2.289 Y0.949
X1.728 Y1.635
X1.355 Y2.439
X1.102 Y3.288
X0.928 Y4.157
X0.807 Y5.035
X0.723 Y5.917
X0.665 Y6.801
X0.625 Y7.686
X0.596 Y8.572
X0.59 Y8.848
X0.554 Y9.051
X0.457 Y9.232
X0.31 Y9.376
X0.127 Y9.468
X-0.077 Y9.5
G3 X-0.05 Y8.3 R0.6
X-0.035 Y8.301 R0.6
G1 X0.059 Y8.304 Z-2.963
X0.151 Y8.307 Z-2.941
X0.238 Y8.31 Z-2.905
X0.318 Y8.313 Z-2.855
X0.389 Y8.316 Z-2.794
X0.45 Y8.318 Z-2.723
X0.5 Y8.319 Z-2.642
X0.536 Y8.321 Z-2.555
X0.558 Z-2.464
X0.565 Y8.322 Z-2.37
G0 Z5.
X-5.339 Y41.338
Z-1.77
G1 Z-2.37 F200.
X-5.332 Y41.334 Z-2.464
X-5.314 Y41.323 Z-2.555
X-5.283 Y41.304 Z-2.642
X-5.24 Y41.279 Z-2.723
X-5.188 Y41.248 Z-2.794
X-5.126 Y41.211 Z-2.855
X-5.057 Y41.17 Z-2.905
X-4.982 Y41.126 Z-2.941
X-4.904 Y41.079 Z-2.963
X-4.823 Y41.031 Z-2.97
G3 X-3.014 Y40.5 R3.798
G1 X-2.32 F500.
X-2.245 Y40.504
X-1.998 Y40.653
X-1.722 Y40.868
X-1.421 Y41.165
X-1.1 Y41.569
X-0.762 Y42.115
X-0.414 Y42.865
X-0.139 Y43.707
X0.058 Y44.571
X0.197 Y45.446
X0.296 Y46.327
X0.331 Y46.768
X0.346 Y46.989
X0.407 Y47.202
X0.644 Y47.577
X1.288 Y48.185
X2.078 Y48.586
X2.922 Y48.858
X3.788 Y49.045
X4.665 Y49.174
X5.546 Y49.263
X6.43 Y49.326
X7.315 Y49.369
X8.201 Y49.399
X9.087 Y49.421
X9.973 Y49.435
X10.859 Y49.446
X11.745 Y49.453
X12.631 Y49.458
X13.517 Y49.462
X15.289 Y49.466
X17.948 Y49.469
X25.923 Y49.47
X32.126
X32.335 Y49.397
X32.422 Y49.329
X33.086 Y48.742
X33.52 Y47.97
X33.813 Y47.133
X34.014 Y46.27
X34.152 Y45.395
X34.248 Y44.514
X34.315 Y43.63
X34.362 Y42.746
X34.394 Y41.86
X34.417 Y40.974
X34.433 Y40.088
X34.444 Y39.202
X34.452 Y38.316
X34.457 Y37.43
X34.461 Y36.544
X34.466 Y34.772
X34.468 Y32.113
X34.47 Y25.024
Y6.194
X34.397 Y5.985
X34.329 Y5.898
X33.696 Y5.278
X32.905 Y4.877
X32.061 Y4.609
X31.193 Y4.428
X30.316 Y4.304
X29.434 Y4.219
X28.55 Y4.16
X27.664 Y4.12
X26.779 Y4.092
X25.893 Y4.073
X25.007 Y4.06
X24.121 Y4.051
X23.235 Y4.044
X22.348 Y4.04
X20.576 Y4.035
X17.918 Y4.032
X10.829 Y4.03
X7.063
X6.843 Y4.053
X6.427 Y4.207
X5.721 Y4.742
X5.229 Y5.479
X4.884 Y6.295
X4.639 Y7.147
X4.423 Y8.006
X4.164 Y8.854
X4.062 Y9.093
X3.961 Y9.259
X3.817 Y9.389
X3.641 Y9.472
X3.449 Y9.5
X-0.077
G3 X-0.05 Y8.3 R0.6
X-0.035 Y8.301 R0.6
G1 X0.059 Y8.304 Z-2.963
X0.151 Y8.307 Z-2.941
X0.238 Y8.31 Z-2.905
X0.318 Y8.313 Z-2.855
X0.389 Y8.316 Z-2.794
X0.45 Y8.318 Z-2.723
X0.5 Y8.319 Z-2.642
X0.536 Y8.321 Z-2.555
X0.558 Z-2.464
X0.565 Y8.322 Z-2.37
G0 Z5.
X-4.645 Y41.338
Z-1.77
G1 Z-2.37 F200.
X-4.638 Y41.334 Z-2.464
X-4.619 Y41.323 Z-2.555
X-4.588 Y41.304 Z-2.642
X-4.546 Y41.279 Z-2.723
X-4.494 Y41.248 Z-2.794
X-4.432 Y41.211 Z-2.855
X-4.363 Y41.17 Z-2.905
X-4.288 Y41.126 Z-2.941
X-4.21 Y41.079 Z-2.963
X-4.129 Y41.031 Z-2.97
G3 X-2.32 Y40.5 R3.798
G1 X-0.71 F500.
X-0.561 Y40.507
X-0.263 Y40.56
X0.045 Y40.653
X0.402 Y40.809
X0.771 Y41.025
X1.164 Y41.324
X1.575 Y41.72
X2.003 Y42.245
X2.429 Y42.916
X2.62 Y43.316
X3.138 Y44.035
X3.846 Y44.568
X4.643 Y44.954
X5.484 Y45.235
X6.346 Y45.438
X7.22 Y45.585
X8.1 Y45.691
X8.983 Y45.768
X9.867 Y45.824
X10.752 Y45.865
X11.638 Y45.894
X12.524 Y45.915
X13.41 Y45.93
X14.296 Y45.942
X15.182 Y45.949
X16.068 Y45.955
X16.954 Y45.959
X18.726 Y45.965
X21.385 Y45.968
X27.588 Y45.97
X28.031
X28.248 Y45.925
X28.652 Y45.743
X29.338 Y45.183
X29.813 Y44.435
X30.147 Y43.614
X30.384 Y42.76
X30.551 Y41.89
X30.671 Y41.012
X30.756 Y40.13
X30.817 Y39.246
X30.86 Y38.361
X30.892 Y37.475
X30.914 Y36.589
X30.93 Y35.703
X30.941 Y34.817
X30.95 Y33.931
X30.955 Y33.045
X30.96 Y32.159
X30.965 Y30.387
X30.968 Y27.728
X30.969 Y26.842
X30.97 Y17.981
Y10.449
X30.934 Y10.23
X30.757 Y9.824
X30.196 Y9.138
X29.447 Y8.665
X28.625 Y8.334
X27.77 Y8.101
X26.899 Y7.936
X26.021 Y7.819
X25.139 Y7.736
X24.254 Y7.677
X23.369 Y7.635
X22.484 Y7.605
X21.598 Y7.583
X20.712 Y7.568
X19.826 Y7.557
X18.94 Y7.549
X18.054 Y7.544
X17.168 Y7.54
X15.395 Y7.535
X12.737 Y7.532
X10.522 Y7.531
X10.097 Y7.658
X9.344 Y8.124
X8.739 Y8.772
X8.375 Y9.241
X8.229 Y9.381
X8.047 Y9.469
X7.848 Y9.5
X3.449
G3 X3.476 Y8.3 R0.6
X3.49 Y8.301 R0.6
G1 X3.584 Y8.304 Z-2.963
X3.676 Y8.307 Z-2.941
X3.763 Y8.31 Z-2.905
X3.843 Y8.313 Z-2.855
X3.914 Y8.316 Z-2.794
X3.976 Y8.318 Z-2.723
X4.025 Y8.319 Z-2.642
X4.061 Y8.321 Z-2.555
X4.083 Z-2.464
X4.09 Y8.322 Z-2.37
G0 Z5.
X-3.035 Y41.338
Z-1.77
G1 Z-2.37 F200.
X-3.028 Y41.334 Z-2.464
X-3.01 Y41.323 Z-2.555
X-2.979 Y41.304 Z-2.642
X-2.936 Y41.279 Z-2.723
X-2.884 Y41.248 Z-2.794
X-2.822 Y41.211 Z-2.855
X-2.753 Y41.17 Z-2.905
X-2.678 Y41.126 Z-2.941
X-2.6 Y41.079 Z-2.963
X-2.519 Y41.031 Z-2.97
G3 X-0.71 Y40.5 R3.798
G1 X1.905 F500.
X2.245 Y40.517
X2.599 Y40.577
X3.449 Y40.829
X4.286 Y41.119
X5.13 Y41.389
X5.986 Y41.619
X6.852 Y41.808
X7.725 Y41.96
X8.603 Y42.079
X9.484 Y42.172
X10.367 Y42.244
X11.252 Y42.3
X12.137 Y42.342
X13.022 Y42.374
X13.908 Y42.398
X14.794 Y42.416
X15.68 Y42.43
X16.566 Y42.44
X17.452 Y42.448
X18.338 Y42.454
X19.224 Y42.458
X20.997 Y42.463
X23.655 Y42.467
X24.32 Y42.468
X24.539 Y42.44
X24.956 Y42.29
X25.675 Y41.772
X26.184 Y41.047
X26.546 Y40.238
X26.804 Y39.39
X26.99 Y38.524
X27.123 Y37.648
X27.22 Y36.767
X27.289 Y35.884
X27.339 Y34.999
X27.376 Y34.113
X27.402 Y33.228
X27.421 Y32.342
X27.434 Y31.456
X27.444 Y30.57
X27.451 Y29.684
X27.457 Y28.798
X27.46 Y27.911
X27.465 Y26.139
X27.468 Y23.481
X27.47 Y17.278
Y15.506
Y14.177
X27.447 Y13.956
X27.302 Y13.538
X26.786 Y12.817
X26.06 Y12.309
X25.251 Y11.948
X24.403 Y11.69
X23.536 Y11.505
X22.66 Y11.373
X21.779 Y11.277
X20.896 Y11.208
X20.011 Y11.159
X19.126 Y11.123
X18.24 Y11.097
X18.023 Y11.092
X17.813 Y11.055
X17.624 Y10.957
X17.473 Y10.806
X17.399 Y10.706
X17.324 Y10.605
X17.139 Y10.404
X16.997 Y10.272
X16.796 Y10.106
X16.655 Y10.001
X16.595 Y9.962
X16.393 Y9.849
X16.299 Y9.8
X16.192 Y9.75
X15.991 Y9.67
X15.75 Y9.598
X15.588 Y9.562
X15.387 Y9.529
X14.985 Y9.509
X14.784 Y9.5
X7.848
G3 X7.875 Y8.3 R0.6
X7.89 Y8.301 R0.6
G1 X7.984 Y8.304 Z-2.963
X8.075 Y8.307 Z-2.941
X8.162 Y8.31 Z-2.905
X8.242 Y8.313 Z-2.855
X8.314 Y8.316 Z-2.794
X8.375 Y8.318 Z-2.723
X8.424 Y8.319 Z-2.642
X8.46 Y8.321 Z-2.555
X8.482 Z-2.464
X8.489 Y8.322 Z-2.37
G0 Z5.
X-0.419 Y41.338
Z-1.77
G1 Z-2.37 F200.
X-0.413 Y41.334 Z-2.464
X-0.394 Y41.323 Z-2.555
X-0.363 Y41.304 Z-2.642
X-0.32 Y41.279 Z-2.723
X-0.268 Y41.248 Z-2.794
X-0.206 Y41.211 Z-2.855
X-0.137 Y41.17 Z-2.905
X-0.063 Y41.126 Z-2.941
X0.016 Y41.079 Z-2.963
X0.097 Y41.031 Z-2.97
G3 X1.905 Y40.5 R3.798
G1 X14.784 F500.
X15.186 Y40.481
X15.387 Y40.471
X15.588 Y40.438
X15.751 Y40.401
X15.991 Y40.33
X16.192 Y40.25
X16.3 Y40.2
X16.97 Y39.892
X17.814 Y39.62
X18.678 Y39.427
X19.554 Y39.29
X20.435 Y39.194
X20.877 Y39.16
X21.301 Y39.032
X21.673 Y38.792
X22.316 Y38.182
X22.776 Y37.425
X23.106 Y36.602
X23.343 Y35.749
X23.515 Y34.879
X23.64 Y34.002
X23.73 Y33.12
X23.795 Y32.237
X23.843 Y31.352
X23.878 Y30.466
X23.903 Y29.581
X23.921 Y28.695
X23.934 Y27.809
X23.944 Y26.923
X23.951 Y26.037
X23.956 Y25.15
X23.96 Y24.264
X23.965 Y22.492
X23.968 Y19.834
X23.969 Y17.618
X23.863 Y17.188
X23.628 Y16.813
X23.021 Y16.167
X22.264 Y15.708
X21.44 Y15.38
X20.586 Y15.144
X19.717 Y14.973
X18.847 Y14.804
X18.494 Y14.709
X18.296 Y14.619
X18.138 Y14.47
X18.035 Y14.279
X18. Y14.065
Y13.021
X17.999 Y12.82
X17.996 Y12.618
G3 X18.609 Y12.031 R0.6
X19.196 Y12.644 R0.6
G1 X19.194 Y12.738 Z-2.963
X19.192 Y12.829 Z-2.941
X19.19 Y12.916 Z-2.905
X19.188 Y12.997 Z-2.855
X19.187 Y13.068 Z-2.794
X19.185 Y13.129 Z-2.723
X19.184 Y13.179 Z-2.642
X19.183 Y13.215 Z-2.555
Y13.237 Z-2.464
Y13.244 Z-2.37
G0 Z5.
X14.323 Y41.701
Z-1.77
G1 Z-2.37 F200.
X14.329 Y41.696 Z-2.464
X14.345 Y41.681 Z-2.555
X14.372 Y41.657 Z-2.642
X14.408 Y41.624 Z-2.723
X14.454 Y41.584 Z-2.794
X14.507 Y41.536 Z-2.855
X14.567 Y41.482 Z-2.905
X14.632 Y41.424 Z-2.941
X14.7 Y41.363 Z-2.963
X14.77 Y41.3 Z-2.97
G3 X16.3 Y40.2 R8.75
G1 X16.393 Y40.151 F500.
X16.595 Y40.038
X16.655 Y39.999
X16.796 Y39.894
X16.997 Y39.728
X17.139 Y39.596
X17.324 Y39.395
X17.399 Y39.294
X17.473 Y39.193
X17.601 Y38.989
X17.705 Y38.791
X17.792 Y38.589
X17.866 Y38.44
X18.35 Y37.697
X18.812 Y36.941
X19.193 Y36.141
X19.495 Y35.308
X19.73 Y34.454
X19.91 Y33.586
X20.048 Y32.711
X20.153 Y31.831
X20.232 Y30.948
X20.292 Y30.064
X20.337 Y29.179
X20.371 Y28.294
X20.396 Y27.408
X20.415 Y26.522
X20.429 Y25.636
X20.44 Y24.75
X20.448 Y23.864
X20.453 Y22.978
X20.458 Y22.092
X20.461 Y21.206
X20.379 Y20.77
X19.937 Y20.002
X19.267 Y19.422
X18.53 Y18.93
X18.3 Y18.779
X18.14 Y18.631
X18.036 Y18.438
X18. Y18.222
Y14.065
G3 X19.2 Y14.092 R0.6
X19.199 Y14.107 R0.6
G1 X19.196 Y14.2 Z-2.963
X19.193 Y14.292 Z-2.941
X19.19 Y14.379 Z-2.905
X19.187 Y14.459 Z-2.855
X19.184 Y14.531 Z-2.794
X19.182 Y14.592 Z-2.723
X19.181 Y14.641 Z-2.642
X19.179 Y14.677 Z-2.555
Y14.699 Z-2.464
X19.178 Y14.706 Z-2.37
G0 Z5.
X17.203 Y41.
Z-1.77
G1 Z-2.37 F200.
X17.204 Y40.993 Z-2.464
X17.207 Y40.971 Z-2.555
X17.213 Y40.936 Z-2.642
X17.221 Y40.887 Z-2.723
X17.23 Y40.827 Z-2.794
X17.241 Y40.756 Z-2.855
X17.254 Y40.677 Z-2.905
X17.268 Y40.591 Z-2.941
X17.282 Y40.501 Z-2.963
X17.297 Y40.408 Z-2.97
G3 X17.792 Y38.589 R8.75
G1 X17.802 Y38.568 F500.
X17.861 Y38.388
X17.917 Y38.187
X17.96 Y37.985
X17.983 Y37.784
X17.993 Y37.583
X17.999 Y37.18
X18. Y36.979
Y18.222
G3 X18.941 Y17.75 R0.6
G1 X18.993 Y17.802 Z-2.965
X19.045 Y17.854 Z-2.952
X19.094 Y17.904 Z-2.929
X19.127 Y17.976 Z-2.891
X19.156 Y18.043 Z-2.841
X19.183 Y18.102 Z-2.782
X19.188 Y18.149 Z-2.725
X19.193 Y18.188 Z-2.663
X19.197 Y18.22 Z-2.597
X19.2 Y18.243 Z-2.527
Y18.249 Z-2.503
X19.199 Y18.26 Z-2.437
Y18.264 Z-2.37
G0 Z5.
X40.465 Y-0.387
Z-2.265
G1 Z-2.865 F200.
X40.458 Y-0.385 Z-2.959
X40.437 Y-0.38 Z-3.05
X40.402 Y-0.371 Z-3.137
X40.354 Y-0.359 Z-3.218
X40.295 Y-0.344 Z-3.289
X40.226 Y-0.326 Z-3.35
X40.148 Y-0.306 Z-3.4
X40.064 Y-0.284 Z-3.436
X39.975 Y-0.262 Z-3.458
X39.884 Y-0.238 Z-3.465
G3 X38.018 Y0.03 R8.75
G1 X37.908 F500.
X37.034 Y0.177
X36.154 Y0.281
X35.271 Y0.355
X34.386 Y0.407
X33.501 Y0.444
X32.615 Y0.47
X31.729 Y0.488
X30.843 Y0.5
X29.957 Y0.509
X29.071 Y0.515
X28.185 Y0.52
X26.413 Y0.525
X23.754 Y0.528
X17.551 Y0.53
X2.93
X2.721 Y0.603
X2.631 Y0.667
X2.289 Y0.949
X1.728 Y1.635
X1.355 Y2.439
X1.102 Y3.288
X0.928 Y4.157
X0.807 Y5.035
X0.723 Y5.917
X0.665 Y6.801
X0.625 Y7.686
X0.596 Y8.572
X0.59 Y8.848
X0.554 Y9.051
X0.457 Y9.232
X0.31 Y9.376
X0.127 Y9.468
X-0.077 Y9.5
G3 X-0.05 Y8.3 R0.6
X-0.035 Y8.301 R0.6
G1 X0.059 Y8.304 Z-3.458
X0.151 Y8.307 Z-3.436
X0.238 Y8.31 Z-3.4
X0.318 Y8.313 Z-3.35
X0.389 Y8.316 Z-3.289
X0.45 Y8.318 Z-3.218
X0.5 Y8.319 Z-3.137
X0.536 Y8.321 Z-3.05
X0.558 Z-2.959
X0.565 Y8.322 Z-2.865
G0 Z5.
X-5.339 Y41.338
Z-2.265
G1 Z-2.865 F200.
X-5.332 Y41.334 Z-2.959
X-5.314 Y41.323 Z-3.05
X-5.283 Y41.304 Z-3.137
X-5.24 Y41.279 Z-3.218
X-5.188 Y41.248 Z-3.289
X-5.126 Y41.211 Z-3.35
X-5.057 Y41.17 Z-3.4
X-4.982 Y41.126 Z-3.436
X-4.904 Y41.079 Z-3.458
X-4.823 Y41.031 Z-3.465
G3 X-3.014 Y40.5 R3.798
G1 X-2.32 F500.
X-2.245 Y40.504
X-1.998 Y40.653
X-1.722 Y40.868
X-1.421 Y41.165
X-1.1 Y41.569
X-0.762 Y42.115
X-0.414 Y42.865
X-0.139 Y43.707
X0.058 Y44.571
X0.197 Y45.446
X0.296 Y46.327
X0.331 Y46.768
X0.346 Y46.989
X0.407 Y47.202
X0.644 Y47.577
X1.288 Y48.185
X2.078 Y48.586
X2.922 Y48.858
X3.788 Y49.045
X4.665 Y49.174
X5.546 Y49.263
X6.43 Y49.326
X7.315 Y49.369
X8.201 Y49.399
X9.087 Y49.421
X9.973 Y49.435
X10.859 Y49.446
X11.745 Y49.453
X12.631 Y49.458
X13.517 Y49.462
X15.289 Y49.466
X17.948 Y49.469
X25.923 Y49.47
X32.126
X32.335 Y49.397
X32.422 Y49.329
X33.086 Y48.742
X33.52 Y47.97
X33.813 Y47.133
X34.014 Y46.27
X34.152 Y45.395
X34.248 Y44.514
X34.315 Y43.63
X34.362 Y42.746
X34.394 Y41.86
X34.417 Y40.974
X34.433 Y40.088
X34.444 Y39.202
X34.452 Y38.316
X34.457 Y37.43
X34.461 Y36.544
X34.466 Y34.772
X34.468 Y32.113
X34.47 Y25.024
Y6.194
X34.397 Y5.985
X34.329 Y5.898
X33.696 Y5.278
X32.905 Y4.877
X32.061 Y4.609
X31.193 Y4.428
X30.316 Y4.304
X29.434 Y4.219
X28.55 Y4.16
X27.664 Y4.12
X26.779 Y4.092
X25.893 Y4.073
X25.007 Y4.06
X24.121 Y4.051
X23.235 Y4.044
X22.348 Y4.04
X20.576 Y4.035
X17.918 Y4.032
X10.829 Y4.03
X7.063
X6.843 Y4.053
X6.427 Y4.207
X5.721 Y4.742
X5.229 Y5.479
X4.884 Y6.295
X4.639 Y7.147
X4.423 Y8.006
X4.164 Y8.854
X4.062 Y9.093
X3.961 Y9.259
X3.817 Y9.389
X3.641 Y9.472
X3.449 Y9.5
X-0.077
G3 X-0.05 Y8.3 R0.6
X-0.035 Y8.301 R0.6
G1 X0.059 Y8.304 Z-3.458
X0.151 Y8.307 Z-3.436
X0.238 Y8.31 Z-3.4
X0.318 Y8.313 Z-3.35
X0.389 Y8.316 Z-3.289
X0.45 Y8.318 Z-3.218
X0.5 Y8.319 Z-3.137
X0.536 Y8.321 Z-3.05
X0.558 Z-2.959
X0.565 Y8.322 Z-2.865
G0 Z5.
X-4.645 Y41.338
Z-2.265
G1 Z-2.865 F200.
X-4.638 Y41.334 Z-2.959
X-4.619 Y41.323 Z-3.05
X-4.588 Y41.304 Z-3.137
X-4.546 Y41.279 Z-3.218
X-4.494 Y41.248 Z-3.289
X-4.432 Y41.211 Z-3.35
X-4.363 Y41.17 Z-3.4
X-4.288 Y41.126 Z-3.436
X-4.21 Y41.079 Z-3.458
X-4.129 Y41.031 Z-3.465
G3 X-2.32 Y40.5 R3.798
G1 X-0.71 F500.
X-0.561 Y40.507
X-0.263 Y40.56
X0.045 Y40.653
X0.402 Y40.809
X0.771 Y41.025
X1.164 Y41.324
X1.575 Y41.72
X2.003 Y42.245
X2.429 Y42.916
X2.62 Y43.316
X3.138 Y44.035
X3.846 Y44.568
X4.643 Y44.954
X5.484 Y45.235
X6.346 Y45.438
X7.22 Y45.585
X8.1 Y45.691
X8.983 Y45.768
X9.867 Y45.824
X10.752 Y45.865
X11.638 Y45.894
X12.524 Y45.915
X13.41 Y45.93
X14.296 Y45.942
X15.182 Y45.949
X16.068 Y45.955
X16.954 Y45.959
X18.726 Y45.965
X21.385 Y45.968
X27.588 Y45.97
X28.031
X28.248 Y45.925
X28.652 Y45.743
X29.338 Y45.183
X29.813 Y44.435
X30.147 Y43.614
X30.384 Y42.76
X30.551 Y41.89
X30.671 Y41.012
X30.756 Y40.13
X30.817 Y39.246
X30.86 Y38.361
X30.892 Y37.475
X30.914 Y36.589
X30.93 Y35.703
X30.941 Y34.817
X30.95 Y33.931
X30.955 Y33.045
X30.96 Y32.159
X30.965 Y30.387
X30.968 Y27.728
X30.969 Y26.842
X30.97 Y17.981
Y10.449
X30.934 Y10.23
X30.757 Y9.824
X30.196 Y9.138
X29.447 Y8.665
X28.625 Y8.334
X27.77 Y8.101
X26.899 Y7.936
X26.021 Y7.819
X25.139 Y7.736
X24.254 Y7.677
X23.369 Y7.635
X22.484 Y7.605
X21.598 Y7.583
X20.712 Y7.568
X19.826 Y7.557
X18.94 Y7.549
X18.054 Y7.544
X17.168 Y7.54
X15.395 Y7.535
X12.737 Y7.532
X10.522 Y7.531
X10.097 Y7.658
X9.344 Y8.124
X8.739 Y8.772
X8.375 Y9.241
X8.229 Y9.381
X8.047 Y9.469
X7.848 Y9.5
X3.449
G3 X3.476 Y8.3 R0.6
X3.49 Y8.301 R0.6
G1 X3.584 Y8.304 Z-3.458
X3.676 Y8.307 Z-3.436
X3.763 Y8.31 Z-3.4
X3.843 Y8.313 Z-3.35
X3.914 Y8.316 Z-3.289
X3.976 Y8.318 Z-3.218
X4.025 Y8.319 Z-3.137
X4.061 Y8.321 Z-3.05
X4.083 Z-2.959
X4.09 Y8.322 Z-2.865
G0 Z5.
X-3.035 Y41.338
Z-2.265
G1 Z-2.865 F200.
X-3.028 Y41.334 Z-2.959
X-3.01 Y41.323 Z-3.05
X-2.979 Y41.304 Z-3.137
X-2.936 Y41.279 Z-3.218
X-2.884 Y41.248 Z-3.289
X-2.822 Y41.211 Z-3.35
X-2.753 Y41.17 Z-3.4
X-2.678 Y41.126 Z-3.436
X-2.6 Y41.079 Z-3.458
X-2.519 Y41.031 Z-3.465
G3 X-0.71 Y40.5 R3.798
G1 X1.905 F500.
X2.245 Y40.517
X2.599 Y40.577
X3.449 Y40.829
X4.286 Y41.119
X5.13 Y41.389
X5.986 Y41.619
X6.852 Y41.808
X7.725 Y41.96
X8.603 Y42.079
X9.484 Y42.172
X10.367 Y42.244
X11.252 Y42.3
X12.137 Y42.342
X13.022 Y42.374
X13.908 Y42.398
X14.794 Y42.416
X15.68 Y42.43
X16.566 Y42.44
X17.452 Y42.448
X18.338 Y42.454
X19.224 Y42.458
X20.997 Y42.463
X23.655 Y42.467
X24.32 Y42.468
X24.539 Y42.44
X24.956 Y42.29
X25.675 Y41.772
X26.184 Y41.047
X26.546 Y40.238
X26.804 Y39.39
X26.99 Y38.524
X27.123 Y37.648
X27.22 Y36.767
X27.289 Y35.884
X27.339 Y34.999
X27.376 Y34.113
X27.402 Y33.228
X27.421 Y32.342
X27.434 Y31.456
X27.444 Y30.57
X27.451 Y29.684
X27.457 Y28.798
X27.46 Y27.911
X27.465 Y26.139
X27.468 Y23.481
X27.47 Y17.278
Y15.506
Y14.177
X27.447 Y13.956
X27.302 Y13.538
X26.786 Y12.817
X26.06 Y12.309
X25.251 Y11.948
X24.403 Y11.69
X23.536 Y11.505
X22.66 Y11.373
X21.779 Y11.277
X20.896 Y11.208
X20.011 Y11.159
X19.126 Y11.123
X18.24 Y11.097
X18.023 Y11.092
X17.813 Y11.055
X17.624 Y10.957
X17.473 Y10.806
X17.399 Y10.706
X17.324 Y10.605
X17.139 Y10.404
X16.997 Y10.272
X16.796 Y10.106
X16.655 Y10.001
X16.595 Y9.962
X16.393 Y9.849
X16.299 Y9.8
X16.192 Y9.75
X15.991 Y9.67
X15.75 Y9.598
X15.588 Y9.562
X15.387 Y9.529
X14.985 Y9.509
X14.784 Y9.5
X7.848
G3 X7.875 Y8.3 R0.6
X7.89 Y8.301 R0.6
G1 X7.984 Y8.304 Z-3.458
X8.075 Y8.307 Z-3.436
X8.162 Y8.31 Z-3.4
X8.242 Y8.313 Z-3.35
X8.314 Y8.316 Z-3.289
X8.375 Y8.318 Z-3.218
X8.424 Y8.319 Z-3.137
X8.46 Y8.321 Z-3.05
X8.482 Z-2.959
X8.489 Y8.322 Z-2.865
G0 Z5.
X-0.419 Y41.338
Z-2.265
G1 Z-2.865 F200.
X-0.413 Y41.334 Z-2.959
X-0.394 Y41.323 Z-3.05
X-0.363 Y41.304 Z-3.137
X-0.32 Y41.279 Z-3.218
X-0.268 Y41.248 Z-3.289
X-0.206 Y41.211 Z-3.35
X-0.137 Y41.17 Z-3.4
X-0.063 Y41.126 Z-3.436
X0.016 Y41.079 Z-3.458
X0.097 Y41.031 Z-3.465
G3 X1.905 Y40.5 R3.798
G1 X14.784 F500.
X15.186 Y40.481
X15.387 Y40.471
X15.588 Y40.438
X15.751 Y40.401
X15.991 Y40.33
X16.192 Y40.25
X16.3 Y40.2
X16.97 Y39.892
X17.814 Y39.62
X18.678 Y39.427
X19.554 Y39.29
X20.435 Y39.194
X20.877 Y39.16
X21.301 Y39.032
X21.673 Y38.792
X22.316 Y38.182
X22.776 Y37.425
X23.106 Y36.602
X23.343 Y35.749
X23.515 Y34.879
X23.64 Y34.002
X23.73 Y33.12
X23.795 Y32.237
X23.843 Y31.352
X23.878 Y30.466
X23.903 Y29.581
X23.921 Y28.695
X23.934 Y27.809
X23.944 Y26.923
X23.951 Y26.037
X23.956 Y25.15
X23.96 Y24.264
X23.965 Y22.492
X23.968 Y19.834
X23.969 Y17.618
X23.863 Y17.188
X23.628 Y16.813
X23.021 Y16.167
X22.264 Y15.708
X21.44 Y15.38
X20.586 Y15.144
X19.717 Y14.973
X18.847 Y14.804
X18.494 Y14.709
X18.296 Y14.619
X18.138 Y14.47
X18.035 Y14.279
X18. Y14.065
Y13.021
X17.999 Y12.82
X17.996 Y12.618
G3 X18.609 Y12.031 R0.6
X19.196 Y12.644 R0.6
G1 X19.194 Y12.738 Z-3.458
X19.192 Y12.829 Z-3.436
X19.19 Y12.916 Z-3.4
X19.188 Y12.997 Z-3.35
X19.187 Y13.068 Z-3.289
X19.185 Y13.129 Z-3.218
X19.184 Y13.179 Z-3.137
X19.183 Y13.215 Z-3.05
Y13.237 Z-2.959
Y13.244 Z-2.865
G0 Z5.
X14.323 Y41.701
Z-2.265
G1 Z-2.865 F200.
X14.329 Y41.696 Z-2.959
X14.345 Y41.681 Z-3.05
X14.372 Y41.657 Z-3.137
X14.408 Y41.624 Z-3.218
X14.454 Y41.584 Z-3.289
X14.507 Y41.536 Z-3.35
X14.567 Y41.482 Z-3.4
X14.632 Y41.424 Z-3.436
X14.7 Y41.363 Z-3.458
X14.77 Y41.3 Z-3.465
G3 X16.3 Y40.2 R8.75
G1 X16.393 Y40.151 F500.
X16.595 Y40.038
X16.655 Y39.999
X16.796 Y39.894
X16.997 Y39.728
X17.139 Y39.596
X17.324 Y39.395
X17.399 Y39.294
X17.473 Y39.193
X17.601 Y38.989
X17.705 Y38.791
X17.792 Y38.589
X17.866 Y38.44
X18.35 Y37.697
X18.812 Y36.941
X19.193 Y36.141
X19.495 Y35.308
X19.73 Y34.454
X19.91 Y33.586
X20.048 Y32.711
X20.153 Y31.831
X20.232 Y30.948
X20.292 Y30.064
X20.337 Y29.179
X20.371 Y28.294
X20.396 Y27.408
X20.415 Y26.522
X20.429 Y25.636
X20.44 Y24.75
X20.448 Y23.864
X20.453 Y22.978
X20.458 Y22.092
X20.461 Y21.206
X20.379 Y20.77
X19.937 Y20.002
X19.267 Y19.422
X18.53 Y18.93
X18.3 Y18.779
X18.14 Y18.631
X18.036 Y18.438
X18. Y18.222
Y14.065
G3 X19.2 Y14.092 R0.6
X19.199 Y14.107 R0.6
G1 X19.196 Y14.2 Z-3.458
X19.193 Y14.292 Z-3.436
X19.19 Y14.379 Z-3.4
X19.187 Y14.459 Z-3.35
X19.184 Y14.531 Z-3.289
X19.182 Y14.592 Z-3.218
X19.181 Y14.641 Z-3.137
X19.179 Y14.677 Z-3.05
Y14.699 Z-2.959
X19.178 Y14.706 Z-2.865
G0 Z5.
X17.203 Y41.
Z-2.265
G1 Z-2.865 F200.
X17.204 Y40.993 Z-2.959
X17.207 Y40.971 Z-3.05
X17.213 Y40.936 Z-3.137
X17.221 Y40.887 Z-3.218
X17.23 Y40.827 Z-3.289
X17.241 Y40.756 Z-3.35
X17.254 Y40.677 Z-3.4
X17.268 Y40.591 Z-3.436
X17.282 Y40.501 Z-3.458
X17.297 Y40.408 Z-3.465
G3 X17.792 Y38.589 R8.75
G1 X17.802 Y38.568 F500.
X17.861 Y38.388
X17.917 Y38.187
X17.96 Y37.985
X17.983 Y37.784
X17.993 Y37.583
X17.999 Y37.18
X18. Y36.979
Y18.222
G3 X18.941 Y17.75 R0.6
G1 X18.993 Y17.802 Z-3.46
X19.045 Y17.854 Z-3.447
X19.094 Y17.904 Z-3.424
X19.127 Y17.976 Z-3.386
X19.156 Y18.043 Z-3.336
X19.183 Y18.102 Z-3.277
X19.188 Y18.149 Z-3.22
X19.193 Y18.188 Z-3.158
X19.197 Y18.22 Z-3.092
X19.2 Y18.243 Z-3.022
Y18.249 Z-2.998
X19.199 Y18.26 Z-2.932
Y18.264 Z-2.865
G0 Z5.
X40.465 Y-0.387
Z-2.76
G1 Z-3.36 F200.
X40.458 Y-0.385 Z-3.454
X40.437 Y-0.38 Z-3.545
X40.402 Y-0.371 Z-3.632
X40.354 Y-0.359 Z-3.713
X40.295 Y-0.344 Z-3.784
X40.226 Y-0.326 Z-3.845
X40.148 Y-0.306 Z-3.895
X40.064 Y-0.284 Z-3.931
X39.975 Y-0.262 Z-3.953
X39.884 Y-0.238 Z-3.96
G3 X38.018 Y0.03 R8.75
G1 X37.908 F500.
X37.034 Y0.177
X36.154 Y0.281
X35.271 Y0.355
X34.386 Y0.407
X33.501 Y0.444
X32.615 Y0.47
X31.729 Y0.488
X30.843 Y0.5
X29.957 Y0.509
X29.071 Y0.515
X28.185 Y0.52
X26.413 Y0.525
X23.754 Y0.528
X17.551 Y0.53
X2.93
X2.721 Y0.603
X2.631 Y0.667
X2.289 Y0.949
X1.728 Y1.635
X1.355 Y2.439
X1.102 Y3.288
X0.928 Y4.157
X0.807 Y5.035
X0.723 Y5.917
X0.665 Y6.801
X0.625 Y7.686
X0.596 Y8.572
X0.59 Y8.848
X0.554 Y9.051
X0.457 Y9.232
X0.31 Y9.376
X0.127 Y9.468
X-0.077 Y9.5
G3 X-0.05 Y8.3 R0.6
X-0.035 Y8.301 R0.6
G1 X0.059 Y8.304 Z-3.953
X0.151 Y8.307 Z-3.931
X0.238 Y8.31 Z-3.895
X0.318 Y8.313 Z-3.845
X0.389 Y8.316 Z-3.784
X0.45 Y8.318 Z-3.713
X0.5 Y8.319 Z-3.632
X0.536 Y8.321 Z-3.545
X0.558 Z-3.454
X0.565 Y8.322 Z-3.36
G0 Z5.
X-5.339 Y41.338
Z-2.76
G1 Z-3.36 F200.
X-5.332 Y41.334 Z-3.454
X-5.314 Y41.323 Z-3.545
X-5.283 Y41.304 Z-3.632
X-5.24 Y41.279 Z-3.713
X-5.188 Y41.248 Z-3.784
X-5.126 Y41.211 Z-3.845
X-5.057 Y41.17 Z-3.895
X-4.982 Y41.126 Z-3.931
X-4.904 Y41.079 Z-3.953
X-4.823 Y41.031 Z-3.96
G3 X-3.014 Y40.5 R3.798
G1 X-2.32 F500.
X-2.245 Y40.504
X-1.998 Y40.653
X-1.722 Y40.868
X-1.421 Y41.165
X-1.1 Y41.569
X-0.762 Y42.115
X-0.414 Y42.865
X-0.139 Y43.707
X0.058 Y44.571
X0.197 Y45.446
X0.296 Y46.327
X0.331 Y46.768
X0.346 Y46.989
X0.407 Y47.202
X0.644 Y47.577
X1.288 Y48.185
X2.078 Y48.586
X2.922 Y48.858
X3.788 Y49.045
X4.665 Y49.174
X5.546 Y49.263
X6.43 Y49.326
X7.315 Y49.369
X8.201 Y49.399
X9.087 Y49.421
X9.973 Y49.435
X10.859 Y49.446
X11.745 Y49.453
X12.631 Y49.458
X13.517 Y49.462
X15.289 Y49.466
X17.948 Y49.469
X25.923 Y49.47
X32.126
X32.335 Y49.397
X32.422 Y49.329
X33.086 Y48.742
X33.52 Y47.97
X33.813 Y47.133
X34.014 Y46.27
X34.152 Y45.395
X34.248 Y44.514
X34.315 Y43.63
X34.362 Y42.746
X34.394 Y41.86
X34.417 Y40.974
X34.433 Y40.088
X34.444 Y39.202
X34.452 Y38.316
X34.457 Y37.43
X34.461 Y36.544
X34.466 Y34.772
X34.468 Y32.113
X34.47 Y25.024
Y6.194
X34.397 Y5.985
X34.329 Y5.898
X33.696 Y5.278
X32.905 Y4.877
X32.061 Y4.609
X31.193 Y4.428
X30.316 Y4.304
X29.434 Y4.219
X28.55 Y4.16
X27.664 Y4.12
X26.779 Y4.092
X25.893 Y4.073
X25.007 Y4.06
X24.121 Y4.051
X23.235 Y4.044
X22.348 Y4.04
X20.576 Y4.035
X17.918 Y4.032
X10.829 Y4.03
X7.063
X6.843 Y4.053
X6.427 Y4.207
X5.721 Y4.742
X5.229 Y5.479
X4.884 Y6.295
X4.639 Y7.147
X4.423 Y8.006
X4.164 Y8.854
X4.062 Y9.093
X3.961 Y9.259
X3.817 Y9.389
X3.641 Y9.472
X3.449 Y9.5
X-0.077
G3 X-0.05 Y8.3 R0.6
X-0.035 Y8.301 R0.6
G1 X0.059 Y8.304 Z-3.953
X0.151 Y8.307 Z-3.931
X0.238 Y8.31 Z-3.895
X0.318 Y8.313 Z-3.845
X0.389 Y8.316 Z-3.784
X0.45 Y8.318 Z-3.713
X0.5 Y8.319 Z-3.632
X0.536 Y8.321 Z-3.545
X0.558 Z-3.454
X0.565 Y8.322 Z-3.36
G0 Z5.
X-4.645 Y41.338
Z-2.76
G1 Z-3.36 F200.
X-4.638 Y41.334 Z-3.454
X-4.619 Y41.323 Z-3.545
X-4.588 Y41.304 Z-3.632
X-4.546 Y41.279 Z-3.713
X-4.494 Y41.248 Z-3.784
X-4.432 Y41.211 Z-3.845
X-4.363 Y41.17 Z-3.895
X-4.288 Y41.126 Z-3.931
X-4.21 Y41.079 Z-3.953
X-4.129 Y41.031 Z-3.96
G3 X-2.32 Y40.5 R3.798
G1 X-0.71 F500.
X-0.561 Y40.507
X-0.263 Y40.56
X0.045 Y40.653
X0.402 Y40.809
X0.771 Y41.025
X1.164 Y41.324
X1.575 Y41.72
X2.003 Y42.245
X2.429 Y42.916
X2.62 Y43.316
X3.138 Y44.035
X3.846 Y44.568
X4.643 Y44.954
X5.484 Y45.235
X6.346 Y45.438
X7.22 Y45.585
X8.1 Y45.691
X8.983 Y45.768
X9.867 Y45.824
X10.752 Y45.865
X11.638 Y45.894
X12.524 Y45.915
X13.41 Y45.93
X14.296 Y45.942
X15.182 Y45.949
X16.068 Y45.955
X16.954 Y45.959
X18.726 Y45.965
X21.385 Y45.968
X27.588 Y45.97
X28.031
X28.248 Y45.925
X28.652 Y45.743
X29.338 Y45.183
X29.813 Y44.435
X30.147 Y43.614
X30.384 Y42.76
X30.551 Y41.89
X30.671 Y41.012
X30.756 Y40.13
X30.817 Y39.246
X30.86 Y38.361
X30.892 Y37.475
X30.914 Y36.589
X30.93 Y35.703
X30.941 Y34.817
X30.95 Y33.931
X30.955 Y33.045
X30.96 Y32.159
X30.965 Y30.387
X30.968 Y27.728
X30.969 Y26.842
X30.97 Y17.981
Y10.449
X30.934 Y10.23
X30.757 Y9.824
X30.196 Y9.138
X29.447 Y8.665
X28.625 Y8.334
X27.77 Y8.101
X26.899 Y7.936
X26.021 Y7.819
X25.139 Y7.736
X24.254 Y7.677
X23.369 Y7.635
X22.484 Y7.605
X21.598 Y7.583
X20.712 Y7.568
X19.826 Y7.557
X18.94 Y7.549
X18.054 Y7.544
X17.168 Y7.54
X15.395 Y7.535
X12.737 Y7.532
X10.522 Y7.531
X10.097 Y7.658
X9.344 Y8.124
X8.739 Y8.772
X8.375 Y9.241
X8.229 Y9.381
X8.047 Y9.469
X7.848 Y9.5
X3.449
G3 X3.476 Y8.3 R0.6
X3.49 Y8.301 R0.6
G1 X3.584 Y8.304 Z-3.953
X3.676 Y8.307 Z-3.931
X3.763 Y8.31 Z-3.895
X3.843 Y8.313 Z-3.845
X3.914 Y8.316 Z-3.784
X3.976 Y8.318 Z-3.713
X4.025 Y8.319 Z-3.632
X4.061 Y8.321 Z-3.545
X4.083 Z-3.454
X4.09 Y8.322 Z-3.36
G0 Z5.
X-3.035 Y41.338
Z-2.76
G1 Z-3.36 F200.
X-3.028 Y41.334 Z-3.454
X-3.01 Y41.323 Z-3.545
X-2.979 Y41.304 Z-3.632
X-2.936 Y41.279 Z-3.713
X-2.884 Y41.248 Z-3.784
X-2.822 Y41.211 Z-3.845
X-2.753 Y41.17 Z-3.895
X-2.678 Y41.126 Z-3.931
X-2.6 Y41.079 Z-3.953
X-2.519 Y41.031 Z-3.96
G3 X-0.71 Y40.5 R3.798
G1 X1.905 F500.
X2.245 Y40.517
X2.599 Y40.577
X3.449 Y40.829
X4.286 Y41.119
X5.13 Y41.389
X5.986 Y41.619
X6.852 Y41.808
X7.725 Y41.96
X8.603 Y42.079
X9.484 Y42.172
X10.367 Y42.244
X11.252 Y42.3
X12.137 Y42.342
X13.022 Y42.374
X13.908 Y42.398
X14.794 Y42.416
X15.68 Y42.43
X16.566 Y42.44
X17.452 Y42.448
X18.338 Y42.454
X19.224 Y42.458
X20.997 Y42.463
X23.655 Y42.467
X24.32 Y42.468
X24.539 Y42.44
X24.956 Y42.29
X25.675 Y41.772
X26.184 Y41.047
X26.546 Y40.238
X26.804 Y39.39
X26.99 Y38.524
X27.123 Y37.648
X27.22 Y36.767
X27.289 Y35.884
X27.339 Y34.999
X27.376 Y34.113
X27.402 Y33.228
X27.421 Y32.342
X27.434 Y31.456
X27.444 Y30.57
X27.451 Y29.684
X27.457 Y28.798
X27.46 Y27.911
X27.465 Y26.139
X27.468 Y23.481
X27.47 Y17.278
Y15.506
Y14.177
X27.447 Y13.956
X27.302 Y13.538
X26.786 Y12.817
X26.06 Y12.309
X25.251 Y11.948
X24.403 Y11.69
X23.536 Y11.505
X22.66 Y11.373
X21.779 Y11.277
X20.896 Y11.208
X20.011 Y11.159
X19.126 Y11.123
X18.24 Y11.097
X18.023 Y11.092
X17.813 Y11.055
X17.624 Y10.957
X17.473 Y10.806
X17.399 Y10.706
X17.324 Y10.605
X17.139 Y10.404
X16.997 Y10.272
X16.796 Y10.106
X16.655 Y10.001
X16.595 Y9.962
X16.393 Y9.849
X16.299 Y9.8
X16.192 Y9.75
X15.991 Y9.67
X15.75 Y9.598
X15.588 Y9.562
X15.387 Y9.529
X14.985 Y9.509
X14.784 Y9.5
X7.848
G3 X7.875 Y8.3 R0.6
X7.89 Y8.301 R0.6
G1 X7.984 Y8.304 Z-3.953
X8.075 Y8.307 Z-3.931
X8.162 Y8.31 Z-3.895
X8.242 Y8.313 Z-3.845
X8.314 Y8.316 Z-3.784
X8.375 Y8.318 Z-3.713
X8.424 Y8.319 Z-3.632
X8.46 Y8.321 Z-3.545
X8.482 Z-3.454
X8.489 Y8.322 Z-3.36
G0 Z5.
X-0.419 Y41.338
Z-2.76
G1 Z-3.36 F200.
X-0.413 Y41.334 Z-3.454
X-0.394 Y41.323 Z-3.545
X-0.363 Y41.304 Z-3.632
X-0.32 Y41.279 Z-3.713
X-0.268 Y41.248 Z-3.784
X-0.206 Y41.211 Z-3.845
X-0.137 Y41.17 Z-3.895
X-0.063 Y41.126 Z-3.931
X0.016 Y41.079 Z-3.953
X0.097 Y41.031 Z-3.96
G3 X1.905 Y40.5 R3.798
G1 X14.784 F500.
X15.186 Y40.481
X15.387 Y40.471
X15.588 Y40.438
X15.751 Y40.401
X15.991 Y40.33
X16.192 Y40.25
X16.3 Y40.2
X16.97 Y39.892
X17.814 Y39.62
X18.678 Y39.427
X19.554 Y39.29
X20.435 Y39.194
X20.877 Y39.16
X21.301 Y39.032
X21.673 Y38.792
X22.316 Y38.182
X22.776 Y37.425
X23.106 Y36.602
X23.343 Y35.749
X23.515 Y34.879
X23.64 Y34.002
X23.73 Y33.12
X23.795 Y32.237
X23.843 Y31.352
X23.878 Y30.466
X23.903 Y29.581
X23.921 Y28.695
X23.934 Y27.809
X23.944 Y26.923
X23.951 Y26.037
X23.956 Y25.15
X23.96 Y24.264
X23.965 Y22.492
X23.968 Y19.834
X23.969 Y17.618
X23.863 Y17.188
X23.628 Y16.813
X23.021 Y16.167
X22.264 Y15.708
X21.44 Y15.38
X20.586 Y15.144
X19.717 Y14.973
X18.847 Y14.804
X18.494 Y14.709
X18.296 Y14.619
X18.138 Y14.47
X18.035 Y14.279
X18. Y14.065
Y13.021
X17.999 Y12.82
X17.996 Y12.618
G3 X18.609 Y12.031 R0.6
X19.196 Y12.644 R0.6
G1 X19.194 Y12.738 Z-3.953
X19.192 Y12.829 Z-3.931
X19.19 Y12.916 Z-3.895
X19.188 Y12.997 Z-3.845
X19.187 Y13.068 Z-3.784
X19.185 Y13.129 Z-3.713
X19.184 Y13.179 Z-3.632
X19.183 Y13.215 Z-3.545
Y13.237 Z-3.454
Y13.244 Z-3.36
G0 Z5.
X14.323 Y41.701
Z-2.76
G1 Z-3.36 F200.
X14.329 Y41.696 Z-3.454
X14.345 Y41.681 Z-3.545
X14.372 Y41.657 Z-3.632
X14.408 Y41.624 Z-3.713
X14.454 Y41.584 Z-3.784
X14.507 Y41.536 Z-3.845
X14.567 Y41.482 Z-3.895
X14.632 Y41.424 Z-3.931
X14.7 Y41.363 Z-3.953
X14.77 Y41.3 Z-3.96
G3 X16.3 Y40.2 R8.75
G1 X16.393 Y40.151 F500.
X16.595 Y40.038
X16.655 Y39.999
X16.796 Y39.894
X16.997 Y39.728
X17.139 Y39.596
X17.324 Y39.395
X17.399 Y39.294
X17.473 Y39.193
X17.601 Y38.989
X17.705 Y38.791
X17.792 Y38.589
X17.866 Y38.44
X18.35 Y37.697
X18.812 Y36.941
X19.193 Y36.141
X19.495 Y35.308
X19.73 Y34.454
X19.91 Y33.586
X20.048 Y32.711
X20.153 Y31.831
X20.232 Y30.948
X20.292 Y30.064
X20.337 Y29.179
X20.371 Y28.294
X20.396 Y27.408
X20.415 Y26.522
X20.429 Y25.636
X20.44 Y24.75
X20.448 Y23.864
X20.453 Y22.978
X20.458 Y22.092
X20.461 Y21.206
X20.379 Y20.77
X19.937 Y20.002
X19.267 Y19.422
X18.53 Y18.93
X18.3 Y18.779
X18.14 Y18.631
X18.036 Y18.438
X18. Y18.222
Y14.065
G3 X19.2 Y14.092 R0.6
X19.199 Y14.107 R0.6
G1 X19.196 Y14.2 Z-3.953
X19.193 Y14.292 Z-3.931
X19.19 Y14.379 Z-3.895
X19.187 Y14.459 Z-3.845
X19.184 Y14.531 Z-3.784
X19.182 Y14.592 Z-3.713
X19.181 Y14.641 Z-3.632
X19.179 Y14.677 Z-3.545
Y14.699 Z-3.454
X19.178 Y14.706 Z-3.36
G0 Z5.
X17.203 Y41.
Z-2.76
G1 Z-3.36 F200.
X17.204 Y40.993 Z-3.454
X17.207 Y40.971 Z-3.545
X17.213 Y40.936 Z-3.632
X17.221 Y40.887 Z-3.713
X17.23 Y40.827 Z-3.784
X17.241 Y40.756 Z-3.845
X17.254 Y40.677 Z-3.895
X17.268 Y40.591 Z-3.931
X17.282 Y40.501 Z-3.953
X17.297 Y40.408 Z-3.96
G3 X17.792 Y38.589 R8.75
G1 X17.802 Y38.568 F500.
X17.861 Y38.388
X17.917 Y38.187
X17.96 Y37.985
X17.983 Y37.784
X17.993 Y37.583
X17.999 Y37.18
X18. Y36.979
Y18.222
G3 X18.941 Y17.75 R0.6
G1 X18.993 Y17.802 Z-3.955
X19.045 Y17.854 Z-3.942
X19.094 Y17.904 Z-3.919
X19.127 Y17.976 Z-3.881
X19.156 Y18.043 Z-3.831
X19.183 Y18.102 Z-3.772
X19.188 Y18.149 Z-3.715
X19.193 Y18.188 Z-3.653
X19.197 Y18.22 Z-3.587
X19.2 Y18.243 Z-3.517
Y18.249 Z-3.493
X19.199 Y18.26 Z-3.427
Y18.264 Z-3.36
G0 Z5.
X40.465 Y-0.387
Z-3.255
G1 Z-3.855 F200.
X40.458 Y-0.385 Z-3.949
X40.437 Y-0.38 Z-4.04
X40.402 Y-0.371 Z-4.127
X40.354 Y-0.359 Z-4.208
X40.295 Y-0.344 Z-4.279
X40.226 Y-0.326 Z-4.34
X40.148 Y-0.306 Z-4.39
X40.064 Y-0.284 Z-4.426
X39.975 Y-0.262 Z-4.448
X39.884 Y-0.238 Z-4.455
G3 X38.018 Y0.03 R8.75
G1 X37.908 F500.
X37.034 Y0.177
X36.154 Y0.281
X35.271 Y0.355
X34.386 Y0.407
X33.501 Y0.444
X32.615 Y0.47
X31.729 Y0.488
X30.843 Y0.5
X29.957 Y0.509
X29.071 Y0.515
X28.185 Y0.52
X26.413 Y0.525
X23.754 Y0.528
X17.551 Y0.53
X2.93
X2.721 Y0.603
X2.631 Y0.667
X2.289 Y0.949
X1.728 Y1.635
X1.355 Y2.439
X1.102 Y3.288
X0.928 Y4.157
X0.807 Y5.035
X0.723 Y5.917
X0.665 Y6.801
X0.625 Y7.686
X0.596 Y8.572
X0.59 Y8.848
X0.554 Y9.051
X0.457 Y9.232
X0.31 Y9.376
X0.127 Y9.468
X-0.077 Y9.5
G3 X-0.05 Y8.3 R0.6
X-0.035 Y8.301 R0.6
G1 X0.059 Y8.304 Z-4.448
X0.151 Y8.307 Z-4.426
X0.238 Y8.31 Z-4.39
X0.318 Y8.313 Z-4.34
X0.389 Y8.316 Z-4.279
X0.45 Y8.318 Z-4.208
X0.5 Y8.319 Z-4.127
X0.536 Y8.321 Z-4.04
X0.558 Z-3.949
X0.565 Y8.322 Z-3.855
G0 Z5.
X-5.339 Y41.338
Z-3.255
G1 Z-3.855 F200.
X-5.332 Y41.334 Z-3.949
X-5.314 Y41.323 Z-4.04
X-5.283 Y41.304 Z-4.127
X-5.24 Y41.279 Z-4.208
X-5.188 Y41.248 Z-4.279
X-5.126 Y41.211 Z-4.34
X-5.057 Y41.17 Z-4.39
X-4.982 Y41.126 Z-4.426
X-4.904 Y41.079 Z-4.448
X-4.823 Y41.031 Z-4.455
G3 X-3.014 Y40.5 R3.798
G1 X-2.32 F500.
X-2.245 Y40.504
X-1.998 Y40.653
X-1.722 Y40.868
X-1.421 Y41.165
X-1.1 Y41.569
X-0.762 Y42.115
X-0.414 Y42.865
X-0.139 Y43.707
X0.058 Y44.571
X0.197 Y45.446
X0.296 Y46.327
X0.331 Y46.768
X0.346 Y46.989
X0.407 Y47.202
X0.644 Y47.577
X1.288 Y48.185
X2.078 Y48.586
X2.922 Y48.858
X3.788 Y49.045
X4.665 Y49.174
X5.546 Y49.263
X6.43 Y49.326
X7.315 Y49.369
X8.201 Y49.399
X9.087 Y49.421
X9.973 Y49.435
X10.859 Y49.446
X11.745 Y49.453
X12.631 Y49.458
X13.517 Y49.462
X15.289 Y49.466
X17.948 Y49.469
X25.923 Y49.47
X32.126
X32.335 Y49.397
X32.422 Y49.329
X33.086 Y48.742
X33.52 Y47.97
X33.813 Y47.133
X34.014 Y46.27
X34.152 Y45.395
X34.248 Y44.514
X34.315 Y43.63
X34.362 Y42.746
X34.394 Y41.86
X34.417 Y40.974
X34.433 Y40.088
X34.444 Y39.202
X34.452 Y38.316
X34.457 Y37.43
X34.461 Y36.544
X34.466 Y34.772
X34.468 Y32.113
X34.47 Y25.024
Y6.194
X34.397 Y5.985
X34.329 Y5.898
X33.696 Y5.278
X32.905 Y4.877
X32.061 Y4.609
X31.193 Y4.428
X30.316 Y4.304
X29.434 Y4.219
X28.55 Y4.16
X27.664 Y4.12
X26.779 Y4.092
X25.893 Y4.073
X25.007 Y4.06
X24.121 Y4.051
X23.235 Y4.044
X22.348 Y4.04
X20.576 Y4.035
X17.918 Y4.032
X10.829 Y4.03
X7.063
X6.843 Y4.053
X6.427 Y4.207
X5.721 Y4.742
X5.229 Y5.479
X4.884 Y6.295
X4.639 Y7.147
X4.423 Y8.006
X4.164 Y8.854
X4.062 Y9.093
X3.961 Y9.259
X3.817 Y9.389
X3.641 Y9.472
X3.449 Y9.5
X-0.077
G3 X-0.05 Y8.3 R0.6
X-0.035 Y8.301 R0.6
G1 X0.059 Y8.304 Z-4.448
X0.151 Y8.307 Z-4.426
X0.238 Y8.31 Z-4.39
X0.318 Y8.313 Z-4.34
X0.389 Y8.316 Z-4.279
X0.45 Y8.318 Z-4.208
X0.5 Y8.319 Z-4.127
X0.536 Y8.321 Z-4.04
X0.558 Z-3.949
X0.565 Y8.322 Z-3.855
G0 Z5.
X-4.645 Y41.338
Z-3.255
G1 Z-3.855 F200.
X-4.638 Y41.334 Z-3.949
X-4.619 Y41.323 Z-4.04
X-4.588 Y41.304 Z-4.127
X-4.546 Y41.279 Z-4.208
X-4.494 Y41.248 Z-4.279
X-4.432 Y41.211 Z-4.34
X-4.363 Y41.17 Z-4.39
X-4.288 Y41.126 Z-4.426
X-4.21 Y41.079 Z-4.448
X-4.129 Y41.031 Z-4.455
G3 X-2.32 Y40.5 R3.798
G1 X-0.71 F500.
X-0.561 Y40.507
X-0.263 Y40.56
X0.045 Y40.653
X0.402 Y40.809
X0.771 Y41.025
X1.164 Y41.324
X1.575 Y41.72
X2.003 Y42.245
X2.429 Y42.916
X2.62 Y43.316
X3.138 Y44.035
X3.846 Y44.568
X4.643 Y44.954
X5.484 Y45.235
X6.346 Y45.438
X7.22 Y45.585
X8.1 Y45.691
X8.983 Y45.768
X9.867 Y45.824
X10.752 Y45.865
X11.638 Y45.894
X12.524 Y45.915
X13.41 Y45.93
X14.296 Y45.942
X15.182 Y45.949
X16.068 Y45.955
X16.954 Y45.959
X18.726 Y45.965
X21.385 Y45.968
X27.588 Y45.97
X28.031
X28.248 Y45.925
X28.652 Y45.743
X29.338 Y45.183
X29.813 Y44.435
X30.147 Y43.614
X30.384 Y42.76
X30.551 Y41.89
X30.671 Y41.012
X30.756 Y40.13
X30.817 Y39.246
X30.86 Y38.361
X30.892 Y37.475
X30.914 Y36.589
X30.93 Y35.703
X30.941 Y34.817
X30.95 Y33.931
X30.955 Y33.045
X30.96 Y32.159
X30.965 Y30.387
X30.968 Y27.728
X30.969 Y26.842
X30.97 Y17.981
Y10.449
X30.934 Y10.23
X30.757 Y9.824
X30.196 Y9.138
X29.447 Y8.665
X28.625 Y8.334
X27.77 Y8.101
X26.899 Y7.936
X26.021 Y7.819
X25.139 Y7.736
X24.254 Y7.677
X23.369 Y7.635
X22.484 Y7.605
X21.598 Y7.583
X20.712 Y7.568
X19.826 Y7.557
X18.94 Y7.549
X18.054 Y7.544
X17.168 Y7.54
X15.395 Y7.535
X12.737 Y7.532
X10.522 Y7.531
X10.097 Y7.658
X9.344 Y8.124
X8.739 Y8.772
X8.375 Y9.241
X8.229 Y9.381
X8.047 Y9.469
X7.848 Y9.5
X3.449
G3 X3.476 Y8.3 R0.6
X3.49 Y8.301 R0.6
G1 X3.584 Y8.304 Z-4.448
X3.676 Y8.307 Z-4.426
X3.763 Y8.31 Z-4.39
X3.843 Y8.313 Z-4.34
X3.914 Y8.316 Z-4.279
X3.976 Y8.318 Z-4.208
X4.025 Y8.319 Z-4.127
X4.061 Y8.321 Z-4.04
X4.083 Z-3.949
X4.09 Y8.322 Z-3.855
G0 Z5.
X-3.035 Y41.338
Z-3.255
G1 Z-3.855 F200.
X-3.028 Y41.334 Z-3.949
X-3.01 Y41.323 Z-4.04
X-2.979 Y41.304 Z-4.127
X-2.936 Y41.279 Z-4.208
X-2.884 Y41.248 Z-4.279
X-2.822 Y41.211 Z-4.34
X-2.753 Y41.17 Z-4.39
X-2.678 Y41.126 Z-4.426
X-2.6 Y41.079 Z-4.448
X-2.519 Y41.031 Z-4.455
G3 X-0.71 Y40.5 R3.798
G1 X1.905 F500.
X2.245 Y40.517
X2.599 Y40.577
X3.449 Y40.829
X4.286 Y41.119
X5.13 Y41.389
X5.986 Y41.619
X6.852 Y41.808
X7.725 Y41.96
X8.603 Y42.079
X9.484 Y42.172
X10.367 Y42.244
X11.252 Y42.3
X12.137 Y42.342
X13.022 Y42.374
X13.908 Y42.398
X14.794 Y42.416
X15.68 Y42.43
X16.566 Y42.44
X17.452 Y42.448
X18.338 Y42.454
X19.224 Y42.458
X20.997 Y42.463
X23.655 Y42.467
X24.32 Y42.468
X24.539 Y42.44
X24.956 Y42.29
X25.675 Y41.772
X26.184 Y41.047
X26.546 Y40.238
X26.804 Y39.39
X26.99 Y38.524
X27.123 Y37.648
X27.22 Y36.767
X27.289 Y35.884
X27.339 Y34.999
X27.376 Y34.113
X27.402 Y33.228
X27.421 Y32.342
X27.434 Y31.456
X27.444 Y30.57
X27.451 Y29.684
X27.457 Y28.798
X27.46 Y27.911
X27.465 Y26.139
X27.468 Y23.481
X27.47 Y17.278
Y15.506
Y14.177
X27.447 Y13.956
X27.302 Y13.538
X26.786 Y12.817
X26.06 Y12.309
X25.251 Y11.948
X24.403 Y11.69
X23.536 Y11.505
X22.66 Y11.373
X21.779 Y11.277
X20.896 Y11.208
X20.011 Y11.159
X19.126 Y11.123
X18.24 Y11.097
X18.023 Y11.092
X17.813 Y11.055
X17.624 Y10.957
X17.473 Y10.806
X17.399 Y10.706
X17.324 Y10.605
X17.139 Y10.404
X16.997 Y10.272
X16.796 Y10.106
X16.655 Y10.001
X16.595 Y9.962
X16.393 Y9.849
X16.299 Y9.8
X16.192 Y9.75
X15.991 Y9.67
X15.75 Y9.598
X15.588 Y9.562
X15.387 Y9.529
X14.985 Y9.509
X14.784 Y9.5
X7.848
G3 X7.875 Y8.3 R0.6
X7.89 Y8.301 R0.6
G1 X7.984 Y8.304 Z-4.448
X8.075 Y8.307 Z-4.426
X8.162 Y8.31 Z-4.39
X8.242 Y8.313 Z-4.34
X8.314 Y8.316 Z-4.279
X8.375 Y8.318 Z-4.208
X8.424 Y8.319 Z-4.127
X8.46 Y8.321 Z-4.04
X8.482 Z-3.949
X8.489 Y8.322 Z-3.855
G0 Z5.
X-0.419 Y41.338
Z-3.255
G1 Z-3.855 F200.
X-0.413 Y41.334 Z-3.949
X-0.394 Y41.323 Z-4.04
X-0.363 Y41.304 Z-4.127
X-0.32 Y41.279 Z-4.208
X-0.268 Y41.248 Z-4.279
X-0.206 Y41.211 Z-4.34
X-0.137 Y41.17 Z-4.39
X-0.063 Y41.126 Z-4.426
X0.016 Y41.079 Z-4.448
X0.097 Y41.031 Z-4.455
G3 X1.905 Y40.5 R3.798
G1 X14.784 F500.
X15.186 Y40.481
X15.387 Y40.471
X15.588 Y40.438
X15.751 Y40.401
X15.991 Y40.33
X16.192 Y40.25
X16.3 Y40.2
X16.97 Y39.892
X17.814 Y39.62
X18.678 Y39.427
X19.554 Y39.29
X20.435 Y39.194
X20.877 Y39.16
X21.301 Y39.032
X21.673 Y38.792
X22.316 Y38.182
X22.776 Y37.425
X23.106 Y36.602
X23.343 Y35.749
X23.515 Y34.879
X23.64 Y34.002
X23.73 Y33.12
X23.795 Y32.237
X23.843 Y31.352
X23.878 Y30.466
X23.903 Y29.581
X23.921 Y28.695
X23.934 Y27.809
X23.944 Y26.923
X23.951 Y26.037
X23.956 Y25.15
X23.96 Y24.264
X23.965 Y22.492
X23.968 Y19.834
X23.969 Y17.618
X23.863 Y17.188
X23.628 Y16.813
X23.021 Y16.167
X22.264 Y15.708
X21.44 Y15.38
X20.586 Y15.144
X19.717 Y14.973
X18.847 Y14.804
X18.494 Y14.709
X18.296 Y14.619
X18.138 Y14.47
X18.035 Y14.279
X18. Y14.065
Y13.021
X17.999 Y12.82
X17.996 Y12.618
G3 X18.609 Y12.031 R0.6
X19.196 Y12.644 R0.6
G1 X19.194 Y12.738 Z-4.448
X19.192 Y12.829 Z-4.426
X19.19 Y12.916 Z-4.39
X19.188 Y12.997 Z-4.34
X19.187 Y13.068 Z-4.279
X19.185 Y13.129 Z-4.208
X19.184 Y13.179 Z-4.127
X19.183 Y13.215 Z-4.04
Y13.237 Z-3.949
Y13.244 Z-3.855
G0 Z5.
X14.323 Y41.701
Z-3.255
G1 Z-3.855 F200.
X14.329 Y41.696 Z-3.949
X14.345 Y41.681 Z-4.04
X14.372 Y41.657 Z-4.127
X14.408 Y41.624 Z-4.208
X14.454 Y41.584 Z-4.279
X14.507 Y41.536 Z-4.34
X14.567 Y41.482 Z-4.39
X14.632 Y41.424 Z-4.426
X14.7 Y41.363 Z-4.448
X14.77 Y41.3 Z-4.455
G3 X16.3 Y40.2 R8.75
G1 X16.393 Y40.151 F500.
X16.595 Y40.038
X16.655 Y39.999
X16.796 Y39.894
X16.997 Y39.728
X17.139 Y39.596
X17.324 Y39.395
X17.399 Y39.294
X17.473 Y39.193
X17.601 Y38.989
X17.705 Y38.791
X17.792 Y38.589
X17.866 Y38.44
X18.35 Y37.697
X18.812 Y36.941
X19.193 Y36.141
X19.495 Y35.308
X19.73 Y34.454
X19.91 Y33.586
X20.048 Y32.711
X20.153 Y31.831
X20.232 Y30.948
X20.292 Y30.064
X20.337 Y29.179
X20.371 Y28.294
X20.396 Y27.408
X20.415 Y26.522
X20.429 Y25.636
X20.44 Y24.75
X20.448 Y23.864
X20.453 Y22.978
X20.458 Y22.092
X20.461 Y21.206
X20.379 Y20.77
X19.937 Y20.002
X19.267 Y19.422
X18.53 Y18.93
X18.3 Y18.779
X18.14 Y18.631
X18.036 Y18.438
X18. Y18.222
Y14.065
G3 X19.2 Y14.092 R0.6
X19.199 Y14.107 R0.6
G1 X19.196 Y14.2 Z-4.448
X19.193 Y14.292 Z-4.426
X19.19 Y14.379 Z-4.39
X19.187 Y14.459 Z-4.34
X19.184 Y14.531 Z-4.279
X19.182 Y14.592 Z-4.208
X19.181 Y14.641 Z-4.127
X19.179 Y14.677 Z-4.04
Y14.699 Z-3.949
X19.178 Y14.706 Z-3.855
G0 Z5.
X17.203 Y41.
Z-3.255
G1 Z-3.855 F200.
X17.204 Y40.993 Z-3.949
X17.207 Y40.971 Z-4.04
X17.213 Y40.936 Z-4.127
X17.221 Y40.887 Z-4.208
X17.23 Y40.827 Z-4.279
X17.241 Y40.756 Z-4.34
X17.254 Y40.677 Z-4.39
X17.268 Y40.591 Z-4.426
X17.282 Y40.501 Z-4.448
X17.297 Y40.408 Z-4.455
G3 X17.792 Y38.589 R8.75
G1 X17.802 Y38.568 F500.
X17.861 Y38.388
X17.917 Y38.187
X17.96 Y37.985
X17.983 Y37.784
X17.993 Y37.583
X17.999 Y37.18
X18. Y36.979
Y18.222
G3 X18.941 Y17.75 R0.6
G1 X18.993 Y17.802 Z-4.45
X19.045 Y17.854 Z-4.437
X19.094 Y17.904 Z-4.414
X19.127 Y17.976 Z-4.376
X19.156 Y18.043 Z-4.326
X19.183 Y18.102 Z-4.267
X19.188 Y18.149 Z-4.21
X19.193 Y18.188 Z-4.148
X19.197 Y18.22 Z-4.082
X19.2 Y18.243 Z-4.012
Y18.249 Z-3.988
X19.199 Y18.26 Z-3.922
Y18.264 Z-3.855
G0 Z5.
X40.465 Y-0.387
Z-3.75
G1 Z-4.35 F200.
X40.458 Y-0.385 Z-4.444
X40.437 Y-0.38 Z-4.535
X40.402 Y-0.371 Z-4.622
X40.354 Y-0.359 Z-4.703
X40.295 Y-0.344 Z-4.774
X40.226 Y-0.326 Z-4.835
X40.148 Y-0.306 Z-4.885
X40.064 Y-0.284 Z-4.921
X39.975 Y-0.262 Z-4.943
X39.884 Y-0.238 Z-4.95
G3 X38.018 Y0.03 R8.75
G1 X37.908 F500.
X37.034 Y0.177
X36.154 Y0.281
X35.271 Y0.355
X34.386 Y0.407
X33.501 Y0.444
X32.615 Y0.47
X31.729 Y0.488
X30.843 Y0.5
X29.957 Y0.509
X29.071 Y0.515
X28.185 Y0.52
X26.413 Y0.525
X23.754 Y0.528
X17.551 Y0.53
X2.93
X2.721 Y0.603
X2.631 Y0.667
X2.289 Y0.949
X1.728 Y1.635
X1.355 Y2.439
X1.102 Y3.288
X0.928 Y4.157
X0.807 Y5.035
X0.723 Y5.917
X0.665 Y6.801
X0.625 Y7.686
X0.596 Y8.572
X0.59 Y8.848
X0.554 Y9.051
X0.457 Y9.232
X0.31 Y9.376
X0.127 Y9.468
X-0.077 Y9.5
G3 X-0.05 Y8.3 R0.6
X-0.035 Y8.301 R0.6
G1 X0.059 Y8.304 Z-4.943
X0.151 Y8.307 Z-4.921
X0.238 Y8.31 Z-4.885
X0.318 Y8.313 Z-4.835
X0.389 Y8.316 Z-4.774
X0.45 Y8.318 Z-4.703
X0.5 Y8.319 Z-4.622
X0.536 Y8.321 Z-4.535
X0.558 Z-4.444
X0.565 Y8.322 Z-4.35
G0 Z5.
X-5.339 Y41.338
Z-3.75
G1 Z-4.35 F200.
X-5.332 Y41.334 Z-4.444
X-5.314 Y41.323 Z-4.535
X-5.283 Y41.304 Z-4.622
X-5.24 Y41.279 Z-4.703
X-5.188 Y41.248 Z-4.774
X-5.126 Y41.211 Z-4.835
X-5.057 Y41.17 Z-4.885
X-4.982 Y41.126 Z-4.921
X-4.904 Y41.079 Z-4.943
X-4.823 Y41.031 Z-4.95
G3 X-3.014 Y40.5 R3.798
G1 X-2.32 F500.
X-2.245 Y40.504
X-1.998 Y40.653
X-1.722 Y40.868
X-1.421 Y41.165
X-1.1 Y41.569
X-0.762 Y42.115
X-0.414 Y42.865
X-0.139 Y43.707
X0.058 Y44.571
X0.197 Y45.446
X0.296 Y46.327
X0.331 Y46.768
X0.346 Y46.989
X0.407 Y47.202
X0.644 Y47.577
X1.288 Y48.185
X2.078 Y48.586
X2.922 Y48.858
X3.788 Y49.045
X4.665 Y49.174
X5.546 Y49.263
X6.43 Y49.326
X7.315 Y49.369
X8.201 Y49.399
X9.087 Y49.421
X9.973 Y49.435
X10.859 Y49.446
X11.745 Y49.453
X12.631 Y49.458
X13.517 Y49.462
X15.289 Y49.466
X17.948 Y49.469
X25.923 Y49.47
X32.126
X32.335 Y49.397
X32.422 Y49.329
X33.086 Y48.742
X33.52 Y47.97
X33.813 Y47.133
X34.014 Y46.27
X34.152 Y45.395
X34.248 Y44.514
X34.315 Y43.63
X34.362 Y42.746
X34.394 Y41.86
X34.417 Y40.974
X34.433 Y40.088
X34.444 Y39.202
X34.452 Y38.316
X34.457 Y37.43
X34.461 Y36.544
X34.466 Y34.772
X34.468 Y32.113
X34.47 Y25.024
Y6.194
X34.397 Y5.985
X34.329 Y5.898
X33.696 Y5.278
X32.905 Y4.877
X32.061 Y4.609
X31.193 Y4.428
X30.316 Y4.304
X29.434 Y4.219
X28.55 Y4.16
X27.664 Y4.12
X26.779 Y4.092
X25.893 Y4.073
X25.007 Y4.06
X24.121 Y4.051
X23.235 Y4.044
X22.348 Y4.04
X20.576 Y4.035
X17.918 Y4.032
X10.829 Y4.03
X7.063
X6.843 Y4.053
X6.427 Y4.207
X5.721 Y4.742
X5.229 Y5.479
X4.884 Y6.295
X4.639 Y7.147
X4.423 Y8.006
X4.164 Y8.854
X4.062 Y9.093
X3.961 Y9.259
X3.817 Y9.389
X3.641 Y9.472
X3.449 Y9.5
X-0.077
G3 X-0.05 Y8.3 R0.6
X-0.035 Y8.301 R0.6
G1 X0.059 Y8.304 Z-4.943
X0.151 Y8.307 Z-4.921
X0.238 Y8.31 Z-4.885
X0.318 Y8.313 Z-4.835
X0.389 Y8.316 Z-4.774
X0.45 Y8.318 Z-4.703
X0.5 Y8.319 Z-4.622
X0.536 Y8.321 Z-4.535
X0.558 Z-4.444
X0.565 Y8.322 Z-4.35
G0 Z5.
X-4.645 Y41.338
Z-3.75
G1 Z-4.35 F200.
X-4.638 Y41.334 Z-4.444
X-4.619 Y41.323 Z-4.535
X-4.588 Y41.304 Z-4.622
X-4.546 Y41.279 Z-4.703
X-4.494 Y41.248 Z-4.774
X-4.432 Y41.211 Z-4.835
X-4.363 Y41.17 Z-4.885
X-4.288 Y41.126 Z-4.921
X-4.21 Y41.079 Z-4.943
X-4.129 Y41.031 Z-4.95
G3 X-2.32 Y40.5 R3.798
G1 X-0.71 F500.
X-0.561 Y40.507
X-0.263 Y40.56
X0.045 Y40.653
X0.402 Y40.809
X0.771 Y41.025
X1.164 Y41.324
X1.575 Y41.72
X2.003 Y42.245
X2.429 Y42.916
X2.62 Y43.316
X3.138 Y44.035
X3.846 Y44.568
X4.643 Y44.954
X5.484 Y45.235
X6.346 Y45.438
X7.22 Y45.585
X8.1 Y45.691
X8.983 Y45.768
X9.867 Y45.824
X10.752 Y45.865
X11.638 Y45.894
X12.524 Y45.915
X13.41 Y45.93
X14.296 Y45.942
X15.182 Y45.949
X16.068 Y45.955
X16.954 Y45.959
X18.726 Y45.965
X21.385 Y45.968
X27.588 Y45.97
X28.031
X28.248 Y45.925
X28.652 Y45.743
X29.338 Y45.183
X29.813 Y44.435
X30.147 Y43.614
X30.384 Y42.76
X30.551 Y41.89
X30.671 Y41.012
X30.756 Y40.13
X30.817 Y39.246
X30.86 Y38.361
X30.892 Y37.475
X30.914 Y36.589
X30.93 Y35.703
X30.941 Y34.817
X30.95 Y33.931
X30.955 Y33.045
X30.96 Y32.159
X30.965 Y30.387
X30.968 Y27.728
X30.969 Y26.842
X30.97 Y17.981
Y10.449
X30.934 Y10.23
X30.757 Y9.824
X30.196 Y9.138
X29.447 Y8.665
X28.625 Y8.334
X27.77 Y8.101
X26.899 Y7.936
X26.021 Y7.819
X25.139 Y7.736
X24.254 Y7.677
X23.369 Y7.635
X22.484 Y7.605
X21.598 Y7.583
X20.712 Y7.568
X19.826 Y7.557
X18.94 Y7.549
X18.054 Y7.544
X17.168 Y7.54
X15.395 Y7.535
X12.737 Y7.532
X10.522 Y7.531
X10.097 Y7.658
X9.344 Y8.124
X8.739 Y8.772
X8.375 Y9.241
X8.229 Y9.381
X8.047 Y9.469
X7.848 Y9.5
X3.449
G3 X3.476 Y8.3 R0.6
X3.49 Y8.301 R0.6
G1 X3.584 Y8.304 Z-4.943
X3.676 Y8.307 Z-4.921
X3.763 Y8.31 Z-4.885
X3.843 Y8.313 Z-4.835
X3.914 Y8.316 Z-4.774
X3.976 Y8.318 Z-4.703
X4.025 Y8.319 Z-4.622
X4.061 Y8.321 Z-4.535
X4.083 Z-4.444
X4.09 Y8.322 Z-4.35
G0 Z5.
X-3.035 Y41.338
Z-3.75
G1 Z-4.35 F200.
X-3.028 Y41.334 Z-4.444
X-3.01 Y41.323 Z-4.535
X-2.979 Y41.304 Z-4.622
X-2.936 Y41.279 Z-4.703
X-2.884 Y41.248 Z-4.774
X-2.822 Y41.211 Z-4.835
X-2.753 Y41.17 Z-4.885
X-2.678 Y41.126 Z-4.921
X-2.6 Y41.079 Z-4.943
X-2.519 Y41.031 Z-4.95
G3 X-0.71 Y40.5 R3.798
G1 X1.905 F500.
X2.245 Y40.517
X2.599 Y40.577
X3.449 Y40.829
X4.286 Y41.119
X5.13 Y41.389
X5.986 Y41.619
X6.852 Y41.808
X7.725 Y41.96
X8.603 Y42.079
X9.484 Y42.172
X10.367 Y42.244
X11.252 Y42.3
X12.137 Y42.342
X13.022 Y42.374
X13.908 Y42.398
X14.794 Y42.416
X15.68 Y42.43
X16.566 Y42.44
X17.452 Y42.448
X18.338 Y42.454
X19.224 Y42.458
X20.997 Y42.463
X23.655 Y42.467
X24.32 Y42.468
X24.539 Y42.44
X24.956 Y42.29
X25.675 Y41.772
X26.184 Y41.047
X26.546 Y40.238
X26.804 Y39.39
X26.99 Y38.524
X27.123 Y37.648
X27.22 Y36.767
X27.289 Y35.884
X27.339 Y34.999
X27.376 Y34.113
X27.402 Y33.228
X27.421 Y32.342
X27.434 Y31.456
X27.444 Y30.57
X27.451 Y29.684
X27.457 Y28.798
X27.46 Y27.911
X27.465 Y26.139
X27.468 Y23.481
X27.47 Y17.278
Y15.506
Y14.177
X27.447 Y13.956
X27.302 Y13.538
X26.786 Y12.817
X26.06 Y12.309
X25.251 Y11.948
X24.403 Y11.69
X23.536 Y11.505
X22.66 Y11.373
X21.779 Y11.277
X20.896 Y11.208
X20.011 Y11.159
X19.126 Y11.123
X18.24 Y11.097
X18.023 Y11.092
X17.813 Y11.055
X17.624 Y10.957
X17.473 Y10.806
X17.399 Y10.706
X17.324 Y10.605
X17.139 Y10.404
X16.997 Y10.272
X16.796 Y10.106
X16.655 Y10.001
X16.595 Y9.962
X16.393 Y9.849
X16.299 Y9.8
X16.192 Y9.75
X15.991 Y9.67
X15.75 Y9.598
X15.588 Y9.562
X15.387 Y9.529
X14.985 Y9.509
X14.784 Y9.5
X7.848
G3 X7.875 Y8.3 R0.6
X7.89 Y8.301 R0.6
G1 X7.984 Y8.304 Z-4.943
X8.075 Y8.307 Z-4.921
X8.162 Y8.31 Z-4.885
X8.242 Y8.313 Z-4.835
X8.314 Y8.316 Z-4.774
X8.375 Y8.318 Z-4.703
X8.424 Y8.319 Z-4.622
X8.46 Y8.321 Z-4.535
X8.482 Z-4.444
X8.489 Y8.322 Z-4.35
G0 Z5.
X-0.419 Y41.338
Z-3.75
G1 Z-4.35 F200.
X-0.413 Y41.334 Z-4.444
X-0.394 Y41.323 Z-4.535
X-0.363 Y41.304 Z-4.622
X-0.32 Y41.279 Z-4.703
X-0.268 Y41.248 Z-4.774
X-0.206 Y41.211 Z-4.835
X-0.137 Y41.17 Z-4.885
X-0.063 Y41.126 Z-4.921
X0.016 Y41.079 Z-4.943
X0.097 Y41.031 Z-4.95
G3 X1.905 Y40.5 R3.798
G1 X14.784 F500.
X15.186 Y40.481
X15.387 Y40.471
X15.588 Y40.438
X15.751 Y40.401
X15.991 Y40.33
X16.192 Y40.25
X16.3 Y40.2
X16.97 Y39.892
X17.814 Y39.62
X18.678 Y39.427
X19.554 Y39.29
X20.435 Y39.194
X20.877 Y39.16
X21.301 Y39.032
X21.673 Y38.792
X22.316 Y38.182
X22.776 Y37.425
X23.106 Y36.602
X23.343 Y35.749
X23.515 Y34.879
X23.64 Y34.002
X23.73 Y33.12
X23.795 Y32.237
X23.843 Y31.352
X23.878 Y30.466
X23.903 Y29.581
X23.921 Y28.695
X23.934 Y27.809
X23.944 Y26.923
X23.951 Y26.037
X23.956 Y25.15
X23.96 Y24.264
X23.965 Y22.492
X23.968 Y19.834
X23.969 Y17.618
X23.863 Y17.188
X23.628 Y16.813
X23.021 Y16.167
X22.264 Y15.708
X21.44 Y15.38
X20.586 Y15.144
X19.717 Y14.973
X18.847 Y14.804
X18.494 Y14.709
X18.296 Y14.619
X18.138 Y14.47
X18.035 Y14.279
X18. Y14.065
Y13.021
X17.999 Y12.82
X17.996 Y12.618
G3 X18.609 Y12.031 R0.6
X19.196 Y12.644 R0.6
G1 X19.194 Y12.738 Z-4.943
X19.192 Y12.829 Z-4.921
X19.19 Y12.916 Z-4.885
X19.188 Y12.997 Z-4.835
X19.187 Y13.068 Z-4.774
X19.185 Y13.129 Z-4.703
X19.184 Y13.179 Z-4.622
X19.183 Y13.215 Z-4.535
Y13.237 Z-4.444
Y13.244 Z-4.35
G0 Z5.
X14.323 Y41.701
Z-3.75
G1 Z-4.35 F200.
X14.329 Y41.696 Z-4.444
X14.345 Y41.681 Z-4.535
X14.372 Y41.657 Z-4.622
X14.408 Y41.624 Z-4.703
X14.454 Y41.584 Z-4.774
X14.507 Y41.536 Z-4.835
X14.567 Y41.482 Z-4.885
X14.632 Y41.424 Z-4.921
X14.7 Y41.363 Z-4.943
X14.77 Y41.3 Z-4.95
G3 X16.3 Y40.2 R8.75
G1 X16.393 Y40.151 F500.
X16.595 Y40.038
X16.655 Y39.999
X16.796 Y39.894
X16.997 Y39.728
X17.139 Y39.596
X17.324 Y39.395
X17.399 Y39.294
X17.473 Y39.193
X17.601 Y38.989
X17.705 Y38.791
X17.792 Y38.589
X17.866 Y38.44
X18.35 Y37.697
X18.812 Y36.941
X19.193 Y36.141
X19.495 Y35.308
X19.73 Y34.454
X19.91 Y33.586
X20.048 Y32.711
X20.153 Y31.831
X20.232 Y30.948
X20.292 Y30.064
X20.337 Y29.179
X20.371 Y28.294
X20.396 Y27.408
X20.415 Y26.522
X20.429 Y25.636
X20.44 Y24.75
X20.448 Y23.864
X20.453 Y22.978
X20.458 Y22.092
X20.461 Y21.206
X20.379 Y20.77
X19.937 Y20.002
X19.267 Y19.422
X18.53 Y18.93
X18.3 Y18.779
X18.14 Y18.631
X18.036 Y18.438
X18. Y18.222
Y14.065
G3 X19.2 Y14.092 R0.6
X19.199 Y14.107 R0.6
G1 X19.196 Y14.2 Z-4.943
X19.193 Y14.292 Z-4.921
X19.19 Y14.379 Z-4.885
X19.187 Y14.459 Z-4.835
X19.184 Y14.531 Z-4.774
X19.182 Y14.592 Z-4.703
X19.181 Y14.641 Z-4.622
X19.179 Y14.677 Z-4.535
Y14.699 Z-4.444
X19.178 Y14.706 Z-4.35
G0 Z5.
X17.203 Y41.
Z-3.75
G1 Z-4.35 F200.
X17.204 Y40.993 Z-4.444
X17.207 Y40.971 Z-4.535
X17.213 Y40.936 Z-4.622
X17.221 Y40.887 Z-4.703
X17.23 Y40.827 Z-4.774
X17.241 Y40.756 Z-4.835
X17.254 Y40.677 Z-4.885
X17.268 Y40.591 Z-4.921
X17.282 Y40.501 Z-4.943
X17.297 Y40.408 Z-4.95
G3 X17.792 Y38.589 R8.75
G1 X17.802 Y38.568 F500.
X17.861 Y38.388
X17.917 Y38.187
X17.96 Y37.985
X17.983 Y37.784
X17.993 Y37.583
X17.999 Y37.18
X18. Y36.979
Y18.222
G3 X18.941 Y17.75 R0.6
G1 X18.993 Y17.802 Z-4.945
X19.045 Y17.854 Z-4.932
X19.094 Y17.904 Z-4.909
X19.127 Y17.976 Z-4.871
X19.156 Y18.043 Z-4.821
X19.183 Y18.102 Z-4.762
X19.188 Y18.149 Z-4.705
X19.193 Y18.188 Z-4.643
X19.197 Y18.22 Z-4.577
X19.2 Y18.243 Z-4.507
Y18.249 Z-4.483
X19.199 Y18.26 Z-4.417
Y18.264 Z-4.35
G0 Z5.
X40.465 Y-0.387
Z-4.245
G1 Z-4.845 F200.
X40.458 Y-0.385 Z-4.939
X40.437 Y-0.38 Z-5.03
X40.402 Y-0.371 Z-5.117
X40.354 Y-0.359 Z-5.198
X40.295 Y-0.344 Z-5.269
X40.226 Y-0.326 Z-5.33
X40.148 Y-0.306 Z-5.38
X40.064 Y-0.284 Z-5.416
X39.975 Y-0.262 Z-5.438
X39.884 Y-0.238 Z-5.445
G3 X38.018 Y0.03 R8.75
G1 X37.908 F500.
X37.034 Y0.177
X36.154 Y0.281
X35.271 Y0.355
X34.386 Y0.407
X33.501 Y0.444
X32.615 Y0.47
X31.729 Y0.488
X30.843 Y0.5
X29.957 Y0.509
X29.071 Y0.515
X28.185 Y0.52
X26.413 Y0.525
X23.754 Y0.528
X17.551 Y0.53
X2.93
X2.721 Y0.603
X2.631 Y0.667
X2.289 Y0.949
X1.728 Y1.635
X1.355 Y2.439
X1.102 Y3.288
X0.928 Y4.157
X0.807 Y5.035
X0.723 Y5.917
X0.665 Y6.801
X0.625 Y7.686
X0.596 Y8.572
X0.59 Y8.848
X0.554 Y9.051
X0.457 Y9.232
X0.31 Y9.376
X0.127 Y9.468
X-0.077 Y9.5
G3 X-0.05 Y8.3 R0.6
X-0.035 Y8.301 R0.6
G1 X0.059 Y8.304 Z-5.438
