(CNC001)
(T1  D=6. CR=0. - ZMIN=-7.9 - SCHAFTFRSER)
(T2  D=3. CR=0. - ZMIN=-20.5 - SCHAFTFRSER)
G90 G94 G91.1 G40 G49 G17
G21
G28 G91 Z0.
G90

(2D ADAPTIVE1)
M5
M9
T1 M6
S10000 M3
G54
M7
G0 X40.465 Y-0.387
G43 Z15. H1
Z5.
Z0.705
G1 Z0.105 F200.
X40.458 Y-0.385 Z0.011
X40.437 Y-0.38 Z-0.08
X40.402 Y-0.371 Z-0.167
X40.354 Y-0.359 Z-0.248
X40.295 Y-0.344 Z-0.319
X40.226 Y-0.326 Z-0.38
X40.148 Y-0.306 Z-0.43
X40.064 Y-0.284 Z-0.466
X39.975 Y-0.262 Z-0.488
X39.884 Y-0.238 Z-0.495
G3 X38.018 Y0.03 R8.75
G1 X37.963 F500.
X37.111 Y0.273
X36.273 Y0.561
X35.411 Y0.766
X34.536 Y0.91
X33.656 Y1.011
X32.773 Y1.08
X31.888 Y1.128
X31.002 Y1.161
X30.116 Y1.183
X29.23 Y1.198
X28.344 Y1.208
X27.458 Y1.215
X26.572 Y1.22
X25.686 Y1.223
X23.914 Y1.227
X20.369 Y1.229
X2.758 Y1.23
X2.704 Y1.245
X2.657 Y1.274
X2.359 Y1.602
X1.952 Y2.389
X1.704 Y3.24
X1.545 Y4.112
X1.441 Y4.992
X1.372 Y5.875
X1.325 Y6.76
X1.294 Y7.646
X1.274 Y8.532
X1.268 Y8.91
X1.236 Y9.093
X1.15 Y9.257
X1.017 Y9.388
X0.851 Y9.471
X0.668 Y9.5
X0.094
G3 X0.121 Y8.3 R0.6
X0.136 Y8.301 R0.6
G1 X0.23 Y8.304 Z-0.488
X0.322 Y8.307 Z-0.466
X0.408 Y8.31 Z-0.43
X0.489 Y8.313 Z-0.38
X0.56 Y8.316 Z-0.319
X0.621 Y8.318 Z-0.248
X0.671 Y8.319 Z-0.167
X0.707 Y8.321 Z-0.08
X0.729 Z0.011
X0.736 Y8.322 Z0.105
G0 Z5.
X40.339 Y8.662
Z0.705
G1 Z0.105 F200.
X40.332 Y8.666 Z0.011
X40.314 Y8.677 Z-0.08
X40.283 Y8.696 Z-0.167
X40.24 Y8.721 Z-0.248
X40.188 Y8.752 Z-0.319
X40.126 Y8.789 Z-0.38
X40.057 Y8.83 Z-0.43
X39.982 Y8.874 Z-0.466
X39.904 Y8.921 Z-0.488
X39.823 Y8.969 Z-0.495
G3 X38.014 Y9.5 R3.798
G1 X36.918 F500.
X36.768 Y9.493
X36.369 Y9.266
X35.936 Y8.92
X35.479 Y8.418
X35.009 Y7.704
X34.826 Y7.301
X34.748 Y7.094
X34.711 Y6.989
X34.659 Y6.831
X34.597 Y6.739
X34.258 Y6.454
X33.475 Y6.039
X32.62 Y5.806
X31.745 Y5.665
X30.864 Y5.577
X29.979 Y5.522
X29.094 Y5.488
X28.208 Y5.466
X27.322 Y5.452
X26.436 Y5.444
X25.55 Y5.438
X24.664 Y5.435
X22.891 Y5.432
X19.347 Y5.43
X7.273
X7.22 Y5.445
X7.032 Y5.562
X6.452 Y6.232
X6.108 Y7.049
X5.876 Y7.904
X5.646 Y8.76
X5.53 Y9.096
X5.444 Y9.259
X5.311 Y9.389
X5.146 Y9.471
X4.963 Y9.5
X0.668
G3 X0.695 Y8.3 R0.6
X0.71 Y8.301 R0.6
G1 X0.803 Y8.304 Z-0.488
X0.895 Y8.307 Z-0.466
X0.982 Y8.31 Z-0.43
X1.062 Y8.313 Z-0.38
X1.134 Y8.316 Z-0.319
X1.195 Y8.318 Z-0.248
X1.244 Y8.319 Z-0.167
X1.28 Y8.321 Z-0.08
X1.302 Z0.011
X1.309 Y8.322 Z0.105
G0 Z5.
X39.242 Y8.662
Z0.705
G1 Z0.105 F200.
X39.236 Y8.666 Z0.011
X39.217 Y8.677 Z-0.08
X39.186 Y8.696 Z-0.167
X39.144 Y8.721 Z-0.248
X39.091 Y8.752 Z-0.319
X39.03 Y8.789 Z-0.38
X38.961 Y8.83 Z-0.43
X38.886 Y8.874 Z-0.466
X38.807 Y8.921 Z-0.488
X38.726 Y8.969 Z-0.495
G3 X36.918 Y9.5 R3.798
G1 X4.963 F500.
G3 X4.491 Y8.559 R0.6
G1 X4.543 Y8.507 Z-0.49
X4.595 Y8.455 Z-0.477
X4.644 Y8.406 Z-0.454
X4.717 Y8.373 Z-0.416
X4.783 Y8.344 Z-0.366
X4.843 Y8.317 Z-0.307
X4.889 Y8.312 Z-0.25
X4.929 Y8.307 Z-0.188
X4.961 Y8.303 Z-0.122
X4.984 Y8.3 Z-0.052
X4.99 Z-0.028
X5.001 Y8.301 Z0.038
X5.005 Z0.105
G0 Z5.
X40.465 Y-0.387
Z0.21
G1 Z-0.39 F200.
X40.458 Y-0.385 Z-0.484
X40.437 Y-0.38 Z-0.575
X40.402 Y-0.371 Z-0.662
X40.354 Y-0.359 Z-0.743
X40.295 Y-0.344 Z-0.814
X40.226 Y-0.326 Z-0.875
X40.148 Y-0.306 Z-0.925
X40.064 Y-0.284 Z-0.961
X39.975 Y-0.262 Z-0.983
X39.884 Y-0.238 Z-0.99
G3 X38.018 Y0.03 R8.75
G1 X37.963 F500.
X37.111 Y0.273
X36.273 Y0.561
X35.411 Y0.766
X34.536 Y0.91
X33.656 Y1.011
X32.773 Y1.08
X31.888 Y1.128
X31.002 Y1.161
X30.116 Y1.183
X29.23 Y1.198
X28.344 Y1.208
X27.458 Y1.215
X26.572 Y1.22
X25.686 Y1.223
X23.914 Y1.227
X20.369 Y1.229
X2.758 Y1.23
X2.704 Y1.245
X2.657 Y1.274
X2.359 Y1.602
X1.952 Y2.389
X1.704 Y3.24
X1.545 Y4.112
X1.441 Y4.992
X1.372 Y5.875
X1.325 Y6.76
X1.294 Y7.646
X1.274 Y8.532
X1.268 Y8.91
X1.236 Y9.093
X1.15 Y9.257
X1.017 Y9.388
X0.851 Y9.471
X0.668 Y9.5
X0.094
G3 X0.121 Y8.3 R0.6
X0.136 Y8.301 R0.6
G1 X0.23 Y8.304 Z-0.983
X0.322 Y8.307 Z-0.961
X0.408 Y8.31 Z-0.925
X0.489 Y8.313 Z-0.875
X0.56 Y8.316 Z-0.814
X0.621 Y8.318 Z-0.743
X0.671 Y8.319 Z-0.662
X0.707 Y8.321 Z-0.575
X0.729 Z-0.484
X0.736 Y8.322 Z-0.39
G0 Z5.
X40.339 Y8.662
Z0.21
G1 Z-0.39 F200.
X40.332 Y8.666 Z-0.484
X40.314 Y8.677 Z-0.575
X40.283 Y8.696 Z-0.662
X40.24 Y8.721 Z-0.743
X40.188 Y8.752 Z-0.814
X40.126 Y8.789 Z-0.875
X40.057 Y8.83 Z-0.925
X39.982 Y8.874 Z-0.961
X39.904 Y8.921 Z-0.983
X39.823 Y8.969 Z-0.99
G3 X38.014 Y9.5 R3.798
G1 X36.918 F500.
X36.768 Y9.493
X36.369 Y9.266
X35.936 Y8.92
X35.479 Y8.418
X35.009 Y7.704
X34.826 Y7.301
X34.748 Y7.094
X34.711 Y6.989
X34.659 Y6.831
X34.597 Y6.739
X34.258 Y6.454
X33.475 Y6.039
X32.62 Y5.806
X31.745 Y5.665
X30.864 Y5.577
X29.979 Y5.522
X29.094 Y5.488
X28.208 Y5.466
X27.322 Y5.452
X26.436 Y5.444
X25.55 Y5.438
X24.664 Y5.435
X22.891 Y5.432
X19.347 Y5.43
X7.273
X7.22 Y5.445
X7.032 Y5.562
X6.452 Y6.232
X6.108 Y7.049
X5.876 Y7.904
X5.646 Y8.76
X5.53 Y9.096
X5.444 Y9.259
X5.311 Y9.389
X5.146 Y9.471
X4.963 Y9.5
X0.668
G3 X0.695 Y8.3 R0.6
X0.71 Y8.301 R0.6
G1 X0.803 Y8.304 Z-0.983
X0.895 Y8.307 Z-0.961
X0.982 Y8.31 Z-0.925
X1.062 Y8.313 Z-0.875
X1.134 Y8.316 Z-0.814
X1.195 Y8.318 Z-0.743
X1.244 Y8.319 Z-0.662
X1.28 Y8.321 Z-0.575
X1.302 Z-0.484
X1.309 Y8.322 Z-0.39
G0 Z5.
X39.242 Y8.662
Z0.21
G1 Z-0.39 F200.
X39.236 Y8.666 Z-0.484
X39.217 Y8.677 Z-0.575
X39.186 Y8.696 Z-0.662
X39.144 Y8.721 Z-0.743
X39.091 Y8.752 Z-0.814
X39.03 Y8.789 Z-0.875
X38.961 Y8.83 Z-0.925
X38.886 Y8.874 Z-0.961
X38.807 Y8.921 Z-0.983
X38.726 Y8.969 Z-0.99
G3 X36.918 Y9.5 R3.798
G1 X4.963 F500.
G3 X4.491 Y8.559 R0.6
G1 X4.543 Y8.507 Z-0.985
X4.595 Y8.455 Z-0.972
X4.644 Y8.406 Z-0.949
X4.717 Y8.373 Z-0.911
X4.783 Y8.344 Z-0.861
X4.843 Y8.317 Z-0.802
X4.889 Y8.312 Z-0.745
X4.929 Y8.307 Z-0.683
X4.961 Y8.303 Z-0.617
X4.984 Y8.3 Z-0.547
X4.99 Z-0.523
X5.001 Y8.301 Z-0.457
X5.005 Z-0.39
G0 Z5.
X40.465 Y-0.387
Z-0.285
G1 Z-0.885 F200.
X40.458 Y-0.385 Z-0.979
X40.437 Y-0.38 Z-1.07
X40.402 Y-0.371 Z-1.157
X40.354 Y-0.359 Z-1.238
X40.295 Y-0.344 Z-1.309
X40.226 Y-0.326 Z-1.37
X40.148 Y-0.306 Z-1.42
X40.064 Y-0.284 Z-1.456
X39.975 Y-0.262 Z-1.478
X39.884 Y-0.238 Z-1.485
G3 X38.018 Y0.03 R8.75
G1 X37.963 F500.
X37.111 Y0.273
X36.273 Y0.561
X35.411 Y0.766
X34.536 Y0.91
X33.656 Y1.011
X32.773 Y1.08
X31.888 Y1.128
X31.002 Y1.161
X30.116 Y1.183
X29.23 Y1.198
X28.344 Y1.208
X27.458 Y1.215
X26.572 Y1.22
X25.686 Y1.223
X23.914 Y1.227
X20.369 Y1.229
X2.758 Y1.23
X2.704 Y1.245
X2.657 Y1.274
X2.359 Y1.602
X1.952 Y2.389
X1.704 Y3.24
X1.545 Y4.112
X1.441 Y4.992
X1.372 Y5.875
X1.325 Y6.76
X1.294 Y7.646
X1.274 Y8.532
X1.268 Y8.91
X1.236 Y9.093
X1.15 Y9.257
X1.017 Y9.388
X0.851 Y9.471
X0.668 Y9.5
X0.094
G3 X0.121 Y8.3 R0.6
X0.136 Y8.301 R0.6
G1 X0.23 Y8.304 Z-1.478
X0.322 Y8.307 Z-1.456
X0.408 Y8.31 Z-1.42
X0.489 Y8.313 Z-1.37
X0.56 Y8.316 Z-1.309
X0.621 Y8.318 Z-1.238
X0.671 Y8.319 Z-1.157
X0.707 Y8.321 Z-1.07
X0.729 Z-0.979
X0.736 Y8.322 Z-0.885
G0 Z-0.285
X40.339 Y8.662
G1 Z-0.885 F200.
X40.332 Y8.666 Z-0.979
X40.314 Y8.677 Z-1.07
X40.283 Y8.696 Z-1.157
X40.24 Y8.721 Z-1.238
X40.188 Y8.752 Z-1.309
X40.126 Y8.789 Z-1.37
X40.057 Y8.83 Z-1.42
X39.982 Y8.874 Z-1.456
X39.904 Y8.921 Z-1.478
X39.823 Y8.969 Z-1.485
G3 X38.014 Y9.5 R3.798
G1 X36.918 F500.
X36.768 Y9.493
X36.369 Y9.266
X35.936 Y8.92
X35.479 Y8.418
X35.009 Y7.704
X34.826 Y7.301
X34.748 Y7.094
X34.711 Y6.989
X34.659 Y6.831
X34.597 Y6.739
X34.258 Y6.454
X33.475 Y6.039
X32.62 Y5.806
X31.745 Y5.665
X30.864 Y5.577
X29.979 Y5.522
X29.094 Y5.488
X28.208 Y5.466
X27.322 Y5.452
X26.436 Y5.444
X25.55 Y5.438
X24.664 Y5.435
X22.891 Y5.432
X19.347 Y5.43
X7.273
X7.22 Y5.445
X7.032 Y5.562
X6.452 Y6.232
X6.108 Y7.049
X5.876 Y7.904
X5.646 Y8.76
X5.53 Y9.096
X5.444 Y9.259
X5.311 Y9.389
X5.146 Y9.471
X4.963 Y9.5
X0.668
G3 X0.695 Y8.3 R0.6
X0.71 Y8.301 R0.6
G1 X0.803 Y8.304 Z-1.478
X0.895 Y8.307 Z-1.456
X0.982 Y8.31 Z-1.42
X1.062 Y8.313 Z-1.37
X1.134 Y8.316 Z-1.309
X1.195 Y8.318 Z-1.238
X1.244 Y8.319 Z-1.157
X1.28 Y8.321 Z-1.07
X1.302 Z-0.979
X1.309 Y8.322 Z-0.885
G0 Z-0.285
X39.242 Y8.662
G1 Z-0.885 F200.
X39.236 Y8.666 Z-0.979
X39.217 Y8.677 Z-1.07
X39.186 Y8.696 Z-1.157
X39.144 Y8.721 Z-1.238
X39.091 Y8.752 Z-1.309
X39.03 Y8.789 Z-1.37
X38.961 Y8.83 Z-1.42
X38.886 Y8.874 Z-1.456
X38.807 Y8.921 Z-1.478
X38.726 Y8.969 Z-1.485
G3 X36.918 Y9.5 R3.798
G1 X4.963 F500.
G3 X4.491 Y8.559 R0.6
G1 X4.543 Y8.507 Z-1.48
X4.595 Y8.455 Z-1.467
X4.644 Y8.406 Z-1.444
X4.717 Y8.373 Z-1.406
X4.783 Y8.344 Z-1.356
X4.843 Y8.317 Z-1.297
X4.889 Y8.312 Z-1.24
X4.929 Y8.307 Z-1.178
X4.961 Y8.303 Z-1.112
X4.984 Y8.3 Z-1.042
X4.99 Z-1.018
X5.001 Y8.301 Z-0.952
X5.005 Z-0.885
G0 Z5.
X40.465 Y-0.387
Z-0.78
G1 Z-1.38 F200.
X40.458 Y-0.385 Z-1.474
X40.437 Y-0.38 Z-1.565
X40.402 Y-0.371 Z-1.652
X40.354 Y-0.359 Z-1.733
X40.295 Y-0.344 Z-1.804
X40.226 Y-0.326 Z-1.865
X40.148 Y-0.306 Z-1.915
X40.064 Y-0.284 Z-1.951
X39.975 Y-0.262 Z-1.973
X39.884 Y-0.238 Z-1.98
G3 X38.018 Y0.03 R8.75
G1 X37.963 F500.
X37.111 Y0.273
X36.273 Y0.561
X35.411 Y0.766
X34.536 Y0.91
X33.656 Y1.011
X32.773 Y1.08
X31.888 Y1.128
X31.002 Y1.161
X30.116 Y1.183
X29.23 Y1.198
X28.344 Y1.208
X27.458 Y1.215
X26.572 Y1.22
X25.686 Y1.223
X23.914 Y1.227
X20.369 Y1.229
X2.758 Y1.23
X2.704 Y1.245
X2.657 Y1.274
X2.359 Y1.602
X1.952 Y2.389
X1.704 Y3.24
X1.545 Y4.112
X1.441 Y4.992
X1.372 Y5.875
X1.325 Y6.76
X1.294 Y7.646
X1.274 Y8.532
X1.268 Y8.91
X1.236 Y9.093
X1.15 Y9.257
X1.017 Y9.388
X0.851 Y9.471
X0.668 Y9.5
X0.094
G3 X0.121 Y8.3 R0.6
X0.136 Y8.301 R0.6
G1 X0.23 Y8.304 Z-1.973
X0.322 Y8.307 Z-1.951
X0.408 Y8.31 Z-1.915
X0.489 Y8.313 Z-1.865
X0.56 Y8.316 Z-1.804
X0.621 Y8.318 Z-1.733
X0.671 Y8.319 Z-1.652
X0.707 Y8.321 Z-1.565
X0.729 Z-1.474
X0.736 Y8.322 Z-1.38
G0 Z-0.78
X40.339 Y8.662
G1 Z-1.38 F200.
X40.332 Y8.666 Z-1.474
X40.314 Y8.677 Z-1.565
X40.283 Y8.696 Z-1.652
X40.24 Y8.721 Z-1.733
X40.188 Y8.752 Z-1.804
X40.126 Y8.789 Z-1.865
X40.057 Y8.83 Z-1.915
X39.982 Y8.874 Z-1.951
X39.904 Y8.921 Z-1.973
X39.823 Y8.969 Z-1.98
G3 X38.014 Y9.5 R3.798
G1 X36.918 F500.
X36.768 Y9.493
X36.369 Y9.266
X35.936 Y8.92
X35.479 Y8.418
X35.009 Y7.704
X34.826 Y7.301
X34.748 Y7.094
X34.711 Y6.989
X34.659 Y6.831
X34.597 Y6.739
X34.258 Y6.454
X33.475 Y6.039
X32.62 Y5.806
X31.745 Y5.665
X30.864 Y5.577
X29.979 Y5.522
X29.094 Y5.488
X28.208 Y5.466
X27.322 Y5.452
X26.436 Y5.444
X25.55 Y5.438
X24.664 Y5.435
X22.891 Y5.432
X19.347 Y5.43
X7.273
X7.22 Y5.445
X7.032 Y5.562
X6.452 Y6.232
X6.108 Y7.049
X5.876 Y7.904
X5.646 Y8.76
X5.53 Y9.096
X5.444 Y9.259
X5.311 Y9.389
X5.146 Y9.471
X4.963 Y9.5
X0.668
G3 X0.695 Y8.3 R0.6
X0.71 Y8.301 R0.6
G1 X0.803 Y8.304 Z-1.973
X0.895 Y8.307 Z-1.951
X0.982 Y8.31 Z-1.915
X1.062 Y8.313 Z-1.865
X1.134 Y8.316 Z-1.804
X1.195 Y8.318 Z-1.733
X1.244 Y8.319 Z-1.652
X1.28 Y8.321 Z-1.565
X1.302 Z-1.474
X1.309 Y8.322 Z-1.38
G0 Z-0.78
X39.242 Y8.662
G1 Z-1.38 F200.
X39.236 Y8.666 Z-1.474
X39.217 Y8.677 Z-1.565
X39.186 Y8.696 Z-1.652
X39.144 Y8.721 Z-1.733
X39.091 Y8.752 Z-1.804
X39.03 Y8.789 Z-1.865
X38.961 Y8.83 Z-1.915
X38.886 Y8.874 Z-1.951
X38.807 Y8.921 Z-1.973
X38.726 Y8.969 Z-1.98
G3 X36.918 Y9.5 R3.798
G1 X4.963 F500.
G3 X4.491 Y8.559 R0.6
G1 X4.543 Y8.507 Z-1.975
X4.595 Y8.455 Z-1.962
X4.644 Y8.406 Z-1.939
X4.717 Y8.373 Z-1.901
X4.783 Y8.344 Z-1.851
X4.843 Y8.317 Z-1.792
X4.889 Y8.312 Z-1.735
X4.929 Y8.307 Z-1.673
X4.961 Y8.303 Z-1.607
X4.984 Y8.3 Z-1.537
X4.99 Z-1.513
X5.001 Y8.301 Z-1.447
X5.005 Z-1.38
G0 Z5.
X40.465 Y-0.387
Z-1.275
G1 Z-1.875 F200.
X40.458 Y-0.385 Z-1.969
X40.437 Y-0.38 Z-2.06
X40.402 Y-0.371 Z-2.147
X40.354 Y-0.359 Z-2.228
X40.295 Y-0.344 Z-2.299
X40.226 Y-0.326 Z-2.36
X40.148 Y-0.306 Z-2.41
X40.064 Y-0.284 Z-2.446
X39.975 Y-0.262 Z-2.468
X39.884 Y-0.238 Z-2.475
G3 X38.018 Y0.03 R8.75
G1 X37.963 F500.
X37.111 Y0.273
X36.273 Y0.561
X35.411 Y0.766
X34.536 Y0.91
X33.656 Y1.011
X32.773 Y1.08
X31.888 Y1.128
X31.002 Y1.161
X30.116 Y1.183
X29.23 Y1.198
X28.344 Y1.208
X27.458 Y1.215
X26.572 Y1.22
X25.686 Y1.223
X23.914 Y1.227
X20.369 Y1.229
X2.758 Y1.23
X2.704 Y1.245
X2.657 Y1.274
X2.359 Y1.602
X1.952 Y2.389
X1.704 Y3.24
X1.545 Y4.112
X1.441 Y4.992
X1.372 Y5.875
X1.325 Y6.76
X1.294 Y7.646
X1.274 Y8.532
X1.268 Y8.91
X1.236 Y9.093
X1.15 Y9.257
X1.017 Y9.388
X0.851 Y9.471
X0.668 Y9.5
X0.094
G3 X0.121 Y8.3 R0.6
X0.136 Y8.301 R0.6
G1 X0.23 Y8.304 Z-2.468
X0.322 Y8.307 Z-2.446
X0.408 Y8.31 Z-2.41
X0.489 Y8.313 Z-2.36
X0.56 Y8.316 Z-2.299
X0.621 Y8.318 Z-2.228
X0.671 Y8.319 Z-2.147
X0.707 Y8.321 Z-2.06
X0.729 Z-1.969
X0.736 Y8.322 Z-1.875
G0 Z-1.275
X40.339 Y8.662
G1 Z-1.875 F200.
X40.332 Y8.666 Z-1.969
X40.314 Y8.677 Z-2.06
X40.283 Y8.696 Z-2.147
X40.24 Y8.721 Z-2.228
X40.188 Y8.752 Z-2.299
X40.126 Y8.789 Z-2.36
X40.057 Y8.83 Z-2.41
X39.982 Y8.874 Z-2.446
X39.904 Y8.921 Z-2.468
X39.823 Y8.969 Z-2.475
G3 X38.014 Y9.5 R3.798
G1 X36.918 F500.
X36.768 Y9.493
X36.369 Y9.266
X35.936 Y8.92
X35.479 Y8.418
X35.009 Y7.704
X34.826 Y7.301
X34.748 Y7.094
X34.711 Y6.989
X34.659 Y6.831
X34.597 Y6.739
X34.258 Y6.454
X33.475 Y6.039
X32.62 Y5.806
X31.745 Y5.665
X30.864 Y5.577
X29.979 Y5.522
X29.094 Y5.488
X28.208 Y5.466
X27.322 Y5.452
X26.436 Y5.444
X25.55 Y5.438
X24.664 Y5.435
X22.891 Y5.432
X19.347 Y5.43
X7.273
X7.22 Y5.445
X7.032 Y5.562
X6.452 Y6.232
X6.108 Y7.049
X5.876 Y7.904
X5.646 Y8.76
X5.53 Y9.096
X5.444 Y9.259
X5.311 Y9.389
X5.146 Y9.471
X4.963 Y9.5
X0.668
G3 X0.695 Y8.3 R0.6
X0.71 Y8.301 R0.6
G1 X0.803 Y8.304 Z-2.468
X0.895 Y8.307 Z-2.446
X0.982 Y8.31 Z-2.41
X1.062 Y8.313 Z-2.36
X1.134 Y8.316 Z-2.299
X1.195 Y8.318 Z-2.228
X1.244 Y8.319 Z-2.147
X1.28 Y8.321 Z-2.06
X1.302 Z-1.969
X1.309 Y8.322 Z-1.875
G0 Z-1.275
X39.242 Y8.662
G1 Z-1.875 F200.
X39.236 Y8.666 Z-1.969
X39.217 Y8.677 Z-2.06
X39.186 Y8.696 Z-2.147
X39.144 Y8.721 Z-2.228
X39.091 Y8.752 Z-2.299
X39.03 Y8.789 Z-2.36
X38.961 Y8.83 Z-2.41
X38.886 Y8.874 Z-2.446
X38.807 Y8.921 Z-2.468
X38.726 Y8.969 Z-2.475
G3 X36.918 Y9.5 R3.798
G1 X4.963 F500.
G3 X4.491 Y8.559 R0.6
G1 X4.543 Y8.507 Z-2.47
X4.595 Y8.455 Z-2.457
X4.644 Y8.406 Z-2.434
X4.717 Y8.373 Z-2.396
X4.783 Y8.344 Z-2.346
X4.843 Y8.317 Z-2.287
X4.889 Y8.312 Z-2.23
X4.929 Y8.307 Z-2.168
X4.961 Y8.303 Z-2.102
X4.984 Y8.3 Z-2.032
X4.99 Z-2.008
X5.001 Y8.301 Z-1.942
X5.005 Z-1.875
G0 Z5.
X40.465 Y-0.387
Z-1.77
G1 Z-2.37 F200.
X40.458 Y-0.385 Z-2.464
X40.437 Y-0.38 Z-2.555
X40.402 Y-0.371 Z-2.642
X40.354 Y-0.359 Z-2.723
X40.295 Y-0.344 Z-2.794
X40.226 Y-0.326 Z-2.855
X40.148 Y-0.306 Z-2.905
X40.064 Y-0.284 Z-2.941
X39.975 Y-0.262 Z-2.963
X39.884 Y-0.238 Z-2.97
G3 X38.018 Y0.03 R8.75
G1 X37.963 F500.
X37.111 Y0.273
X36.273 Y0.561
X35.411 Y0.766
X34.536 Y0.91
X33.656 Y1.011
X32.773 Y1.08
X31.888 Y1.128
X31.002 Y1.161
X30.116 Y1.183
X29.23 Y1.198
X28.344 Y1.208
X27.458 Y1.215
X26.572 Y1.22
X25.686 Y1.223
X23.914 Y1.227
X20.369 Y1.229
X2.758 Y1.23
X2.704 Y1.245
X2.657 Y1.274
X2.359 Y1.602
X1.952 Y2.389
X1.704 Y3.24
X1.545 Y4.112
X1.441 Y4.992
X1.372 Y5.875
X1.325 Y6.76
X1.294 Y7.646
X1.274 Y8.532
X1.268 Y8.91
X1.236 Y9.093
X1.15 Y9.257
X1.017 Y9.388
X0.851 Y9.471
X0.668 Y9.5
X0.094
G3 X0.121 Y8.3 R0.6
X0.136 Y8.301 R0.6
G1 X0.23 Y8.304 Z-2.963
X0.322 Y8.307 Z-2.941
X0.408 Y8.31 Z-2.905
X0.489 Y8.313 Z-2.855
X0.56 Y8.316 Z-2.794
X0.621 Y8.318 Z-2.723
X0.671 Y8.319 Z-2.642
X0.707 Y8.321 Z-2.555
X0.729 Z-2.464
X0.736 Y8.322 Z-2.37
G0 Z-1.77
X40.339 Y8.662
G1 Z-2.37 F200.
X40.332 Y8.666 Z-2.464
X40.314 Y8.677 Z-2.555
X40.283 Y8.696 Z-2.642
X40.24 Y8.721 Z-2.723
X40.188 Y8.752 Z-2.794
X40.126 Y8.789 Z-2.855
X40.057 Y8.83 Z-2.905
X39.982 Y8.874 Z-2.941
X39.904 Y8.921 Z-2.963
X39.823 Y8.969 Z-2.97
G3 X38.014 Y9.5 R3.798
G1 X36.918 F500.
X36.768 Y9.493
X36.369 Y9.266
X35.936 Y8.92
X35.479 Y8.418
X35.009 Y7.704
X34.826 Y7.301
X34.748 Y7.094
X34.711 Y6.989
X34.659 Y6.831
X34.597 Y6.739
X34.258 Y6.454
X33.475 Y6.039
X32.62 Y5.806
X31.745 Y5.665
X30.864 Y5.577
X29.979 Y5.522
X29.094 Y5.488
X28.208 Y5.466
X27.322 Y5.452
X26.436 Y5.444
X25.55 Y5.438
X24.664 Y5.435
X22.891 Y5.432
X19.347 Y5.43
X7.273
X7.22 Y5.445
X7.032 Y5.562
X6.452 Y6.232
X6.108 Y7.049
X5.876 Y7.904
X5.646 Y8.76
X5.53 Y9.096
X5.444 Y9.259
X5.311 Y9.389
X5.146 Y9.471
X4.963 Y9.5
X0.668
G3 X0.695 Y8.3 R0.6
X0.71 Y8.301 R0.6
G1 X0.803 Y8.304 Z-2.963
X0.895 Y8.307 Z-2.941
X0.982 Y8.31 Z-2.905
X1.062 Y8.313 Z-2.855
X1.134 Y8.316 Z-2.794
X1.195 Y8.318 Z-2.723
X1.244 Y8.319 Z-2.642
X1.28 Y8.321 Z-2.555
X1.302 Z-2.464
X1.309 Y8.322 Z-2.37
G0 Z-1.77
X39.242 Y8.662
G1 Z-2.37 F200.
X39.236 Y8.666 Z-2.464
X39.217 Y8.677 Z-2.555
X39.186 Y8.696 Z-2.642
X39.144 Y8.721 Z-2.723
X39.091 Y8.752 Z-2.794
X39.03 Y8.789 Z-2.855
X38.961 Y8.83 Z-2.905
X38.886 Y8.874 Z-2.941
X38.807 Y8.921 Z-2.963
X38.726 Y8.969 Z-2.97
G3 X36.918 Y9.5 R3.798
G1 X4.963 F500.
G3 X4.491 Y8.559 R0.6
G1 X4.543 Y8.507 Z-2.965
X4.595 Y8.455 Z-2.952
X4.644 Y8.406 Z-2.929
X4.717 Y8.373 Z-2.891
X4.783 Y8.344 Z-2.841
X4.843 Y8.317 Z-2.782
X4.889 Y8.312 Z-2.725
X4.929 Y8.307 Z-2.663
X4.961 Y8.303 Z-2.597
X4.984 Y8.3 Z-2.527
X4.99 Z-2.503
X5.001 Y8.301 Z-2.437
X5.005 Z-2.37
G0 Z5.
X40.465 Y-0.387
Z-2.265
G1 Z-2.865 F200.
X40.458 Y-0.385 Z-2.959
X40.437 Y-0.38 Z-3.05
X40.402 Y-0.371 Z-3.137
X40.354 Y-0.359 Z-3.218
X40.295 Y-0.344 Z-3.289
X40.226 Y-0.326 Z-3.35
X40.148 Y-0.306 Z-3.4
X40.064 Y-0.284 Z-3.436
X39.975 Y-0.262 Z-3.458
X39.884 Y-0.238 Z-3.465
G3 X38.018 Y0.03 R8.75
G1 X37.963 F500.
X37.111 Y0.273
X36.273 Y0.561
X35.411 Y0.766
X34.536 Y0.91
X33.656 Y1.011
X32.773 Y1.08
X31.888 Y1.128
X31.002 Y1.161
X30.116 Y1.183
X29.23 Y1.198
X28.344 Y1.208
X27.458 Y1.215
X26.572 Y1.22
X25.686 Y1.223
X23.914 Y1.227
X20.369 Y1.229
X2.758 Y1.23
X2.704 Y1.245
X2.657 Y1.274
X2.359 Y1.602
X1.952 Y2.389
X1.704 Y3.24
X1.545 Y4.112
X1.441 Y4.992
X1.372 Y5.875
X1.325 Y6.76
X1.294 Y7.646
X1.274 Y8.532
X1.268 Y8.91
X1.236 Y9.093
X1.15 Y9.257
X1.017 Y9.388
X0.851 Y9.471
X0.668 Y9.5
X0.094
G3 X0.121 Y8.3 R0.6
X0.136 Y8.301 R0.6
G1 X0.23 Y8.304 Z-3.458
X0.322 Y8.307 Z-3.436
X0.408 Y8.31 Z-3.4
X0.489 Y8.313 Z-3.35
X0.56 Y8.316 Z-3.289
X0.621 Y8.318 Z-3.218
X0.671 Y8.319 Z-3.137
X0.707 Y8.321 Z-3.05
X0.729 Z-2.959
X0.736 Y8.322 Z-2.865
G0 Z-2.265
X40.339 Y8.662
G1 Z-2.865 F200.
X40.332 Y8.666 Z-2.959
X40.314 Y8.677 Z-3.05
X40.283 Y8.696 Z-3.137
X40.24 Y8.721 Z-3.218
X40.188 Y8.752 Z-3.289
X40.126 Y8.789 Z-3.35
X40.057 Y8.83 Z-3.4
X39.982 Y8.874 Z-3.436
X39.904 Y8.921 Z-3.458
X39.823 Y8.969 Z-3.465
G3 X38.014 Y9.5 R3.798
G1 X36.918 F500.
X36.768 Y9.493
X36.369 Y9.266
X35.936 Y8.92
X35.479 Y8.418
X35.009 Y7.704
X34.826 Y7.301
X34.748 Y7.094
X34.711 Y6.989
X34.659 Y6.831
X34.597 Y6.739
X34.258 Y6.454
X33.475 Y6.039
X32.62 Y5.806
X31.745 Y5.665
X30.864 Y5.577
X29.979 Y5.522
X29.094 Y5.488
X28.208 Y5.466
X27.322 Y5.452
X26.436 Y5.444
X25.55 Y5.438
X24.664 Y5.435
X22.891 Y5.432
X19.347 Y5.43
X7.273
X7.22 Y5.445
X7.032 Y5.562
X6.452 Y6.232
X6.108 Y7.049
X5.876 Y7.904
X5.646 Y8.76
X5.53 Y9.096
X5.444 Y9.259
X5.311 Y9.389
X5.146 Y9.471
X4.963 Y9.5
X0.668
G3 X0.695 Y8.3 R0.6
X0.71 Y8.301 R0.6
G1 X0.803 Y8.304 Z-3.458
X0.895 Y8.307 Z-3.436
X0.982 Y8.31 Z-3.4
X1.062 Y8.313 Z-3.35
X1.134 Y8.316 Z-3.289
X1.195 Y8.318 Z-3.218
X1.244 Y8.319 Z-3.137
X1.28 Y8.321 Z-3.05
X1.302 Z-2.959
X1.309 Y8.322 Z-2.865
G0 Z-2.265
X39.242 Y8.662
G1 Z-2.865 F200.
X39.236 Y8.666 Z-2.959
X39.217 Y8.677 Z-3.05
X39.186 Y8.696 Z-3.137
X39.144 Y8.721 Z-3.218
X39.091 Y8.752 Z-3.289
X39.03 Y8.789 Z-3.35
X38.961 Y8.83 Z-3.4
X38.886 Y8.874 Z-3.436
X38.807 Y8.921 Z-3.458
X38.726 Y8.969 Z-3.465
G3 X36.918 Y9.5 R3.798
G1 X4.963 F500.
G3 X4.491 Y8.559 R0.6
G1 X4.543 Y8.507 Z-3.46
X4.595 Y8.455 Z-3.447
X4.644 Y8.406 Z-3.424
X4.717 Y8.373 Z-3.386
X4.783 Y8.344 Z-3.336
X4.843 Y8.317 Z-3.277
X4.889 Y8.312 Z-3.22
X4.929 Y8.307 Z-3.158
X4.961 Y8.303 Z-3.092
X4.984 Y8.3 Z-3.022
X4.99 Z-2.998
X5.001 Y8.301 Z-2.932
X5.005 Z-2.865
G0 Z5.
X40.465 Y-0.387
Z-2.76
G1 Z-3.36 F200.
X40.458 Y-0.385 Z-3.454
X40.437 Y-0.38 Z-3.545
X40.402 Y-0.371 Z-3.632
X40.354 Y-0.359 Z-3.713
X40.295 Y-0.344 Z-3.784
X40.226 Y-0.326 Z-3.845
X40.148 Y-0.306 Z-3.895
X40.064 Y-0.284 Z-3.931
X39.975 Y-0.262 Z-3.953
X39.884 Y-0.238 Z-3.96
G3 X38.018 Y0.03 R8.75
G1 X37.963 F500.
X37.111 Y0.273
X36.273 Y0.561
X35.411 Y0.766
X34.536 Y0.91
X33.656 Y1.011
X32.773 Y1.08
X31.888 Y1.128
X31.002 Y1.161
X30.116 Y1.183
X29.23 Y1.198
X28.344 Y1.208
X27.458 Y1.215
X26.572 Y1.22
X25.686 Y1.223
X23.914 Y1.227
X20.369 Y1.229
X2.758 Y1.23
X2.704 Y1.245
X2.657 Y1.274
X2.359 Y1.602
X1.952 Y2.389
X1.704 Y3.24
X1.545 Y4.112
X1.441 Y4.992
X1.372 Y5.875
X1.325 Y6.76
X1.294 Y7.646
X1.274 Y8.532
X1.268 Y8.91
X1.236 Y9.093
X1.15 Y9.257
X1.017 Y9.388
X0.851 Y9.471
X0.668 Y9.5
X0.094
G3 X0.121 Y8.3 R0.6
X0.136 Y8.301 R0.6
G1 X0.23 Y8.304 Z-3.953
X0.322 Y8.307 Z-3.931
X0.408 Y8.31 Z-3.895
X0.489 Y8.313 Z-3.845
X0.56 Y8.316 Z-3.784
X0.621 Y8.318 Z-3.713
X0.671 Y8.319 Z-3.632
X0.707 Y8.321 Z-3.545
X0.729 Z-3.454
X0.736 Y8.322 Z-3.36
G0 Z-2.76
X40.339 Y8.662
G1 Z-3.36 F200.
X40.332 Y8.666 Z-3.454
X40.314 Y8.677 Z-3.545
X40.283 Y8.696 Z-3.632
X40.24 Y8.721 Z-3.713
X40.188 Y8.752 Z-3.784
X40.126 Y8.789 Z-3.845
X40.057 Y8.83 Z-3.895
X39.982 Y8.874 Z-3.931
X39.904 Y8.921 Z-3.953
X39.823 Y8.969 Z-3.96
G3 X38.014 Y9.5 R3.798
G1 X36.918 F500.
X36.768 Y9.493
X36.369 Y9.266
X35.936 Y8.92
X35.479 Y8.418
X35.009 Y7.704
X34.826 Y7.301
X34.748 Y7.094
X34.711 Y6.989
X34.659 Y6.831
X34.597 Y6.739
X34.258 Y6.454
X33.475 Y6.039
X32.62 Y5.806
X31.745 Y5.665
X30.864 Y5.577
X29.979 Y5.522
X29.094 Y5.488
X28.208 Y5.466
X27.322 Y5.452
X26.436 Y5.444
X25.55 Y5.438
X24.664 Y5.435
X22.891 Y5.432
X19.347 Y5.43
X7.273
X7.22 Y5.445
X7.032 Y5.562
X6.452 Y6.232
X6.108 Y7.049
X5.876 Y7.904
X5.646 Y8.76
X5.53 Y9.096
X5.444 Y9.259
X5.311 Y9.389
X5.146 Y9.471
X4.963 Y9.5
X0.668
G3 X0.695 Y8.3 R0.6
X0.71 Y8.301 R0.6
G1 X0.803 Y8.304 Z-3.953
X0.895 Y8.307 Z-3.931
X0.982 Y8.31 Z-3.895
X1.062 Y8.313 Z-3.845
X1.134 Y8.316 Z-3.784
X1.195 Y8.318 Z-3.713
X1.244 Y8.319 Z-3.632
X1.28 Y8.321 Z-3.545
X1.302 Z-3.454
X1.309 Y8.322 Z-3.36
G0 Z-2.76
X39.242 Y8.662
G1 Z-3.36 F200.
X39.236 Y8.666 Z-3.454
X39.217 Y8.677 Z-3.545
X39.186 Y8.696 Z-3.632
X39.144 Y8.721 Z-3.713
X39.091 Y8.752 Z-3.784
X39.03 Y8.789 Z-3.845
X38.961 Y8.83 Z-3.895
X38.886 Y8.874 Z-3.931
X38.807 Y8.921 Z-3.953
X38.726 Y8.969 Z-3.96
G3 X36.918 Y9.5 R3.798
G1 X4.963 F500.
G3 X4.491 Y8.559 R0.6
G1 X4.543 Y8.507 Z-3.955
X4.595 Y8.455 Z-3.942
X4.644 Y8.406 Z-3.919
X4.717 Y8.373 Z-3.881
X4.783 Y8.344 Z-3.831
X4.843 Y8.317 Z-3.772
X4.889 Y8.312 Z-3.715
X4.929 Y8.307 Z-3.653
X4.961 Y8.303 Z-3.587
X4.984 Y8.3 Z-3.517
X4.99 Z-3.493
X5.001 Y8.301 Z-3.427
X5.005 Z-3.36
G0 Z5.
X40.465 Y-0.387
Z-3.255
G1 Z-3.855 F200.
X40.458 Y-0.385 Z-3.949
X40.437 Y-0.38 Z-4.04
X40.402 Y-0.371 Z-4.127
X40.354 Y-0.359 Z-4.208
X40.295 Y-0.344 Z-4.279
X40.226 Y-0.326 Z-4.34
X40.148 Y-0.306 Z-4.39
X40.064 Y-0.284 Z-4.426
X39.975 Y-0.262 Z-4.448
X39.884 Y-0.238 Z-4.455
G3 X38.018 Y0.03 R8.75
G1 X37.963 F500.
X37.111 Y0.273
X36.273 Y0.561
X35.411 Y0.766
X34.536 Y0.91
X33.656 Y1.011
X32.773 Y1.08
X31.888 Y1.128
X31.002 Y1.161
X30.116 Y1.183
X29.23 Y1.198
X28.344 Y1.208
X27.458 Y1.215
X26.572 Y1.22
X25.686 Y1.223
X23.914 Y1.227
X20.369 Y1.229
X2.758 Y1.23
X2.704 Y1.245
X2.657 Y1.274
X2.359 Y1.602
X1.952 Y2.389
X1.704 Y3.24
X1.545 Y4.112
X1.441 Y4.992
X1.372 Y5.875
X1.325 Y6.76
X1.294 Y7.646
X1.274 Y8.532
X1.268 Y8.91
X1.236 Y9.093
X1.15 Y9.257
X1.017 Y9.388
X0.851 Y9.471
X0.668 Y9.5
X0.094
G3 X0.121 Y8.3 R0.6
X0.136 Y8.301 R0.6
G1 X0.23 Y8.304 Z-4.448
X0.322 Y8.307 Z-4.426
X0.408 Y8.31 Z-4.39
X0.489 Y8.313 Z-4.34
X0.56 Y8.316 Z-4.279
X0.621 Y8.318 Z-4.208
X0.671 Y8.319 Z-4.127
X0.707 Y8.321 Z-4.04
X0.729 Z-3.949
X0.736 Y8.322 Z-3.855
G0 Z-3.255
X40.339 Y8.662
G1 Z-3.855 F200.
X40.332 Y8.666 Z-3.949
X40.314 Y8.677 Z-4.04
X40.283 Y8.696 Z-4.127
X40.24 Y8.721 Z-4.208
X40.188 Y8.752 Z-4.279
X40.126 Y8.789 Z-4.34
X40.057 Y8.83 Z-4.39
X39.982 Y8.874 Z-4.426
X39.904 Y8.921 Z-4.448
X39.823 Y8.969 Z-4.455
G3 X38.014 Y9.5 R3.798
G1 X36.918 F500.
X36.768 Y9.493
X36.369 Y9.266
X35.936 Y8.92
X35.479 Y8.418
X35.009 Y7.704
X34.826 Y7.301
X34.748 Y7.094
X34.711 Y6.989
X34.659 Y6.831
X34.597 Y6.739
X34.258 Y6.454
X33.475 Y6.039
X32.62 Y5.806
X31.745 Y5.665
X30.864 Y5.577
X29.979 Y5.522
X29.094 Y5.488
X28.208 Y5.466
X27.322 Y5.452
X26.436 Y5.444
X25.55 Y5.438
X24.664 Y5.435
X22.891 Y5.432
X19.347 Y5.43
X7.273
X7.22 Y5.445
X7.032 Y5.562
X6.452 Y6.232
X6.108 Y7.049
X5.876 Y7.904
X5.646 Y8.76
X5.53 Y9.096
X5.444 Y9.259
X5.311 Y9.389
X5.146 Y9.471
X4.963 Y9.5
X0.668
G3 X0.695 Y8.3 R0.6
X0.71 Y8.301 R0.6
G1 X0.803 Y8.304 Z-4.448
X0.895 Y8.307 Z-4.426
X0.982 Y8.31 Z-4.39
X1.062 Y8.313 Z-4.34
X1.134 Y8.316 Z-4.279
X1.195 Y8.318 Z-4.208
X1.244 Y8.319 Z-4.127
X1.28 Y8.321 Z-4.04
X1.302 Z-3.949
X1.309 Y8.322 Z-3.855
G0 Z-3.255
X39.242 Y8.662
G1 Z-3.855 F200.
X39.236 Y8.666 Z-3.949
X39.217 Y8.677 Z-4.04
X39.186 Y8.696 Z-4.127
X39.144 Y8.721 Z-4.208
X39.091 Y8.752 Z-4.279
X39.03 Y8.789 Z-4.34
X38.961 Y8.83 Z-4.39
X38.886 Y8.874 Z-4.426
X38.807 Y8.921 Z-4.448
X38.726 Y8.969 Z-4.455
G3 X36.918 Y9.5 R3.798
G1 X4.963 F500.
G3 X4.491 Y8.559 R0.6
G1 X4.543 Y8.507 Z-4.45
X4.595 Y8.455 Z-4.437
X4.644 Y8.406 Z-4.414
X4.717 Y8.373 Z-4.376
X4.783 Y8.344 Z-4.326
X4.843 Y8.317 Z-4.267
X4.889 Y8.312 Z-4.21
X4.929 Y8.307 Z-4.148
X4.961 Y8.303 Z-4.082
X4.984 Y8.3 Z-4.012
X4.99 Z-3.988
X5.001 Y8.301 Z-3.922
X5.005 Z-3.855
G0 Z5.
X40.465 Y-0.387
Z-3.75
G1 Z-4.35 F200.
X40.458 Y-0.385 Z-4.444
X40.437 Y-0.38 Z-4.535
X40.402 Y-0.371 Z-4.622
X40.354 Y-0.359 Z-4.703
X40.295 Y-0.344 Z-4.774
X40.226 Y-0.326 Z-4.835
X40.148 Y-0.306 Z-4.885
X40.064 Y-0.284 Z-4.921
X39.975 Y-0.262 Z-4.943
X39.884 Y-0.238 Z-4.95
G3 X38.018 Y0.03 R8.75
G1 X37.963 F500.
X37.111 Y0.273
X36.273 Y0.561
X35.411 Y0.766
X34.536 Y0.91
X33.656 Y1.011
X32.773 Y1.08
X31.888 Y1.128
X31.002 Y1.161
X30.116 Y1.183
X29.23 Y1.198
X28.344 Y1.208
X27.458 Y1.215
X26.572 Y1.22
X25.686 Y1.223
X23.914 Y1.227
X20.369 Y1.229
X2.758 Y1.23
X2.704 Y1.245
X2.657 Y1.274
X2.359 Y1.602
X1.952 Y2.389
X1.704 Y3.24
X1.545 Y4.112
X1.441 Y4.992
X1.372 Y5.875
X1.325 Y6.76
X1.294 Y7.646
X1.274 Y8.532
X1.268 Y8.91
X1.236 Y9.093
X1.15 Y9.257
X1.017 Y9.388
X0.851 Y9.471
X0.668 Y9.5
X0.094
G3 X0.121 Y8.3 R0.6
X0.136 Y8.301 R0.6
G1 X0.23 Y8.304 Z-4.943
X0.322 Y8.307 Z-4.921
X0.408 Y8.31 Z-4.885
X0.489 Y8.313 Z-4.835
X0.56 Y8.316 Z-4.774
X0.621 Y8.318 Z-4.703
X0.671 Y8.319 Z-4.622
X0.707 Y8.321 Z-4.535
X0.729 Z-4.444
X0.736 Y8.322 Z-4.35
G0 Z-3.75
X40.339 Y8.662
G1 Z-4.35 F200.
X40.332 Y8.666 Z-4.444
X40.314 Y8.677 Z-4.535
X40.283 Y8.696 Z-4.622
X40.24 Y8.721 Z-4.703
X40.188 Y8.752 Z-4.774
X40.126 Y8.789 Z-4.835
X40.057 Y8.83 Z-4.885
X39.982 Y8.874 Z-4.921
X39.904 Y8.921 Z-4.943
X39.823 Y8.969 Z-4.95
G3 X38.014 Y9.5 R3.798
G1 X36.918 F500.
X36.768 Y9.493
X36.369 Y9.266
X35.936 Y8.92
X35.479 Y8.418
X35.009 Y7.704
X34.826 Y7.301
X34.748 Y7.094
X34.711 Y6.989
X34.659 Y6.831
X34.597 Y6.739
X34.258 Y6.454
X33.475 Y6.039
X32.62 Y5.806
X31.745 Y5.665
X30.864 Y5.577
X29.979 Y5.522
X29.094 Y5.488
X28.208 Y5.466
X27.322 Y5.452
X26.436 Y5.444
X25.55 Y5.438
X24.664 Y5.435
X22.891 Y5.432
X19.347 Y5.43
X7.273
X7.22 Y5.445
X7.032 Y5.562
X6.452 Y6.232
X6.108 Y7.049
X5.876 Y7.904
X5.646 Y8.76
X5.53 Y9.096
X5.444 Y9.259
X5.311 Y9.389
X5.146 Y9.471
X4.963 Y9.5
X0.668
G3 X0.695 Y8.3 R0.6
X0.71 Y8.301 R0.6
G1 X0.803 Y8.304 Z-4.943
X0.895 Y8.307 Z-4.921
X0.982 Y8.31 Z-4.885
X1.062 Y8.313 Z-4.835
X1.134 Y8.316 Z-4.774
X1.195 Y8.318 Z-4.703
X1.244 Y8.319 Z-4.622
X1.28 Y8.321 Z-4.535
X1.302 Z-4.444
X1.309 Y8.322 Z-4.35
G0 Z-3.75
X39.242 Y8.662
G1 Z-4.35 F200.
X39.236 Y8.666 Z-4.444
X39.217 Y8.677 Z-4.535
X39.186 Y8.696 Z-4.622
X39.144 Y8.721 Z-4.703
X39.091 Y8.752 Z-4.774
X39.03 Y8.789 Z-4.835
X38.961 Y8.83 Z-4.885
X38.886 Y8.874 Z-4.921
X38.807 Y8.921 Z-4.943
X38.726 Y8.969 Z-4.95
G3 X36.918 Y9.5 R3.798
G1 X4.963 F500.
G3 X4.491 Y8.559 R0.6
G1 X4.543 Y8.507 Z-4.945
X4.595 Y8.455 Z-4.932
X4.644 Y8.406 Z-4.909
X4.717 Y8.373 Z-4.871
X4.783 Y8.344 Z-4.821
X4.843 Y8.317 Z-4.762
X4.889 Y8.312 Z-4.705
X4.929 Y8.307 Z-4.643
X4.961 Y8.303 Z-4.577
X4.984 Y8.3 Z-4.507
X4.99 Z-4.483
X5.001 Y8.301 Z-4.417
X5.005 Z-4.35
G0 Z5.
X40.465 Y-0.387
Z-4.245
G1 Z-4.845 F200.
X40.458 Y-0.385 Z-4.939
X40.437 Y-0.38 Z-5.03
X40.402 Y-0.371 Z-5.117
X40.354 Y-0.359 Z-5.198
X40.295 Y-0.344 Z-5.269
X40.226 Y-0.326 Z-5.33
X40.148 Y-0.306 Z-5.38
X40.064 Y-0.284 Z-5.416
X39.975 Y-0.262 Z-5.438
X39.884 Y-0.238 Z-5.445
G3 X38.018 Y0.03 R8.75
G1 X37.963 F500.
X37.111 Y0.273
X36.273 Y0.561
X35.411 Y0.766
X34.536 Y0.91
X33.656 Y1.011
X32.773 Y1.08
X31.888 Y1.128
X31.002 Y1.161
X30.116 Y1.183
X29.23 Y1.198
X28.344 Y1.208
X27.458 Y1.215
X26.572 Y1.22
X25.686 Y1.223
X23.914 Y1.227
X20.369 Y1.229
X2.758 Y1.23
X2.704 Y1.245
X2.657 Y1.274
X2.359 Y1.602
X1.952 Y2.389
X1.704 Y3.24
X1.545 Y4.112
X1.441 Y4.992
X1.372 Y5.875
X1.325 Y6.76
X1.294 Y7.646
X1.274 Y8.532
X1.268 Y8.91
X1.236 Y9.093
X1.15 Y9.257
X1.017 Y9.388
X0.851 Y9.471
X0.668 Y9.5
X0.094
G3 X0.121 Y8.3 R0.6
X0.136 Y8.301 R0.6
G1 X0.23 Y8.304 Z-5.438
X0.322 Y8.307 Z-5.416
X0.408 Y8.31 Z-5.38
X0.489 Y8.313 Z-5.33
X0.56 Y8.316 Z-5.269
X0.621 Y8.318 Z-5.198
X0.671 Y8.319 Z-5.117
X0.707 Y8.321 Z-5.03
X0.729 Z-4.939
X0.736 Y8.322 Z-4.845
G0 Z-4.245
X40.339 Y8.662
G1 Z-4.845 F200.
X40.332 Y8.666 Z-4.939
X40.314 Y8.677 Z-5.03
X40.283 Y8.696 Z-5.117
X40.24 Y8.721 Z-5.198
X40.188 Y8.752 Z-5.269
X40.126 Y8.789 Z-5.33
X40.057 Y8.83 Z-5.38
X39.982 Y8.874 Z-5.416
X39.904 Y8.921 Z-5.438
X39.823 Y8.969 Z-5.445
G3 X38.014 Y9.5 R3.798
G1 X36.918 F500.
X36.768 Y9.493
X36.369 Y9.266
X35.936 Y8.92
X35.479 Y8.418
X35.009 Y7.704
X34.826 Y7.301
X34.748 Y7.094
X34.711 Y6.989
X34.659 Y6.831
X34.597 Y6.739
X34.258 Y6.454
X33.475 Y6.039
X32.62 Y5.806
X31.745 Y5.665
X30.864 Y5.577
X29.979 Y5.522
X29.094 Y5.488
X28.208 Y5.466
X27.322 Y5.452
X26.436 Y5.444
X25.55 Y5.438
X24.664 Y5.435
X22.891 Y5.432
X19.347 Y5.43
X7.273
X7.22 Y5.445
X7.032 Y5.562
X6.452 Y6.232
X6.108 Y7.049
X5.876 Y7.904
X5.646 Y8.76
X5.53 Y9.096
X5.444 Y9.259
X5.311 Y9.389
X5.146 Y9.471
X4.963 Y9.5
X0.668
G3 X0.695 Y8.3 R0.6
X0.71 Y8.301 R0.6
G1 X0.803 Y8.304 Z-5.438
X0.895 Y8.307 Z-5.416
X0.982 Y8.31 Z-5.38
X1.062 Y8.313 Z-5.33
X1.134 Y8.316 Z-5.269
X1.195 Y8.318 Z-5.198
X1.244 Y8.319 Z-5.117
X1.28 Y8.321 Z-5.03
X1.302 Z-4.939
X1.309 Y8.322 Z-4.845
G0 Z-4.245
X39.242 Y8.662
G1 Z-4.845 F200.
X39.236 Y8.666 Z-4.939
X39.217 Y8.677 Z-5.03
X39.186 Y8.696 Z-5.117
X39.144 Y8.721 Z-5.198
X39.091 Y8.752 Z-5.269
X39.03 Y8.789 Z-5.33
X38.961 Y8.83 Z-5.38
X38.886 Y8.874 Z-5.416
X38.807 Y8.921 Z-5.438
X38.726 Y8.969 Z-5.445
G3 X36.918 Y9.5 R3.798
G1 X4.963 F500.
G3 X4.491 Y8.559 R0.6
G1 X4.543 Y8.507 Z-5.44
X4.595 Y8.455 Z-5.427
X4.644 Y8.406 Z-5.404
X4.717 Y8.373 Z-5.366
X4.783 Y8.344 Z-5.316
X4.843 Y8.317 Z-5.257
X4.889 Y8.312 Z-5.2
X4.929 Y8.307 Z-5.138
X4.961 Y8.303 Z-5.072
X4.984 Y8.3 Z-5.002
X4.99 Z-4.978
X5.001 Y8.301 Z-4.912
X5.005 Z-4.845
G0 Z5.
X40.465 Y-0.387
Z-4.74
G1 Z-5.34 F200.
X40.458 Y-0.385 Z-5.434
X40.437 Y-0.38 Z-5.525
X40.402 Y-0.371 Z-5.612
X40.354 Y-0.359 Z-5.693
X40.295 Y-0.344 Z-5.764
X40.226 Y-0.326 Z-5.825
X40.148 Y-0.306 Z-5.875
X40.064 Y-0.284 Z-5.911
X39.975 Y-0.262 Z-5.933
X39.884 Y-0.238 Z-5.94
G3 X38.018 Y0.03 R8.75
G1 X37.963 F500.
X37.111 Y0.273
X36.273 Y0.561
X35.411 Y0.766
X34.536 Y0.91
X33.656 Y1.011
X32.773 Y1.08
X31.888 Y1.128
X31.002 Y1.161
X30.116 Y1.183
X29.23 Y1.198
X28.344 Y1.208
X27.458 Y1.215
X26.572 Y1.22
X25.686 Y1.223
X23.914 Y1.227
X20.369 Y1.229
X2.758 Y1.23
X2.704 Y1.245
X2.657 Y1.274
X2.359 Y1.602
X1.952 Y2.389
X1.704 Y3.24
X1.545 Y4.112
X1.441 Y4.992
X1.372 Y5.875
X1.325 Y6.76
X1.294 Y7.646
X1.274 Y8.532
X1.268 Y8.91
X1.236 Y9.093
X1.15 Y9.257
X1.017 Y9.388
X0.851 Y9.471
X0.668 Y9.5
X0.094
G3 X0.121 Y8.3 R0.6
X0.136 Y8.301 R0.6
G1 X0.23 Y8.304 Z-5.933
X0.322 Y8.307 Z-5.911
X0.408 Y8.31 Z-5.875
X0.489 Y8.313 Z-5.825
X0.56 Y8.316 Z-5.764
X0.621 Y8.318 Z-5.693
X0.671 Y8.319 Z-5.612
X0.707 Y8.321 Z-5.525
X0.729 Z-5.434
X0.736 Y8.322 Z-5.34
G0 Z-4.74
X40.339 Y8.662
G1 Z-5.34 F200.
X40.332 Y8.666 Z-5.434
X40.314 Y8.677 Z-5.525
X40.283 Y8.696 Z-5.612
X40.24 Y8.721 Z-5.693
X40.188 Y8.752 Z-5.764
X40.126 Y8.789 Z-5.825
X40.057 Y8.83 Z-5.875
X39.982 Y8.874 Z-5.911
X39.904 Y8.921 Z-5.933
X39.823 Y8.969 Z-5.94
G3 X38.014 Y9.5 R3.798
G1 X36.918 F500.
X36.768 Y9.493
X36.369 Y9.266
X35.936 Y8.92
X35.479 Y8.418
X35.009 Y7.704
X34.826 Y7.301
X34.748 Y7.094
X34.711 Y6.989
X34.659 Y6.831
X34.597 Y6.739
X34.258 Y6.454
X33.475 Y6.039
X32.62 Y5.806
X31.745 Y5.665
X30.864 Y5.577
X29.979 Y5.522
X29.094 Y5.488
X28.208 Y5.466
X27.322 Y5.452
X26.436 Y5.444
X25.55 Y5.438
X24.664 Y5.435
X22.891 Y5.432
X19.347 Y5.43
X7.273
X7.22 Y5.445
X7.032 Y5.562
X6.452 Y6.232
X6.108 Y7.049
X5.876 Y7.904
X5.646 Y8.76
X5.53 Y9.096
X5.444 Y9.259
X5.311 Y9.389
X5.146 Y9.471
X4.963 Y9.5
X0.668
G3 X0.695 Y8.3 R0.6
X0.71 Y8.301 R0.6
G1 X0.803 Y8.304 Z-5.933
X0.895 Y8.307 Z-5.911
X0.982 Y8.31 Z-5.875
X1.062 Y8.313 Z-5.825
X1.134 Y8.316 Z-5.764
X1.195 Y8.318 Z-5.693
X1.244 Y8.319 Z-5.612
X1.28 Y8.321 Z-5.525
X1.302 Z-5.434
X1.309 Y8.322 Z-5.34
G0 Z-4.74
X39.242 Y8.662
G1 Z-5.34 F200.
X39.236 Y8.666 Z-5.434
X39.217 Y8.677 Z-5.525
X39.186 Y8.696 Z-5.612
X39.144 Y8.721 Z-5.693
X39.091 Y8.752 Z-5.764
X39.03 Y8.789 Z-5.825
X38.961 Y8.83 Z-5.875
X38.886 Y8.874 Z-5.911
X38.807 Y8.921 Z-5.933
X38.726 Y8.969 Z-5.94
G3 X36.918 Y9.5 R3.798
G1 X4.963 F500.
G3 X4.491 Y8.559 R0.6
G1 X4.543 Y8.507 Z-5.935
X4.595 Y8.455 Z-5.922
X4.644 Y8.406 Z-5.899
X4.717 Y8.373 Z-5.861
X4.783 Y8.344 Z-5.811
X4.843 Y8.317 Z-5.752
X4.889 Y8.312 Z-5.695
X4.929 Y8.307 Z-5.633
X4.961 Y8.303 Z-5.567
X4.984 Y8.3 Z-5.497
X4.99 Z-5.473
X5.001 Y8.301 Z-5.407
X5.005 Z-5.34
G0 Z5.
X40.465 Y-0.387
Z-5.235
G1 Z-5.835 F200.
X40.458 Y-0.385 Z-5.929
X40.437 Y-0.38 Z-6.02
X40.402 Y-0.371 Z-6.107
X40.354 Y-0.359 Z-6.188
X40.295 Y-0.344 Z-6.259
X40.226 Y-0.326 Z-6.32
X40.148 Y-0.306 Z-6.37
X40.064 Y-0.284 Z-6.406
X39.975 Y-0.262 Z-6.428
X39.884 Y-0.238 Z-6.435
G3 X38.018 Y0.03 R8.75
G1 X37.963 F500.
X37.111 Y0.273
X36.273 Y0.561
X35.411 Y0.766
X34.536 Y0.91
X33.656 Y1.011
X32.773 Y1.08
X31.888 Y1.128
X31.002 Y1.161
X30.116 Y1.183
X29.23 Y1.198
X28.344 Y1.208
X27.458 Y1.215
X26.572 Y1.22
X25.686 Y1.223
X23.914 Y1.227
X20.369 Y1.229
X2.758 Y1.23
X2.704 Y1.245
X2.657 Y1.274
X2.359 Y1.602
X1.952 Y2.389
X1.704 Y3.24
X1.545 Y4.112
X1.441 Y4.992
X1.372 Y5.875
X1.325 Y6.76
X1.294 Y7.646
X1.274 Y8.532
X1.268 Y8.91
X1.236 Y9.093
X1.15 Y9.257
X1.017 Y9.388
X0.851 Y9.471
X0.668 Y9.5
X0.094
G3 X0.121 Y8.3 R0.6
X0.136 Y8.301 R0.6
G1 X0.23 Y8.304 Z-6.428
X0.322 Y8.307 Z-6.406
X0.408 Y8.31 Z-6.37
X0.489 Y8.313 Z-6.32
X0.56 Y8.316 Z-6.259
X0.621 Y8.318 Z-6.188
X0.671 Y8.319 Z-6.107
X0.707 Y8.321 Z-6.02
X0.729 Z-5.929
X0.736 Y8.322 Z-5.835
G0 Z-5.235
X40.339 Y8.662
G1 Z-5.835 F200.
X40.332 Y8.666 Z-5.929
X40.314 Y8.677 Z-6.02
X40.283 Y8.696 Z-6.107
X40.24 Y8.721 Z-6.188
X40.188 Y8.752 Z-6.259
X40.126 Y8.789 Z-6.32
X40.057 Y8.83 Z-6.37
X39.982 Y8.874 Z-6.406
X39.904 Y8.921 Z-6.428
X39.823 Y8.969 Z-6.435
G3 X38.014 Y9.5 R3.798
G1 X36.918 F500.
X36.768 Y9.493
X36.369 Y9.266
X35.936 Y8.92
X35.479 Y8.418
X35.009 Y7.704
X34.826 Y7.301
X34.748 Y7.094
X34.711 Y6.989
X34.659 Y6.831
X34.597 Y6.739
X34.258 Y6.454
X33.475 Y6.039
X32.62 Y5.806
X31.745 Y5.665
X30.864 Y5.577
X29.979 Y5.522
X29.094 Y5.488
X28.208 Y5.466
X27.322 Y5.452
X26.436 Y5.444
X25.55 Y5.438
X24.664 Y5.435
X22.891 Y5.432
X19.347 Y5.43
X7.273
X7.22 Y5.445
X7.032 Y5.562
X6.452 Y6.232
X6.108 Y7.049
X5.876 Y7.904
X5.646 Y8.76
X5.53 Y9.096
X5.444 Y9.259
X5.311 Y9.389
X5.146 Y9.471
X4.963 Y9.5
X0.668
G3 X0.695 Y8.3 R0.6
X0.71 Y8.301 R0.6
G1 X0.803 Y8.304 Z-6.428
X0.895 Y8.307 Z-6.406
X0.982 Y8.31 Z-6.37
X1.062 Y8.313 Z-6.32
X1.134 Y8.316 Z-6.259
X1.195 Y8.318 Z-6.188
X1.244 Y8.319 Z-6.107
X1.28 Y8.321 Z-6.02
X1.302 Z-5.929
X1.309 Y8.322 Z-5.835
G0 Z-5.235
X39.242 Y8.662
G1 Z-5.835 F200.
X39.236 Y8.666 Z-5.929
X39.217 Y8.677 Z-6.02
X39.186 Y8.696 Z-6.107
X39.144 Y8.721 Z-6.188
X39.091 Y8.752 Z-6.259
X39.03 Y8.789 Z-6.32
X38.961 Y8.83 Z-6.37
X38.886 Y8.874 Z-6.406
X38.807 Y8.921 Z-6.428
X38.726 Y8.969 Z-6.435
G3 X36.918 Y9.5 R3.798
G1 X4.963 F500.
G3 X4.491 Y8.559 R0.6
G1 X4.543 Y8.507 Z-6.43
X4.595 Y8.455 Z-6.417
X4.644 Y8.406 Z-6.394
X4.717 Y8.373 Z-6.356
X4.783 Y8.344 Z-6.306
X4.843 Y8.317 Z-6.247
X4.889 Y8.312 Z-6.19
X4.929 Y8.307 Z-6.128
X4.961 Y8.303 Z-6.062
X4.984 Y8.3 Z-5.992
X4.99 Z-5.968
X5.001 Y8.301 Z-5.902
X5.005 Z-5.835
G0 Z5.
X40.465 Y-0.387
Z-5.73
G1 Z-6.33 F200.
X40.458 Y-0.385 Z-6.424
X40.437 Y-0.38 Z-6.515
X40.402 Y-0.371 Z-6.602
X40.354 Y-0.359 Z-6.683
X40.295 Y-0.344 Z-6.754
X40.226 Y-0.326 Z-6.815
X40.148 Y-0.306 Z-6.865
X40.064 Y-0.284 Z-6.901
X39.975 Y-0.262 Z-6.923
X39.884 Y-0.238 Z-6.93
G3 X38.018 Y0.03 R8.75
G1 X37.963 F500.
X37.111 Y0.273
X36.273 Y0.561
X35.411 Y0.766
X34.536 Y0.91
X33.656 Y1.011
X32.773 Y1.08
X31.888 Y1.128
X31.002 Y1.161
X30.116 Y1.183
X29.23 Y1.198
X28.344 Y1.208
X27.458 Y1.215
X26.572 Y1.22
X25.686 Y1.223
X23.914 Y1.227
X20.369 Y1.229
X2.758 Y1.23
X2.704 Y1.245
X2.657 Y1.274
X2.359 Y1.602
X1.952 Y2.389
X1.704 Y3.24
X1.545 Y4.112
X1.441 Y4.992
X1.372 Y5.875
X1.325 Y6.76
X1.294 Y7.646
X1.274 Y8.532
X1.268 Y8.91
X1.236 Y9.093
X1.15 Y9.257
X1.017 Y9.388
X0.851 Y9.471
X0.668 Y9.5
X0.094
G3 X0.121 Y8.3 R0.6
X0.136 Y8.301 R0.6
G1 X0.23 Y8.304 Z-6.923
X0.322 Y8.307 Z-6.901
X0.408 Y8.31 Z-6.865
X0.489 Y8.313 Z-6.815
X0.56 Y8.316 Z-6.754
X0.621 Y8.318 Z-6.683
X0.671 Y8.319 Z-6.602
X0.707 Y8.321 Z-6.515
X0.729 Z-6.424
X0.736 Y8.322 Z-6.33
G0 Z-5.73
X40.339 Y8.662
G1 Z-6.33 F200.
X40.332 Y8.666 Z-6.424
X40.314 Y8.677 Z-6.515
X40.283 Y8.696 Z-6.602
X40.24 Y8.721 Z-6.683
X40.188 Y8.752 Z-6.754
X40.126 Y8.789 Z-6.815
X40.057 Y8.83 Z-6.865
X39.982 Y8.874 Z-6.901
X39.904 Y8.921 Z-6.923
X39.823 Y8.969 Z-6.93
G3 X38.014 Y9.5 R3.798
G1 X36.918 F500.
X36.768 Y9.493
X36.369 Y9.266
X35.936 Y8.92
X35.479 Y8.418
X35.009 Y7.704
X34.826 Y7.301
X34.748 Y7.094
X34.711 Y6.989
X34.659 Y6.831
X34.597 Y6.739
X34.258 Y6.454
X33.475 Y6.039
X32.62 Y5.806
X31.745 Y5.665
X30.864 Y5.577
X29.979 Y5.522
X29.094 Y5.488
X28.208 Y5.466
X27.322 Y5.452
X26.436 Y5.444
X25.55 Y5.438
X24.664 Y5.435
X22.891 Y5.432
X19.347 Y5.43
X7.273
X7.22 Y5.445
X7.032 Y5.562
X6.452 Y6.232
X6.108 Y7.049
X5.876 Y7.904
X5.646 Y8.76
X5.53 Y9.096
X5.444 Y9.259
X5.311 Y9.389
X5.146 Y9.471
X4.963 Y9.5
X0.668
G3 X0.695 Y8.3 R0.6
X0.71 Y8.301 R0.6
G1 X0.803 Y8.304 Z-6.923
X0.895 Y8.307 Z-6.901
X0.982 Y8.31 Z-6.865
X1.062 Y8.313 Z-6.815
X1.134 Y8.316 Z-6.754
X1.195 Y8.318 Z-6.683
X1.244 Y8.319 Z-6.602
X1.28 Y8.321 Z-6.515
X1.302 Z-6.424
X1.309 Y8.322 Z-6.33
G0 Z-5.73
X39.242 Y8.662
G1 Z-6.33 F200.
X39.236 Y8.666 Z-6.424
X39.217 Y8.677 Z-6.515
X39.186 Y8.696 Z-6.602
X39.144 Y8.721 Z-6.683
X39.091 Y8.752 Z-6.754
X39.03 Y8.789 Z-6.815
X38.961 Y8.83 Z-6.865
X38.886 Y8.874 Z-6.901
X38.807 Y8.921 Z-6.923
X38.726 Y8.969 Z-6.93
G3 X36.918 Y9.5 R3.798
G1 X4.963 F500.
G3 X4.491 Y8.559 R0.6
G1 X4.543 Y8.507 Z-6.925
X4.595 Y8.455 Z-6.912
X4.644 Y8.406 Z-6.889
X4.717 Y8.373 Z-6.851
X4.783 Y8.344 Z-6.801
X4.843 Y8.317 Z-6.742
X4.889 Y8.312 Z-6.685
X4.929 Y8.307 Z-6.623
X4.961 Y8.303 Z-6.557
X4.984 Y8.3 Z-6.487
X4.99 Z-6.463
X5.001 Y8.301 Z-6.397
X5.005 Z-6.33
G0 Z5.
X40.465 Y-0.387
Z-6.225
G1 Z-6.825 F200.
X40.458 Y-0.385 Z-6.919
X40.437 Y-0.38 Z-7.01
X40.402 Y-0.371 Z-7.097
X40.354 Y-0.359 Z-7.178
X40.295 Y-0.344 Z-7.249
X40.226 Y-0.326 Z-7.31
X40.148 Y-0.306 Z-7.36
X40.064 Y-0.284 Z-7.396
X39.975 Y-0.262 Z-7.418
X39.884 Y-0.238 Z-7.425
G3 X38.018 Y0.03 R8.75
G1 X37.963 F500.
X37.111 Y0.273
X36.273 Y0.561
X35.411 Y0.766
X34.536 Y0.91
X33.656 Y1.011
X32.773 Y1.08
X31.888 Y1.128
X31.002 Y1.161
X30.116 Y1.183
X29.23 Y1.198
X28.344 Y1.208
X27.458 Y1.215
X26.572 Y1.22
X25.686 Y1.223
X23.914 Y1.227
X20.369 Y1.229
X2.758 Y1.23
X2.704 Y1.245
X2.657 Y1.274
X2.359 Y1.602
X1.952 Y2.389
X1.704 Y3.24
X1.545 Y4.112
X1.441 Y4.992
X1.372 Y5.875
X1.325 Y6.76
X1.294 Y7.646
X1.274 Y8.532
X1.268 Y8.91
X1.236 Y9.093
X1.15 Y9.257
X1.017 Y9.388
X0.851 Y9.471
X0.668 Y9.5
X0.094
G3 X0.121 Y8.3 R0.6
X0.136 Y8.301 R0.6
G1 X0.23 Y8.304 Z-7.418
X0.322 Y8.307 Z-7.396
X0.408 Y8.31 Z-7.36
X0.489 Y8.313 Z-7.31
X0.56 Y8.316 Z-7.249
X0.621 Y8.318 Z-7.178
X0.671 Y8.319 Z-7.097
X0.707 Y8.321 Z-7.01
X0.729 Z-6.919
X0.736 Y8.322 Z-6.825
G0 Z-6.225
X40.339 Y8.662
G1 Z-6.825 F200.
X40.332 Y8.666 Z-6.919
X40.314 Y8.677 Z-7.01
X40.283 Y8.696 Z-7.097
X40.24 Y8.721 Z-7.178
X40.188 Y8.752 Z-7.249
X40.126 Y8.789 Z-7.31
X40.057 Y8.83 Z-7.36
X39.982 Y8.874 Z-7.396
X39.904 Y8.921 Z-7.418
X39.823 Y8.969 Z-7.425
G3 X38.014 Y9.5 R3.798
G1 X36.918 F500.
X36.768 Y9.493
X36.369 Y9.266
X35.936 Y8.92
X35.479 Y8.418
X35.009 Y7.704
X34.826 Y7.301
X34.748 Y7.094
X34.711 Y6.989
X34.659 Y6.831
X34.597 Y6.739
X34.258 Y6.454
X33.475 Y6.039
X32.62 Y5.806
X31.745 Y5.665
X30.864 Y5.577
X29.979 Y5.522
X29.094 Y5.488
X28.208 Y5.466
X27.322 Y5.452
X26.436 Y5.444
X25.55 Y5.438
X24.664 Y5.435
X22.891 Y5.432
X19.347 Y5.43
X7.273
X7.22 Y5.445
X7.032 Y5.562
X6.452 Y6.232
X6.108 Y7.049
X5.876 Y7.904
X5.646 Y8.76
X5.53 Y9.096
X5.444 Y9.259
X5.311 Y9.389
X5.146 Y9.471
X4.963 Y9.5
X0.668
G3 X0.695 Y8.3 R0.6
X0.71 Y8.301 R0.6
G1 X0.803 Y8.304 Z-7.418
X0.895 Y8.307 Z-7.396
X0.982 Y8.31 Z-7.36
X1.062 Y8.313 Z-7.31
X1.134 Y8.316 Z-7.249
X1.195 Y8.318 Z-7.178
X1.244 Y8.319 Z-7.097
X1.28 Y8.321 Z-7.01
X1.302 Z-6.919
X1.309 Y8.322 Z-6.825
G0 Z-6.225
X39.242 Y8.662
G1 Z-6.825 F200.
X39.236 Y8.666 Z-6.919
X39.217 Y8.677 Z-7.01
X39.186 Y8.696 Z-7.097
X39.144 Y8.721 Z-7.178
X39.091 Y8.752 Z-7.249
X39.03 Y8.789 Z-7.31
X38.961 Y8.83 Z-7.36
X38.886 Y8.874 Z-7.396
X38.807 Y8.921 Z-7.418
X38.726 Y8.969 Z-7.425
G3 X36.918 Y9.5 R3.798
G1 X4.963 F500.
G3 X4.491 Y8.559 R0.6
G1 X4.543 Y8.507 Z-7.42
X4.595 Y8.455 Z-7.407
X4.644 Y8.406 Z-7.384
X4.717 Y8.373 Z-7.346
X4.783 Y8.344 Z-7.296
X4.843 Y8.317 Z-7.237
X4.889 Y8.312 Z-7.18
X4.929 Y8.307 Z-7.118
X4.961 Y8.303 Z-7.052
X4.984 Y8.3 Z-6.982
X4.99 Z-6.958
X5.001 Y8.301 Z-6.892
X5.005 Z-6.825
G0 Z5.
X40.465 Y-0.387
Z-6.7
G1 Z-7.3 F200.
X40.458 Y-0.385 Z-7.394
X40.437 Y-0.38 Z-7.485
X40.402 Y-0.371 Z-7.572
X40.354 Y-0.359 Z-7.653
X40.295 Y-0.344 Z-7.724
X40.226 Y-0.326 Z-7.785
X40.148 Y-0.306 Z-7.835
X40.064 Y-0.284 Z-7.871
X39.975 Y-0.262 Z-7.893
X39.884 Y-0.238 Z-7.9
G3 X38.018 Y0.03 R8.75
G1 X37.963 F500.
X37.111 Y0.273
X36.273 Y0.561
X35.411 Y0.766
X34.536 Y0.91
X33.656 Y1.011
X32.773 Y1.08
X31.888 Y1.128
X31.002 Y1.161
X30.116 Y1.183
X29.23 Y1.198
X28.344 Y1.208
X27.458 Y1.215
X26.572 Y1.22
X25.686 Y1.223
X23.914 Y1.227
X20.369 Y1.229
X2.758 Y1.23
X2.704 Y1.245
X2.657 Y1.274
X2.359 Y1.602
X1.952 Y2.389
X1.704 Y3.24
X1.545 Y4.112
X1.441 Y4.992
X1.372 Y5.875
X1.325 Y6.76
X1.294 Y7.646
X1.274 Y8.532
X1.268 Y8.91
X1.236 Y9.093
X1.15 Y9.257
X1.017 Y9.388
X0.851 Y9.471
X0.668 Y9.5
X0.094
G3 X0.121 Y8.3 R0.6
X0.136 Y8.301 R0.6
G1 X0.23 Y8.304 Z-7.893
X0.322 Y8.307 Z-7.871
X0.408 Y8.31 Z-7.835
X0.489 Y8.313 Z-7.785
X0.56 Y8.316 Z-7.724
X0.621 Y8.318 Z-7.653
X0.671 Y8.319 Z-7.572
X0.707 Y8.321 Z-7.485
X0.729 Z-7.394
X0.736 Y8.322 Z-7.3
G0 Z-6.7
X40.339 Y8.662
G1 Z-7.3 F200.
X40.332 Y8.666 Z-7.394
X40.314 Y8.677 Z-7.485
X40.283 Y8.696 Z-7.572
X40.24 Y8.721 Z-7.653
X40.188 Y8.752 Z-7.724
X40.126 Y8.789 Z-7.785
X40.057 Y8.83 Z-7.835
X39.982 Y8.874 Z-7.871
X39.904 Y8.921 Z-7.893
X39.823 Y8.969 Z-7.9
G3 X38.014 Y9.5 R3.798
G1 X36.918 F500.
X36.768 Y9.493
X36.369 Y9.266
X35.936 Y8.92
X35.479 Y8.418
X35.009 Y7.704
X34.826 Y7.301
X34.748 Y7.094
X34.711 Y6.989
X34.659 Y6.831
X34.597 Y6.739
X34.258 Y6.454
X33.475 Y6.039
X32.62 Y5.806
X31.745 Y5.665
X30.864 Y5.577
X29.979 Y5.522
X29.094 Y5.488
X28.208 Y5.466
X27.322 Y5.452
X26.436 Y5.444
X25.55 Y5.438
X24.664 Y5.435
X22.891 Y5.432
X19.347 Y5.43
X7.273
X7.22 Y5.445
X7.032 Y5.562
X6.452 Y6.232
X6.108 Y7.049
X5.876 Y7.904
X5.646 Y8.76
X5.53 Y9.096
X5.444 Y9.259
X5.311 Y9.389
X5.146 Y9.471
X4.963 Y9.5
X0.668
G3 X0.695 Y8.3 R0.6
X0.71 Y8.301 R0.6
G1 X0.803 Y8.304 Z-7.893
X0.895 Y8.307 Z-7.871
X0.982 Y8.31 Z-7.835
X1.062 Y8.313 Z-7.785
X1.134 Y8.316 Z-7.724
X1.195 Y8.318 Z-7.653
X1.244 Y8.319 Z-7.572
X1.28 Y8.321 Z-7.485
X1.302 Z-7.394
X1.309 Y8.322 Z-7.3
G0 Z-6.7
X39.242 Y8.662
G1 Z-7.3 F200.
X39.236 Y8.666 Z-7.394
X39.217 Y8.677 Z-7.485
X39.186 Y8.696 Z-7.572
X39.144 Y8.721 Z-7.653
X39.091 Y8.752 Z-7.724
X39.03 Y8.789 Z-7.785
X38.961 Y8.83 Z-7.835
X38.886 Y8.874 Z-7.871
X38.807 Y8.921 Z-7.893
X38.726 Y8.969 Z-7.9
G3 X36.918 Y9.5 R3.798
G1 X4.963 F500.
G3 X4.99 Y8.3 R0.6
X5.005 Y8.301 R0.6
G1 X5.099 Y8.304 Z-7.893
X5.19 Y8.307 Z-7.871
X5.277 Y8.31 Z-7.835
X5.357 Y8.313 Z-7.785
X5.429 Y8.316 Z-7.724
X5.49 Y8.318 Z-7.653
X5.539 Y8.319 Z-7.572
X5.575 Y8.321 Z-7.485
X5.597 Z-7.394
X5.605 Y8.322 Z-7.3
G0 Z15.

(2D ADAPTIVE1 2)
M7
G0 X-5.465 Y50.387
Z15.
Z5.
Z0.705
G1 Z0.105 F200.
X-5.458 Y50.385 Z0.011
X-5.437 Y50.38 Z-0.08
X-5.402 Y50.371 Z-0.167
X-5.354 Y50.359 Z-0.248
X-5.295 Y50.344 Z-0.319
X-5.226 Y50.326 Z-0.38
X-5.148 Y50.306 Z-0.43
X-5.064 Y50.284 Z-0.466
X-4.975 Y50.262 Z-0.488
X-4.884 Y50.238 Z-0.495
G3 X-3.018 Y49.97 R8.75
G1 X-2.963 F500.
X-2.111 Y49.727
X-1.273 Y49.439
X-0.411 Y49.234
X0.464 Y49.09
X1.344 Y48.989
X2.227 Y48.92
X3.112 Y48.872
X3.998 Y48.839
X4.884 Y48.817
X5.77 Y48.802
X6.656 Y48.792
X7.542 Y48.785
X8.428 Y48.78
X9.314 Y48.777
X11.086 Y48.773
X14.631 Y48.771
X32.242 Y48.77
X32.296 Y48.755
X32.343 Y48.726
X32.641 Y48.398
X33.048 Y47.611
X33.296 Y46.76
X33.455 Y45.888
X33.559 Y45.008
X33.628 Y44.125
X33.675 Y43.24
X33.706 Y42.354
X33.726 Y41.468
X33.732 Y41.09
X33.764 Y40.907
X33.85 Y40.743
X33.983 Y40.612
X34.149 Y40.529
X34.332 Y40.5
X34.906
G3 X34.879 Y41.7 R0.6
X34.864 Y41.699 R0.6
G1 X34.77 Y41.696 Z-0.488
X34.678 Y41.693 Z-0.466
X34.592 Y41.69 Z-0.43
X34.511 Y41.687 Z-0.38
X34.44 Y41.684 Z-0.319
X34.379 Y41.682 Z-0.248
X34.329 Y41.681 Z-0.167
X34.293 Y41.679 Z-0.08
X34.271 Z0.011
X34.264 Y41.678 Z0.105
G0 Z5.
X-5.339 Y41.338
Z0.705
G1 Z0.105 F200.
X-5.332 Y41.334 Z0.011
X-5.314 Y41.323 Z-0.08
X-5.283 Y41.304 Z-0.167
X-5.24 Y41.279 Z-0.248
X-5.188 Y41.248 Z-0.319
X-5.126 Y41.211 Z-0.38
X-5.057 Y41.17 Z-0.43
X-4.982 Y41.126 Z-0.466
X-4.904 Y41.079 Z-0.488
X-4.823 Y41.031 Z-0.495
G3 X-3.014 Y40.5 R3.798
G1 X-1.918 F500.
X-1.768 Y40.507
X-1.369 Y40.734
X-0.936 Y41.08
X-0.479 Y41.582
X-0.009 Y42.296
X0.174 Y42.699
X0.252 Y42.906
X0.289 Y43.011
X0.341 Y43.169
X0.403 Y43.261
X0.742 Y43.546
X1.525 Y43.961
X2.38 Y44.194
X3.255 Y44.335
X4.136 Y44.423
X5.021 Y44.478
X5.906 Y44.512
X6.792 Y44.534
X7.678 Y44.548
X8.564 Y44.556
X9.45 Y44.562
X10.336 Y44.565
X12.109 Y44.568
X15.653 Y44.57
X27.727
X27.78 Y44.555
X27.968 Y44.438
X28.548 Y43.768
X28.892 Y42.951
X29.124 Y42.096
X29.354 Y41.24
X29.47 Y40.904
X29.556 Y40.741
X29.689 Y40.611
X29.854 Y40.529
X30.037 Y40.5
X34.332
G3 X34.305 Y41.7 R0.6
X34.29 Y41.699 R0.6
G1 X34.197 Y41.696 Z-0.488
X34.105 Y41.693 Z-0.466
X34.018 Y41.69 Z-0.43
X33.938 Y41.687 Z-0.38
X33.866 Y41.684 Z-0.319
X33.805 Y41.682 Z-0.248
X33.756 Y41.681 Z-0.167
X33.72 Y41.679 Z-0.08
X33.698 Z0.011
X33.691 Y41.678 Z0.105
G0 Z5.
X-4.242 Y41.338
Z0.705
G1 Z0.105 F200.
X-4.236 Y41.334 Z0.011
X-4.217 Y41.323 Z-0.08
X-4.186 Y41.304 Z-0.167
X-4.144 Y41.279 Z-0.248
X-4.091 Y41.248 Z-0.319
X-4.03 Y41.211 Z-0.38
X-3.961 Y41.17 Z-0.43
X-3.886 Y41.126 Z-0.466
X-3.807 Y41.079 Z-0.488
X-3.726 Y41.031 Z-0.495
G3 X-1.918 Y40.5 R3.798
G1 X30.037 F500.
G3 X30.509 Y41.441 R0.6
G1 X30.457 Y41.493 Z-0.49
X30.405 Y41.545 Z-0.477
X30.356 Y41.594 Z-0.454
X30.283 Y41.627 Z-0.416
X30.217 Y41.656 Z-0.366
X30.157 Y41.683 Z-0.307
X30.111 Y41.688 Z-0.25
X30.071 Y41.693 Z-0.188
X30.039 Y41.697 Z-0.122
X30.016 Y41.7 Z-0.052
X30.01 Z-0.028
X29.999 Y41.699 Z0.038
X29.995 Z0.105
G0 Z5.
X-5.465 Y50.387
Z0.21
G1 Z-0.39 F200.
X-5.458 Y50.385 Z-0.484
X-5.437 Y50.38 Z-0.575
X-5.402 Y50.371 Z-0.662
X-5.354 Y50.359 Z-0.743
X-5.295 Y50.344 Z-0.814
X-5.226 Y50.326 Z-0.875
X-5.148 Y50.306 Z-0.925
X-5.064 Y50.284 Z-0.961
X-4.975 Y50.262 Z-0.983
X-4.884 Y50.238 Z-0.99
G3 X-3.018 Y49.97 R8.75
G1 X-2.963 F500.
X-2.111 Y49.727
X-1.273 Y49.439
X-0.411 Y49.234
X0.464 Y49.09
X1.344 Y48.989
X2.227 Y48.92
X3.112 Y48.872
X3.998 Y48.839
X4.884 Y48.817
X5.77 Y48.802
X6.656 Y48.792
X7.542 Y48.785
X8.428 Y48.78
X9.314 Y48.777
X11.086 Y48.773
X14.631 Y48.771
X32.242 Y48.77
X32.296 Y48.755
X32.343 Y48.726
X32.641 Y48.398
X33.048 Y47.611
X33.296 Y46.76
X33.455 Y45.888
X33.559 Y45.008
X33.628 Y44.125
X33.675 Y43.24
X33.706 Y42.354
X33.726 Y41.468
X33.732 Y41.09
X33.764 Y40.907
X33.85 Y40.743
X33.983 Y40.612
X34.149 Y40.529
X34.332 Y40.5
X34.906
G3 X34.879 Y41.7 R0.6
X34.864 Y41.699 R0.6
G1 X34.77 Y41.696 Z-0.983
X34.678 Y41.693 Z-0.961
X34.592 Y41.69 Z-0.925
X34.511 Y41.687 Z-0.875
X34.44 Y41.684 Z-0.814
X34.379 Y41.682 Z-0.743
X34.329 Y41.681 Z-0.662
X34.293 Y41.679 Z-0.575
X34.271 Z-0.484
X34.264 Y41.678 Z-0.39
G0 Z5.
X-5.339 Y41.338
Z0.21
G1 Z-0.39 F200.
X-5.332 Y41.334 Z-0.484
X-5.314 Y41.323 Z-0.575
X-5.283 Y41.304 Z-0.662
X-5.24 Y41.279 Z-0.743
X-5.188 Y41.248 Z-0.814
X-5.126 Y41.211 Z-0.875
X-5.057 Y41.17 Z-0.925
X-4.982 Y41.126 Z-0.961
X-4.904 Y41.079 Z-0.983
X-4.823 Y41.031 Z-0.99
G3 X-3.014 Y40.5 R3.798
G1 X-1.918 F500.
X-1.768 Y40.507
X-1.369 Y40.734
X-0.936 Y41.08
X-0.479 Y41.582
X-0.009 Y42.296
X0.174 Y42.699
X0.252 Y42.906
X0.289 Y43.011
X0.341 Y43.169
X0.403 Y43.261
X0.742 Y43.546
X1.525 Y43.961
X2.38 Y44.194
X3.255 Y44.335
X4.136 Y44.423
X5.021 Y44.478
X5.906 Y44.512
X6.792 Y44.534
X7.678 Y44.548
X8.564 Y44.556
X9.45 Y44.562
X10.336 Y44.565
X12.109 Y44.568
X15.653 Y44.57
X27.727
X27.78 Y44.555
X27.968 Y44.438
X28.548 Y43.768
X28.892 Y42.951
X29.124 Y42.096
X29.354 Y41.24
X29.47 Y40.904
X29.556 Y40.741
X29.689 Y40.611
X29.854 Y40.529
X30.037 Y40.5
X34.332
G3 X34.305 Y41.7 R0.6
X34.29 Y41.699 R0.6
G1 X34.197 Y41.696 Z-0.983
X34.105 Y41.693 Z-0.961
X34.018 Y41.69 Z-0.925
X33.938 Y41.687 Z-0.875
X33.866 Y41.684 Z-0.814
X33.805 Y41.682 Z-0.743
X33.756 Y41.681 Z-0.662
X33.72 Y41.679 Z-0.575
X33.698 Z-0.484
X33.691 Y41.678 Z-0.39
G0 Z5.
X-4.242 Y41.338
Z0.21
G1 Z-0.39 F200.
X-4.236 Y41.334 Z-0.484
X-4.217 Y41.323 Z-0.575
X-4.186 Y41.304 Z-0.662
X-4.144 Y41.279 Z-0.743
X-4.091 Y41.248 Z-0.814
X-4.03 Y41.211 Z-0.875
X-3.961 Y41.17 Z-0.925
X-3.886 Y41.126 Z-0.961
X-3.807 Y41.079 Z-0.983
X-3.726 Y41.031 Z-0.99
G3 X-1.918 Y40.5 R3.798
G1 X30.037 F500.
G3 X30.509 Y41.441 R0.6
G1 X30.457 Y41.493 Z-0.985
X30.405 Y41.545 Z-0.972
X30.356 Y41.594 Z-0.949
X30.283 Y41.627 Z-0.911
X30.217 Y41.656 Z-0.861
X30.157 Y41.683 Z-0.802
X30.111 Y41.688 Z-0.745
X30.071 Y41.693 Z-0.683
X30.039 Y41.697 Z-0.617
X30.016 Y41.7 Z-0.547
X30.01 Z-0.523
X29.999 Y41.699 Z-0.457
X29.995 Z-0.39
G0 Z5.
X-5.465 Y50.387
Z-0.285
G1 Z-0.885 F200.
X-5.458 Y50.385 Z-0.979
X-5.437 Y50.38 Z-1.07
X-5.402 Y50.371 Z-1.157
X-5.354 Y50.359 Z-1.238
X-5.295 Y50.344 Z-1.309
X-5.226 Y50.326 Z-1.37
X-5.148 Y50.306 Z-1.42
X-5.064 Y50.284 Z-1.456
X-4.975 Y50.262 Z-1.478
X-4.884 Y50.238 Z-1.485
G3 X-3.018 Y49.97 R8.75
G1 X-2.963 F500.
X-2.111 Y49.727
X-1.273 Y49.439
X-0.411 Y49.234
X0.464 Y49.09
X1.344 Y48.989
X2.227 Y48.92
X3.112 Y48.872
X3.998 Y48.839
X4.884 Y48.817
X5.77 Y48.802
X6.656 Y48.792
X7.542 Y48.785
X8.428 Y48.78
X9.314 Y48.777
X11.086 Y48.773
X14.631 Y48.771
X32.242 Y48.77
X32.296 Y48.755
X32.343 Y48.726
X32.641 Y48.398
X33.048 Y47.611
X33.296 Y46.76
X33.455 Y45.888
X33.559 Y45.008
X33.628 Y44.125
X33.675 Y43.24
X33.706 Y42.354
X33.726 Y41.468
X33.732 Y41.09
X33.764 Y40.907
X33.85 Y40.743
X33.983 Y40.612
X34.149 Y40.529
X34.332 Y40.5
X34.906
G3 X34.879 Y41.7 R0.6
X34.864 Y41.699 R0.6
G1 X34.77 Y41.696 Z-1.478
X34.678 Y41.693 Z-1.456
X34.592 Y41.69 Z-1.42
X34.511 Y41.687 Z-1.37
X34.44 Y41.684 Z-1.309
X34.379 Y41.682 Z-1.238
X34.329 Y41.681 Z-1.157
X34.293 Y41.679 Z-1.07
X34.271 Z-0.979
X34.264 Y41.678 Z-0.885
G0 Z-0.285
X-5.339 Y41.338
G1 Z-0.885 F200.
X-5.332 Y41.334 Z-0.979
X-5.314 Y41.323 Z-1.07
X-5.283 Y41.304 Z-1.157
X-5.24 Y41.279 Z-1.238
X-5.188 Y41.248 Z-1.309
X-5.126 Y41.211 Z-1.37
X-5.057 Y41.17 Z-1.42
X-4.982 Y41.126 Z-1.456
X-4.904 Y41.079 Z-1.478
X-4.823 Y41.031 Z-1.485
G3 X-3.014 Y40.5 R3.798
G1 X-1.918 F500.
X-1.768 Y40.507
X-1.369 Y40.734
X-0.936 Y41.08
X-0.479 Y41.582
X-0.009 Y42.296
X0.174 Y42.699
X0.252 Y42.906
X0.289 Y43.011
X0.341 Y43.169
X0.403 Y43.261
X0.742 Y43.546
X1.525 Y43.961
X2.38 Y44.194
X3.255 Y44.335
X4.136 Y44.423
X5.021 Y44.478
X5.906 Y44.512
X6.792 Y44.534
X7.678 Y44.548
X8.564 Y44.556
X9.45 Y44.562
X10.336 Y44.565
X12.109 Y44.568
X15.653 Y44.57
X27.727
X27.78 Y44.555
X27.968 Y44.438
X28.548 Y43.768
X28.892 Y42.951
X29.124 Y42.096
X29.354 Y41.24
X29.47 Y40.904
X29.556 Y40.741
X29.689 Y40.611
X29.854 Y40.529
X30.037 Y40.5
X34.332
G3 X34.305 Y41.7 R0.6
X34.29 Y41.699 R0.6
G1 X34.197 Y41.696 Z-1.478
X34.105 Y41.693 Z-1.456
X34.018 Y41.69 Z-1.42
X33.938 Y41.687 Z-1.37
X33.866 Y41.684 Z-1.309
X33.805 Y41.682 Z-1.238
X33.756 Y41.681 Z-1.157
X33.72 Y41.679 Z-1.07
X33.698 Z-0.979
X33.691 Y41.678 Z-0.885
G0 Z-0.285
X-4.242 Y41.338
G1 Z-0.885 F200.
X-4.236 Y41.334 Z-0.979
X-4.217 Y41.323 Z-1.07
X-4.186 Y41.304 Z-1.157
X-4.144 Y41.279 Z-1.238
X-4.091 Y41.248 Z-1.309
X-4.03 Y41.211 Z-1.37
X-3.961 Y41.17 Z-1.42
X-3.886 Y41.126 Z-1.456
X-3.807 Y41.079 Z-1.478
X-3.726 Y41.031 Z-1.485
G3 X-1.918 Y40.5 R3.798
G1 X30.037 F500.
G3 X30.509 Y41.441 R0.6
G1 X30.457 Y41.493 Z-1.48
X30.405 Y41.545 Z-1.467
X30.356 Y41.594 Z-1.444
X30.283 Y41.627 Z-1.406
X30.217 Y41.656 Z-1.356
X30.157 Y41.683 Z-1.297
X30.111 Y41.688 Z-1.24
X30.071 Y41.693 Z-1.178
X30.039 Y41.697 Z-1.112
X30.016 Y41.7 Z-1.042
X30.01 Z-1.018
X29.999 Y41.699 Z-0.952
X29.995 Z-0.885
G0 Z5.
X-5.465 Y50.387
Z-0.78
G1 Z-1.38 F200.
X-5.458 Y50.385 Z-1.474
X-5.437 Y50.38 Z-1.565
X-5.402 Y50.371 Z-1.652
X-5.354 Y50.359 Z-1.733
X-5.295 Y50.344 Z-1.804
X-5.226 Y50.326 Z-1.865
X-5.148 Y50.306 Z-1.915
X-5.064 Y50.284 Z-1.951
X-4.975 Y50.262 Z-1.973
X-4.884 Y50.238 Z-1.98
G3 X-3.018 Y49.97 R8.75
G1 X-2.963 F500.
X-2.111 Y49.727
X-1.273 Y49.439
X-0.411 Y49.234
X0.464 Y49.09
X1.344 Y48.989
X2.227 Y48.92
X3.112 Y48.872
X3.998 Y48.839
X4.884 Y48.817
X5.77 Y48.802
X6.656 Y48.792
X7.542 Y48.785
X8.428 Y48.78
X9.314 Y48.777
X11.086 Y48.773
X14.631 Y48.771
X32.242 Y48.77
X32.296 Y48.755
X32.343 Y48.726
X32.641 Y48.398
X33.048 Y47.611
X33.296 Y46.76
X33.455 Y45.888
X33.559 Y45.008
X33.628 Y44.125
X33.675 Y43.24
X33.706 Y42.354
X33.726 Y41.468
X33.732 Y41.09
X33.764 Y40.907
X33.85 Y40.743
X33.983 Y40.612
X34.149 Y40.529
X34.332 Y40.5
X34.906
G3 X34.879 Y41.7 R0.6
X34.864 Y41.699 R0.6
G1 X34.77 Y41.696 Z-1.973
X34.678 Y41.693 Z-1.951
X34.592 Y41.69 Z-1.915
X34.511 Y41.687 Z-1.865
X34.44 Y41.684 Z-1.804
X34.379 Y41.682 Z-1.733
X34.329 Y41.681 Z-1.652
X34.293 Y41.679 Z-1.565
X34.271 Z-1.474
X34.264 Y41.678 Z-1.38
G0 Z-0.78
X-5.339 Y41.338
G1 Z-1.38 F200.
X-5.332 Y41.334 Z-1.474
X-5.314 Y41.323 Z-1.565
X-5.283 Y41.304 Z-1.652
X-5.24 Y41.279 Z-1.733
X-5.188 Y41.248 Z-1.804
X-5.126 Y41.211 Z-1.865
X-5.057 Y41.17 Z-1.915
X-4.982 Y41.126 Z-1.951
X-4.904 Y41.079 Z-1.973
X-4.823 Y41.031 Z-1.98
G3 X-3.014 Y40.5 R3.798
G1 X-1.918 F500.
X-1.768 Y40.507
X-1.369 Y40.734
X-0.936 Y41.08
X-0.479 Y41.582
X-0.009 Y42.296
X0.174 Y42.699
X0.252 Y42.906
X0.289 Y43.011
X0.341 Y43.169
X0.403 Y43.261
X0.742 Y43.546
X1.525 Y43.961
X2.38 Y44.194
X3.255 Y44.335
X4.136 Y44.423
X5.021 Y44.478
X5.906 Y44.512
X6.792 Y44.534
X7.678 Y44.548
X8.564 Y44.556
X9.45 Y44.562
X10.336 Y44.565
X12.109 Y44.568
X15.653 Y44.57
X27.727
X27.78 Y44.555
X27.968 Y44.438
X28.548 Y43.768
X28.892 Y42.951
X29.124 Y42.096
X29.354 Y41.24
X29.47 Y40.904
X29.556 Y40.741
X29.689 Y40.611
X29.854 Y40.529
X30.037 Y40.5
X34.332
G3 X34.305 Y41.7 R0.6
X34.29 Y41.699 R0.6
G1 X34.197 Y41.696 Z-1.973
X34.105 Y41.693 Z-1.951
X34.018 Y41.69 Z-1.915
X33.938 Y41.687 Z-1.865
X33.866 Y41.684 Z-1.804
X33.805 Y41.682 Z-1.733
X33.756 Y41.681 Z-1.652
X33.72 Y41.679 Z-1.565
X33.698 Z-1.474
X33.691 Y41.678 Z-1.38
G0 Z-0.78
X-4.242 Y41.338
G1 Z-1.38 F200.
X-4.236 Y41.334 Z-1.474
X-4.217 Y41.323 Z-1.565
X-4.186 Y41.304 Z-1.652
X-4.144 Y41.279 Z-1.733
X-4.091 Y41.248 Z-1.804
X-4.03 Y41.211 Z-1.865
X-3.961 Y41.17 Z-1.915
X-3.886 Y41.126 Z-1.951
X-3.807 Y41.079 Z-1.973
X-3.726 Y41.031 Z-1.98
G3 X-1.918 Y40.5 R3.798
G1 X30.037 F500.
G3 X30.509 Y41.441 R0.6
G1 X30.457 Y41.493 Z-1.975
X30.405 Y41.545 Z-1.962
X30.356 Y41.594 Z-1.939
X30.283 Y41.627 Z-1.901
X30.217 Y41.656 Z-1.851
X30.157 Y41.683 Z-1.792
X30.111 Y41.688 Z-1.735
X30.071 Y41.693 Z-1.673
X30.039 Y41.697 Z-1.607
X30.016 Y41.7 Z-1.537
X30.01 Z-1.513
X29.999 Y41.699 Z-1.447
X29.995 Z-1.38
G0 Z5.
X-5.465 Y50.387
Z-1.275
G1 Z-1.875 F200.
X-5.458 Y50.385 Z-1.969
X-5.437 Y50.38 Z-2.06
X-5.402 Y50.371 Z-2.147
X-5.354 Y50.359 Z-2.228
X-5.295 Y50.344 Z-2.299
X-5.226 Y50.326 Z-2.36
X-5.148 Y50.306 Z-2.41
X-5.064 Y50.284 Z-2.446
X-4.975 Y50.262 Z-2.468
X-4.884 Y50.238 Z-2.475
G3 X-3.018 Y49.97 R8.75
G1 X-2.963 F500.
X-2.111 Y49.727
X-1.273 Y49.439
X-0.411 Y49.234
X0.464 Y49.09
X1.344 Y48.989
X2.227 Y48.92
X3.112 Y48.872
X3.998 Y48.839
X4.884 Y48.817
X5.77 Y48.802
X6.656 Y48.792
X7.542 Y48.785
X8.428 Y48.78
X9.314 Y48.777
X11.086 Y48.773
X14.631 Y48.771
X32.242 Y48.77
X32.296 Y48.755
X32.343 Y48.726
X32.641 Y48.398
X33.048 Y47.611
X33.296 Y46.76
X33.455 Y45.888
X33.559 Y45.008
X33.628 Y44.125
X33.675 Y43.24
X33.706 Y42.354
X33.726 Y41.468
X33.732 Y41.09
X33.764 Y40.907
X33.85 Y40.743
X33.983 Y40.612
X34.149 Y40.529
X34.332 Y40.5
X34.906
G3 X34.879 Y41.7 R0.6
X34.864 Y41.699 R0.6
G1 X34.77 Y41.696 Z-2.468
X34.678 Y41.693 Z-2.446
X34.592 Y41.69 Z-2.41
X34.511 Y41.687 Z-2.36
X34.44 Y41.684 Z-2.299
X34.379 Y41.682 Z-2.228
X34.329 Y41.681 Z-2.147
X34.293 Y41.679 Z-2.06
X34.271 Z-1.969
X34.264 Y41.678 Z-1.875
G0 Z-1.275
X-5.339 Y41.338
G1 Z-1.875 F200.
X-5.332 Y41.334 Z-1.969
X-5.314 Y41.323 Z-2.06
X-5.283 Y41.304 Z-2.147
X-5.24 Y41.279 Z-2.228
X-5.188 Y41.248 Z-2.299
X-5.126 Y41.211 Z-2.36
X-5.057 Y41.17 Z-2.41
X-4.982 Y41.126 Z-2.446
X-4.904 Y41.079 Z-2.468
X-4.823 Y41.031 Z-2.475
G3 X-3.014 Y40.5 R3.798
G1 X-1.918 F500.
X-1.768 Y40.507
X-1.369 Y40.734
X-0.936 Y41.08
X-0.479 Y41.582
X-0.009 Y42.296
X0.174 Y42.699
X0.252 Y42.906
X0.289 Y43.011
X0.341 Y43.169
X0.403 Y43.261
X0.742 Y43.546
X1.525 Y43.961
X2.38 Y44.194
X3.255 Y44.335
X4.136 Y44.423
X5.021 Y44.478
X5.906 Y44.512
X6.792 Y44.534
X7.678 Y44.548
X8.564 Y44.556
X9.45 Y44.562
X10.336 Y44.565
X12.109 Y44.568
X15.653 Y44.57
X27.727
X27.78 Y44.555
X27.968 Y44.438
X28.548 Y43.768
X28.892 Y42.951
X29.124 Y42.096
X29.354 Y41.24
X29.47 Y40.904
X29.556 Y40.741
X29.689 Y40.611
X29.854 Y40.529
X30.037 Y40.5
X34.332
G3 X34.305 Y41.7 R0.6
X34.29 Y41.699 R0.6
G1 X34.197 Y41.696 Z-2.468
X34.105 Y41.693 Z-2.446
X34.018 Y41.69 Z-2.41
X33.938 Y41.687 Z-2.36
X33.866 Y41.684 Z-2.299
X33.805 Y41.682 Z-2.228
X33.756 Y41.681 Z-2.147
X33.72 Y41.679 Z-2.06
X33.698 Z-1.969
X33.691 Y41.678 Z-1.875
G0 Z-1.275
X-4.242 Y41.338
G1 Z-1.875 F200.
X-4.236 Y41.334 Z-1.969
X-4.217 Y41.323 Z-2.06
X-4.186 Y41.304 Z-2.147
X-4.144 Y41.279 Z-2.228
X-4.091 Y41.248 Z-2.299
X-4.03 Y41.211 Z-2.36
X-3.961 Y41.17 Z-2.41
X-3.886 Y41.126 Z-2.446
X-3.807 Y41.079 Z-2.468
X-3.726 Y41.031 Z-2.475
G3 X-1.918 Y40.5 R3.798
G1 X30.037 F500.
G3 X30.509 Y41.441 R0.6
G1 X30.457 Y41.493 Z-2.47
X30.405 Y41.545 Z-2.457
X30.356 Y41.594 Z-2.434
X30.283 Y41.627 Z-2.396
X30.217 Y41.656 Z-2.346
X30.157 Y41.683 Z-2.287
X30.111 Y41.688 Z-2.23
X30.071 Y41.693 Z-2.168
X30.039 Y41.697 Z-2.102
X30.016 Y41.7 Z-2.032
X30.01 Z-2.008
X29.999 Y41.699 Z-1.942
X29.995 Z-1.875
G0 Z5.
X-5.465 Y50.387
Z-1.77
G1 Z-2.37 F200.
X-5.458 Y50.385 Z-2.464
X-5.437 Y50.38 Z-2.555
X-5.402 Y50.371 Z-2.642
X-5.354 Y50.359 Z-2.723
X-5.295 Y50.344 Z-2.794
X-5.226 Y50.326 Z-2.855
X-5.148 Y50.306 Z-2.905
X-5.064 Y50.284 Z-2.941
X-4.975 Y50.262 Z-2.963
X-4.884 Y50.238 Z-2.97
G3 X-3.018 Y49.97 R8.75
G1 X-2.963 F500.
X-2.111 Y49.727
X-1.273 Y49.439
X-0.411 Y49.234
X0.464 Y49.09
X1.344 Y48.989
X2.227 Y48.92
X3.112 Y48.872
X3.998 Y48.839
X4.884 Y48.817
X5.77 Y48.802
X6.656 Y48.792
X7.542 Y48.785
X8.428 Y48.78
X9.314 Y48.777
X11.086 Y48.773
X14.631 Y48.771
X32.242 Y48.77
X32.296 Y48.755
X32.343 Y48.726
X32.641 Y48.398
X33.048 Y47.611
X33.296 Y46.76
X33.455 Y45.888
X33.559 Y45.008
X33.628 Y44.125
X33.675 Y43.24
X33.706 Y42.354
X33.726 Y41.468
X33.732 Y41.09
X33.764 Y40.907
X33.85 Y40.743
X33.983 Y40.612
X34.149 Y40.529
X34.332 Y40.5
X34.906
G3 X34.879 Y41.7 R0.6
X34.864 Y41.699 R0.6
G1 X34.77 Y41.696 Z-2.963
X34.678 Y41.693 Z-2.941
X34.592 Y41.69 Z-2.905
X34.511 Y41.687 Z-2.855
X34.44 Y41.684 Z-2.794
X34.379 Y41.682 Z-2.723
X34.329 Y41.681 Z-2.642
X34.293 Y41.679 Z-2.555
X34.271 Z-2.464
X34.264 Y41.678 Z-2.37
G0 Z-1.77
X-5.339 Y41.338
G1 Z-2.37 F200.
X-5.332 Y41.334 Z-2.464
X-5.314 Y41.323 Z-2.555
X-5.283 Y41.304 Z-2.642
X-5.24 Y41.279 Z-2.723
X-5.188 Y41.248 Z-2.794
X-5.126 Y41.211 Z-2.855
X-5.057 Y41.17 Z-2.905
X-4.982 Y41.126 Z-2.941
X-4.904 Y41.079 Z-2.963
X-4.823 Y41.031 Z-2.97
G3 X-3.014 Y40.5 R3.798
G1 X-1.918 F500.
X-1.768 Y40.507
X-1.369 Y40.734
X-0.936 Y41.08
X-0.479 Y41.582
X-0.009 Y42.296
X0.174 Y42.699
X0.252 Y42.906
X0.289 Y43.011
X0.341 Y43.169
X0.403 Y43.261
X0.742 Y43.546
X1.525 Y43.961
X2.38 Y44.194
X3.255 Y44.335
X4.136 Y44.423
X5.021 Y44.478
X5.906 Y44.512
X6.792 Y44.534
X7.678 Y44.548
X8.564 Y44.556
X9.45 Y44.562
X10.336 Y44.565
X12.109 Y44.568
X15.653 Y44.57
X27.727
X27.78 Y44.555
X27.968 Y44.438
X28.548 Y43.768
X28.892 Y42.951
X29.124 Y42.096
X29.354 Y41.24
X29.47 Y40.904
X29.556 Y40.741
X29.689 Y40.611
X29.854 Y40.529
X30.037 Y40.5
X34.332
G3 X34.305 Y41.7 R0.6
X34.29 Y41.699 R0.6
G1 X34.197 Y41.696 Z-2.963
X34.105 Y41.693 Z-2.941
X34.018 Y41.69 Z-2.905
X33.938 Y41.687 Z-2.855
X33.866 Y41.684 Z-2.794
X33.805 Y41.682 Z-2.723
X33.756 Y41.681 Z-2.642
X33.72 Y41.679 Z-2.555
X33.698 Z-2.464
X33.691 Y41.678 Z-2.37
G0 Z-1.77
X-4.242 Y41.338
G1 Z-2.37 F200.
X-4.236 Y41.334 Z-2.464
X-4.217 Y41.323 Z-2.555
X-4.186 Y41.304 Z-2.642
X-4.144 Y41.279 Z-2.723
X-4.091 Y41.248 Z-2.794
X-4.03 Y41.211 Z-2.855
X-3.961 Y41.17 Z-2.905
X-3.886 Y41.126 Z-2.941
X-3.807 Y41.079 Z-2.963
X-3.726 Y41.031 Z-2.97
G3 X-1.918 Y40.5 R3.798
G1 X30.037 F500.
G3 X30.509 Y41.441 R0.6
G1 X30.457 Y41.493 Z-2.965
X30.405 Y41.545 Z-2.952
X30.356 Y41.594 Z-2.929
X30.283 Y41.627 Z-2.891
X30.217 Y41.656 Z-2.841
X30.157 Y41.683 Z-2.782
X30.111 Y41.688 Z-2.725
X30.071 Y41.693 Z-2.663
X30.039 Y41.697 Z-2.597
X30.016 Y41.7 Z-2.527
X30.01 Z-2.503
X29.999 Y41.699 Z-2.437
X29.995 Z-2.37
G0 Z5.
X-5.465 Y50.387
Z-2.265
G1 Z-2.865 F200.
X-5.458 Y50.385 Z-2.959
X-5.437 Y50.38 Z-3.05
X-5.402 Y50.371 Z-3.137
X-5.354 Y50.359 Z-3.218
X-5.295 Y50.344 Z-3.289
X-5.226 Y50.326 Z-3.35
X-5.148 Y50.306 Z-3.4
X-5.064 Y50.284 Z-3.436
X-4.975 Y50.262 Z-3.458
X-4.884 Y50.238 Z-3.465
G3 X-3.018 Y49.97 R8.75
G1 X-2.963 F500.
X-2.111 Y49.727
X-1.273 Y49.439
X-0.411 Y49.234
X0.464 Y49.09
X1.344 Y48.989
X2.227 Y48.92
X3.112 Y48.872
X3.998 Y48.839
X4.884 Y48.817
X5.77 Y48.802
X6.656 Y48.792
X7.542 Y48.785
X8.428 Y48.78
X9.314 Y48.777
X11.086 Y48.773
X14.631 Y48.771
X32.242 Y48.77
X32.296 Y48.755
X32.343 Y48.726
X32.641 Y48.398
X33.048 Y47.611
X33.296 Y46.76
X33.455 Y45.888
X33.559 Y45.008
X33.628 Y44.125
X33.675 Y43.24
X33.706 Y42.354
X33.726 Y41.468
X33.732 Y41.09
X33.764 Y40.907
X33.85 Y40.743
X33.983 Y40.612
X34.149 Y40.529
X34.332 Y40.5
X34.906
G3 X34.879 Y41.7 R0.6
X34.864 Y41.699 R0.6
G1 X34.77 Y41.696 Z-3.458
X34.678 Y41.693 Z-3.436
X34.592 Y41.69 Z-3.4
X34.511 Y41.687 Z-3.35
X34.44 Y41.684 Z-3.289
X34.379 Y41.682 Z-3.218
X34.329 Y41.681 Z-3.137
X34.293 Y41.679 Z-3.05
X34.271 Z-2.959
X34.264 Y41.678 Z-2.865
G0 Z-2.265
X-5.339 Y41.338
G1 Z-2.865 F200.
X-5.332 Y41.334 Z-2.959
X-5.314 Y41.323 Z-3.05
X-5.283 Y41.304 Z-3.137
X-5.24 Y41.279 Z-3.218
X-5.188 Y41.248 Z-3.289
X-5.126 Y41.211 Z-3.35
X-5.057 Y41.17 Z-3.4
X-4.982 Y41.126 Z-3.436
X-4.904 Y41.079 Z-3.458
X-4.823 Y41.031 Z-3.465
G3 X-3.014 Y40.5 R3.798
G1 X-1.918 F500.
X-1.768 Y40.507
X-1.369 Y40.734
X-0.936 Y41.08
X-0.479 Y41.582
X-0.009 Y42.296
X0.174 Y42.699
X0.252 Y42.906
X0.289 Y43.011
X0.341 Y43.169
X0.403 Y43.261
X0.742 Y43.546
X1.525 Y43.961
X2.38 Y44.194
X3.255 Y44.335
X4.136 Y44.423
X5.021 Y44.478
X5.906 Y44.512
X6.792 Y44.534
X7.678 Y44.548
X8.564 Y44.556
X9.45 Y44.562
X10.336 Y44.565
X12.109 Y44.568
X15.653 Y44.57
X27.727
X27.78 Y44.555
X27.968 Y44.438
X28.548 Y43.768
X28.892 Y42.951
X29.124 Y42.096
X29.354 Y41.24
X29.47 Y40.904
X29.556 Y40.741
X29.689 Y40.611
X29.854 Y40.529
X30.037 Y40.5
X34.332
G3 X34.305 Y41.7 R0.6
X34.29 Y41.699 R0.6
G1 X34.197 Y41.696 Z-3.458
X34.105 Y41.693 Z-3.436
X34.018 Y41.69 Z-3.4
X33.938 Y41.687 Z-3.35
X33.866 Y41.684 Z-3.289
X33.805 Y41.682 Z-3.218
X33.756 Y41.681 Z-3.137
X33.72 Y41.679 Z-3.05
X33.698 Z-2.959
X33.691 Y41.678 Z-2.865
G0 Z-2.265
X-4.242 Y41.338
G1 Z-2.865 F200.
X-4.236 Y41.334 Z-2.959
X-4.217 Y41.323 Z-3.05
X-4.186 Y41.304 Z-3.137
X-4.144 Y41.279 Z-3.218
X-4.091 Y41.248 Z-3.289
X-4.03 Y41.211 Z-3.35
X-3.961 Y41.17 Z-3.4
X-3.886 Y41.126 Z-3.436
X-3.807 Y41.079 Z-3.458
X-3.726 Y41.031 Z-3.465
G3 X-1.918 Y40.5 R3.798
G1 X30.037 F500.
G3 X30.509 Y41.441 R0.6
G1 X30.457 Y41.493 Z-3.46
X30.405 Y41.545 Z-3.447
X30.356 Y41.594 Z-3.424
X30.283 Y41.627 Z-3.386
X30.217 Y41.656 Z-3.336
X30.157 Y41.683 Z-3.277
X30.111 Y41.688 Z-3.22
X30.071 Y41.693 Z-3.158
X30.039 Y41.697 Z-3.092
X30.016 Y41.7 Z-3.022
X30.01 Z-2.998
X29.999 Y41.699 Z-2.932
X29.995 Z-2.865
G0 Z5.
X-5.465 Y50.387
Z-2.76
G1 Z-3.36 F200.
X-5.458 Y50.385 Z-3.454
X-5.437 Y50.38 Z-3.545
X-5.402 Y50.371 Z-3.632
X-5.354 Y50.359 Z-3.713
X-5.295 Y50.344 Z-3.784
X-5.226 Y50.326 Z-3.845
X-5.148 Y50.306 Z-3.895
X-5.064 Y50.284 Z-3.931
X-4.975 Y50.262 Z-3.953
X-4.884 Y50.238 Z-3.96
G3 X-3.018 Y49.97 R8.75
G1 X-2.963 F500.
X-2.111 Y49.727
X-1.273 Y49.439
X-0.411 Y49.234
X0.464 Y49.09
X1.344 Y48.989
X2.227 Y48.92
X3.112 Y48.872
X3.998 Y48.839
X4.884 Y48.817
X5.77 Y48.802
X6.656 Y48.792
X7.542 Y48.785
X8.428 Y48.78
X9.314 Y48.777
X11.086 Y48.773
X14.631 Y48.771
X32.242 Y48.77
X32.296 Y48.755
X32.343 Y48.726
X32.641 Y48.398
X33.048 Y47.611
X33.296 Y46.76
X33.455 Y45.888
X33.559 Y45.008
X33.628 Y44.125
X33.675 Y43.24
X33.706 Y42.354
X33.726 Y41.468
X33.732 Y41.09
X33.764 Y40.907
X33.85 Y40.743
X33.983 Y40.612
X34.149 Y40.529
X34.332 Y40.5
X34.906
G3 X34.879 Y41.7 R0.6
X34.864 Y41.699 R0.6
G1 X34.77 Y41.696 Z-3.953
X34.678 Y41.693 Z-3.931
X34.592 Y41.69 Z-3.895
X34.511 Y41.687 Z-3.845
X34.44 Y41.684 Z-3.784
X34.379 Y41.682 Z-3.713
X34.329 Y41.681 Z-3.632
X34.293 Y41.679 Z-3.545
X34.271 Z-3.454
X34.264 Y41.678 Z-3.36
G0 Z-2.76
X-5.339 Y41.338
G1 Z-3.36 F200.
X-5.332 Y41.334 Z-3.454
X-5.314 Y41.323 Z-3.545
X-5.283 Y41.304 Z-3.632
X-5.24 Y41.279 Z-3.713
X-5.188 Y41.248 Z-3.784
X-5.126 Y41.211 Z-3.845
X-5.057 Y41.17 Z-3.895
X-4.982 Y41.126 Z-3.931
X-4.904 Y41.079 Z-3.953
X-4.823 Y41.031 Z-3.96
G3 X-3.014 Y40.5 R3.798
G1 X-1.918 F500.
X-1.768 Y40.507
X-1.369 Y40.734
X-0.936 Y41.08
X-0.479 Y41.582
X-0.009 Y42.296
X0.174 Y42.699
X0.252 Y42.906
X0.289 Y43.011
X0.341 Y43.169
X0.403 Y43.261
X0.742 Y43.546
X1.525 Y43.961
X2.38 Y44.194
X3.255 Y44.335
X4.136 Y44.423
X5.021 Y44.478
X5.906 Y44.512
X6.792 Y44.534
X7.678 Y44.548
X8.564 Y44.556
X9.45 Y44.562
X10.336 Y44.565
X12.109 Y44.568
X15.653 Y44.57
X27.727
X27.78 Y44.555
X27.968 Y44.438
X28.548 Y43.768
X28.892 Y42.951
X29.124 Y42.096
X29.354 Y41.24
X29.47 Y40.904
X29.556 Y40.741
X29.689 Y40.611
X29.854 Y40.529
X30.037 Y40.5
X34.332
G3 X34.305 Y41.7 R0.6
X34.29 Y41.699 R0.6
G1 X34.197 Y41.696 Z-3.953
X34.105 Y41.693 Z-3.931
X34.018 Y41.69 Z-3.895
X33.938 Y41.687 Z-3.845
X33.866 Y41.684 Z-3.784
X33.805 Y41.682 Z-3.713
X33.756 Y41.681 Z-3.632
X33.72 Y41.679 Z-3.545
X33.698 Z-3.454
X33.691 Y41.678 Z-3.36
G0 Z-2.76
X-4.242 Y41.338
G1 Z-3.36 F200.
X-4.236 Y41.334 Z-3.454
X-4.217 Y41.323 Z-3.545
X-4.186 Y41.304 Z-3.632
X-4.144 Y41.279 Z-3.713
X-4.091 Y41.248 Z-3.784
X-4.03 Y41.211 Z-3.845
X-3.961 Y41.17 Z-3.895
X-3.886 Y41.126 Z-3.931
X-3.807 Y41.079 Z-3.953
X-3.726 Y41.031 Z-3.96
G3 X-1.918 Y40.5 R3.798
G1 X30.037 F500.
G3 X30.509 Y41.441 R0.6
G1 X30.457 Y41.493 Z-3.955
X30.405 Y41.545 Z-3.942
X30.356 Y41.594 Z-3.919
X30.283 Y41.627 Z-3.881
X30.217 Y41.656 Z-3.831
X30.157 Y41.683 Z-3.772
X30.111 Y41.688 Z-3.715
X30.071 Y41.693 Z-3.653
X30.039 Y41.697 Z-3.587
X30.016 Y41.7 Z-3.517
X30.01 Z-3.493
X29.999 Y41.699 Z-3.427
X29.995 Z-3.36
G0 Z5.
X-5.465 Y50.387
Z-3.255
G1 Z-3.855 F200.
X-5.458 Y50.385 Z-3.949
X-5.437 Y50.38 Z-4.04
X-5.402 Y50.371 Z-4.127
X-5.354 Y50.359 Z-4.208
X-5.295 Y50.344 Z-4.279
X-5.226 Y50.326 Z-4.34
X-5.148 Y50.306 Z-4.39
X-5.064 Y50.284 Z-4.426
X-4.975 Y50.262 Z-4.448
X-4.884 Y50.238 Z-4.455
G3 X-3.018 Y49.97 R8.75
G1 X-2.963 F500.
X-2.111 Y49.727
X-1.273 Y49.439
X-0.411 Y49.234
X0.464 Y49.09
X1.344 Y48.989
X2.227 Y48.92
X3.112 Y48.872
X3.998 Y48.839
X4.884 Y48.817
X5.77 Y48.802
X6.656 Y48.792
X7.542 Y48.785
X8.428 Y48.78
X9.314 Y48.777
X11.086 Y48.773
X14.631 Y48.771
X32.242 Y48.77
X32.296 Y48.755
X32.343 Y48.726
X32.641 Y48.398
X33.048 Y47.611
X33.296 Y46.76
X33.455 Y45.888
X33.559 Y45.008
X33.628 Y44.125
X33.675 Y43.24
X33.706 Y42.354
X33.726 Y41.468
X33.732 Y41.09
X33.764 Y40.907
X33.85 Y40.743
X33.983 Y40.612
X34.149 Y40.529
X34.332 Y40.5
X34.906
G3 X34.879 Y41.7 R0.6
X34.864 Y41.699 R0.6
G1 X34.77 Y41.696 Z-4.448
X34.678 Y41.693 Z-4.426
X34.592 Y41.69 Z-4.39
X34.511 Y41.687 Z-4.34
X34.44 Y41.684 Z-4.279
X34.379 Y41.682 Z-4.208
X34.329 Y41.681 Z-4.127
X34.293 Y41.679 Z-4.04
X34.271 Z-3.949
X34.264 Y41.678 Z-3.855
G0 Z-3.255
X-5.339 Y41.338
G1 Z-3.855 F200.
X-5.332 Y41.334 Z-3.949
X-5.314 Y41.323 Z-4.04
X-5.283 Y41.304 Z-4.127
X-5.24 Y41.279 Z-4.208
X-5.188 Y41.248 Z-4.279
X-5.126 Y41.211 Z-4.34
X-5.057 Y41.17 Z-4.39
X-4.982 Y41.126 Z-4.426
X-4.904 Y41.079 Z-4.448
X-4.823 Y41.031 Z-4.455
G3 X-3.014 Y40.5 R3.798
G1 X-1.918 F500.
X-1.768 Y40.507
X-1.369 Y40.734
X-0.936 Y41.08
X-0.479 Y41.582
X-0.009 Y42.296
X0.174 Y42.699
X0.252 Y42.906
X0.289 Y43.011
X0.341 Y43.169
X0.403 Y43.261
X0.742 Y43.546
X1.525 Y43.961
X2.38 Y44.194
X3.255 Y44.335
X4.136 Y44.423
X5.021 Y44.478
X5.906 Y44.512
X6.792 Y44.534
X7.678 Y44.548
X8.564 Y44.556
X9.45 Y44.562
X10.336 Y44.565
X12.109 Y44.568
X15.653 Y44.57
X27.727
X27.78 Y44.555
X27.968 Y44.438
X28.548 Y43.768
X28.892 Y42.951
X29.124 Y42.096
X29.354 Y41.24
X29.47 Y40.904
X29.556 Y40.741
X29.689 Y40.611
X29.854 Y40.529
X30.037 Y40.5
X34.332
G3 X34.305 Y41.7 R0.6
X34.29 Y41.699 R0.6
G1 X34.197 Y41.696 Z-4.448
X34.105 Y41.693 Z-4.426
X34.018 Y41.69 Z-4.39
X33.938 Y41.687 Z-4.34
X33.866 Y41.684 Z-4.279
X33.805 Y41.682 Z-4.208
X33.756 Y41.681 Z-4.127
X33.72 Y41.679 Z-4.04
X33.698 Z-3.949
X33.691 Y41.678 Z-3.855
G0 Z-3.255
X-4.242 Y41.338
G1 Z-3.855 F200.
X-4.236 Y41.334 Z-3.949
X-4.217 Y41.323 Z-4.04
X-4.186 Y41.304 Z-4.127
X-4.144 Y41.279 Z-4.208
X-4.091 Y41.248 Z-4.279
X-4.03 Y41.211 Z-4.34
X-3.961 Y41.17 Z-4.39
X-3.886 Y41.126 Z-4.426
X-3.807 Y41.079 Z-4.448
X-3.726 Y41.031 Z-4.455
G3 X-1.918 Y40.5 R3.798
G1 X30.037 F500.
G3 X30.509 Y41.441 R0.6
G1 X30.457 Y41.493 Z-4.45
X30.405 Y41.545 Z-4.437
X30.356 Y41.594 Z-4.414
X30.283 Y41.627 Z-4.376
X30.217 Y41.656 Z-4.326
X30.157 Y41.683 Z-4.267
X30.111 Y41.688 Z-4.21
X30.071 Y41.693 Z-4.148
X30.039 Y41.697 Z-4.082
X30.016 Y41.7 Z-4.012
X30.01 Z-3.988
X29.999 Y41.699 Z-3.922
X29.995 Z-3.855
G0 Z5.
X-5.465 Y50.387
Z-3.75
G1 Z-4.35 F200.
X-5.458 Y50.385 Z-4.444
X-5.437 Y50.38 Z-4.535
X-5.402 Y50.371 Z-4.622
X-5.354 Y50.359 Z-4.703
X-5.295 Y50.344 Z-4.774
X-5.226 Y50.326 Z-4.835
X-5.148 Y50.306 Z-4.885
X-5.064 Y50.284 Z-4.921
X-4.975 Y50.262 Z-4.943
X-4.884 Y50.238 Z-4.95
G3 X-3.018 Y49.97 R8.75
G1 X-2.963 F500.
X-2.111 Y49.727
X-1.273 Y49.439
X-0.411 Y49.234
X0.464 Y49.09
X1.344 Y48.989
X2.227 Y48.92
X3.112 Y48.872
X3.998 Y48.839
X4.884 Y48.817
X5.77 Y48.802
X6.656 Y48.792
X7.542 Y48.785
X8.428 Y48.78
X9.314 Y48.777
X11.086 Y48.773
X14.631 Y48.771
X32.242 Y48.77
X32.296 Y48.755
X32.343 Y48.726
X32.641 Y48.398
X33.048 Y47.611
X33.296 Y46.76
X33.455 Y45.888
X33.559 Y45.008
X33.628 Y44.125
X33.675 Y43.24
X33.706 Y42.354
X33.726 Y41.468
X33.732 Y41.09
X33.764 Y40.907
X33.85 Y40.743
X33.983 Y40.612
X34.149 Y40.529
X34.332 Y40.5
X34.906
G3 X34.879 Y41.7 R0.6
X34.864 Y41.699 R0.6
G1 X34.77 Y41.696 Z-4.943
X34.678 Y41.693 Z-4.921
X34.592 Y41.69 Z-4.885
X34.511 Y41.687 Z-4.835
X34.44 Y41.684 Z-4.774
X34.379 Y41.682 Z-4.703
X34.329 Y41.681 Z-4.622
X34.293 Y41.679 Z-4.535
X34.271 Z-4.444
X34.264 Y41.678 Z-4.35
G0 Z-3.75
X-5.339 Y41.338
G1 Z-4.35 F200.
X-5.332 Y41.334 Z-4.444
X-5.314 Y41.323 Z-4.535
X-5.283 Y41.304 Z-4.622
X-5.24 Y41.279 Z-4.703
X-5.188 Y41.248 Z-4.774
X-5.126 Y41.211 Z-4.835
X-5.057 Y41.17 Z-4.885
X-4.982 Y41.126 Z-4.921
X-4.904 Y41.079 Z-4.943
X-4.823 Y41.031 Z-4.95
G3 X-3.014 Y40.5 R3.798
G1 X-1.918 F500.
X-1.768 Y40.507
X-1.369 Y40.734
X-0.936 Y41.08
X-0.479 Y41.582
X-0.009 Y42.296
X0.174 Y42.699
X0.252 Y42.906
X0.289 Y43.011
X0.341 Y43.169
X0.403 Y43.261
X0.742 Y43.546
X1.525 Y43.961
X2.38 Y44.194
X3.255 Y44.335
X4.136 Y44.423
X5.021 Y44.478
X5.906 Y44.512
X6.792 Y44.534
X7.678 Y44.548
X8.564 Y44.556
X9.45 Y44.562
X10.336 Y44.565
X12.109 Y44.568
X15.653 Y44.57
X27.727
X27.78 Y44.555
X27.968 Y44.438
X28.548 Y43.768
X28.892 Y42.951
X29.124 Y42.096
X29.354 Y41.24
X29.47 Y40.904
X29.556 Y40.741
X29.689 Y40.611
X29.854 Y40.529
X30.037 Y40.5
X34.332
G3 X34.305 Y41.7 R0.6
X34.29 Y41.699 R0.6
G1 X34.197 Y41.696 Z-4.943
X34.105 Y41.693 Z-4.921
X34.018 Y41.69 Z-4.885
X33.938 Y41.687 Z-4.835
X33.866 Y41.684 Z-4.774
X33.805 Y41.682 Z-4.703
X33.756 Y41.681 Z-4.622
X33.72 Y41.679 Z-4.535
X33.698 Z-4.444
X33.691 Y41.678 Z-4.35
G0 Z-3.75
X-4.242 Y41.338
G1 Z-4.35 F200.
X-4.236 Y41.334 Z-4.444
X-4.217 Y41.323 Z-4.535
X-4.186 Y41.304 Z-4.622
X-4.144 Y41.279 Z-4.703
X-4.091 Y41.248 Z-4.774
X-4.03 Y41.211 Z-4.835
X-3.961 Y41.17 Z-4.885
X-3.886 Y41.126 Z-4.921
X-3.807 Y41.079 Z-4.943
X-3.726 Y41.031 Z-4.95
G3 X-1.918 Y40.5 R3.798
G1 X30.037 F500.
G3 X30.509 Y41.441 R0.6
G1 X30.457 Y41.493 Z-4.945
X30.405 Y41.545 Z-4.932
X30.356 Y41.594 Z-4.909
X30.283 Y41.627 Z-4.871
X30.217 Y41.656 Z-4.821
X30.157 Y41.683 Z-4.762
X30.111 Y41.688 Z-4.705
X30.071 Y41.693 Z-4.643
X30.039 Y41.697 Z-4.577
X30.016 Y41.7 Z-4.507
X30.01 Z-4.483
X29.999 Y41.699 Z-4.417
X29.995 Z-4.35
G0 Z5.
X-5.465 Y50.387
Z-4.245
G1 Z-4.845 F200.
X-5.458 Y50.385 Z-4.939
X-5.437 Y50.38 Z-5.03
X-5.402 Y50.371 Z-5.117
X-5.354 Y50.359 Z-5.198
X-5.295 Y50.344 Z-5.269
X-5.226 Y50.326 Z-5.33
X-5.148 Y50.306 Z-5.38
X-5.064 Y50.284 Z-5.416
X-4.975 Y50.262 Z-5.438
X-4.884 Y50.238 Z-5.445
G3 X-3.018 Y49.97 R8.75
G1 X-2.963 F500.
X-2.111 Y49.727
X-1.273 Y49.439
X-0.411 Y49.234
X0.464 Y49.09
X1.344 Y48.989
X2.227 Y48.92
X3.112 Y48.872
X3.998 Y48.839
X4.884 Y48.817
X5.77 Y48.802
X6.656 Y48.792
X7.542 Y48.785
X8.428 Y48.78
X9.314 Y48.777
X11.086 Y48.773
X14.631 Y48.771
X32.242 Y48.77
X32.296 Y48.755
X32.343 Y48.726
X32.641 Y48.398
X33.048 Y47.611
X33.296 Y46.76
X33.455 Y45.888
X33.559 Y45.008
X33.628 Y44.125
X33.675 Y43.24
X33.706 Y42.354
X33.726 Y41.468
X33.732 Y41.09
X33.764 Y40.907
X33.85 Y40.743
X33.983 Y40.612
X34.149 Y40.529
X34.332 Y40.5
X34.906
G3 X34.879 Y41.7 R0.6
X34.864 Y41.699 R0.6
G1 X34.77 Y41.696 Z-5.438
X34.678 Y41.693 Z-5.416
X34.592 Y41.69 Z-5.38
X34.511 Y41.687 Z-5.33
X34.44 Y41.684 Z-5.269
X34.379 Y41.682 Z-5.198
X34.329 Y41.681 Z-5.117
X34.293 Y41.679 Z-5.03
X34.271 Z-4.939
X34.264 Y41.678 Z-4.845
G0 Z-4.245
X-5.339 Y41.338
G1 Z-4.845 F200.
X-5.332 Y41.334 Z-4.939
X-5.314 Y41.323 Z-5.03
X-5.283 Y41.304 Z-5.117
X-5.24 Y41.279 Z-5.198
X-5.188 Y41.248 Z-5.269
X-5.126 Y41.211 Z-5.33
X-5.057 Y41.17 Z-5.38
X-4.982 Y41.126 Z-5.416
X-4.904 Y41.079 Z-5.438
X-4.823 Y41.031 Z-5.445
G3 X-3.014 Y40.5 R3.798
G1 X-1.918 F500.
X-1.768 Y40.507
X-1.369 Y40.734
X-0.936 Y41.08
X-0.479 Y41.582
X-0.009 Y42.296
X0.174 Y42.699
X0.252 Y42.906
X0.289 Y43.011
X0.341 Y43.169
X0.403 Y43.261
X0.742 Y43.546
X1.525 Y43.961
X2.38 Y44.194
X3.255 Y44.335
X4.136 Y44.423
X5.021 Y44.478
X5.906 Y44.512
X6.792 Y44.534
X7.678 Y44.548
X8.564 Y44.556
X9.45 Y44.562
X10.336 Y44.565
X12.109 Y44.568
X15.653 Y44.57
X27.727
X27.78 Y44.555
X27.968 Y44.438
X28.548 Y43.768
X28.892 Y42.951
X29.124 Y42.096
X29.354 Y41.24
X29.47 Y40.904
X29.556 Y40.741
X29.689 Y40.611
X29.854 Y40.529
X30.037 Y40.5
X34.332
G3 X34.305 Y41.7 R0.6
X34.29 Y41.699 R0.6
G1 X34.197 Y41.696 Z-5.438
X34.105 Y41.693 Z-5.416
X34.018 Y41.69 Z-5.38
X33.938 Y41.687 Z-5.33
X33.866 Y41.684 Z-5.269
X33.805 Y41.682 Z-5.198
X33.756 Y41.681 Z-5.117
X33.72 Y41.679 Z-5.03
X33.698 Z-4.939
X33.691 Y41.678 Z-4.845
G0 Z-4.245
X-4.242 Y41.338
G1 Z-4.845 F200.
X-4.236 Y41.334 Z-4.939
X-4.217 Y41.323 Z-5.03
X-4.186 Y41.304 Z-5.117
X-4.144 Y41.279 Z-5.198
X-4.091 Y41.248 Z-5.269
X-4.03 Y41.211 Z-5.33
X-3.961 Y41.17 Z-5.38
X-3.886 Y41.126 Z-5.416
X-3.807 Y41.079 Z-5.438
X-3.726 Y41.031 Z-5.445
G3 X-1.918 Y40.5 R3.798
G1 X30.037 F500.
G3 X30.509 Y41.441 R0.6
G1 X30.457 Y41.493 Z-5.44
X30.405 Y41.545 Z-5.427
X30.356 Y41.594 Z-5.404
X30.283 Y41.627 Z-5.366
X30.217 Y41.656 Z-5.316
X30.157 Y41.683 Z-5.257
X30.111 Y41.688 Z-5.2
X30.071 Y41.693 Z-5.138
X30.039 Y41.697 Z-5.072
X30.016 Y41.7 Z-5.002
X30.01 Z-4.978
X29.999 Y41.699 Z-4.912
X29.995 Z-4.845
G0 Z5.
X-5.465 Y50.387
Z-4.74
G1 Z-5.34 F200.
X-5.458 Y50.385 Z-5.434
X-5.437 Y50.38 Z-5.525
X-5.402 Y50.371 Z-5.612
X-5.354 Y50.359 Z-5.693
X-5.295 Y50.344 Z-5.764
X-5.226 Y50.326 Z-5.825
X-5.148 Y50.306 Z-5.875
X-5.064 Y50.284 Z-5.911
X-4.975 Y50.262 Z-5.933
X-4.884 Y50.238 Z-5.94
G3 X-3.018 Y49.97 R8.75
G1 X-2.963 F500.
X-2.111 Y49.727
X-1.273 Y49.439
X-0.411 Y49.234
X0.464 Y49.09
X1.344 Y48.989
X2.227 Y48.92
X3.112 Y48.872
X3.998 Y48.839
X4.884 Y48.817
X5.77 Y48.802
X6.656 Y48.792
X7.542 Y48.785
X8.428 Y48.78
X9.314 Y48.777
X11.086 Y48.773
X14.631 Y48.771
X32.242 Y48.77
X32.296 Y48.755
X32.343 Y48.726
X32.641 Y48.398
X33.048 Y47.611
X33.296 Y46.76
X33.455 Y45.888
X33.559 Y45.008
X33.628 Y44.125
X33.675 Y43.24
X33.706 Y42.354
X33.726 Y41.468
X33.732 Y41.09
X33.764 Y40.907
X33.85 Y40.743
X33.983 Y40.612
X34.149 Y40.529
X34.332 Y40.5
X34.906
G3 X34.879 Y41.7 R0.6
X34.864 Y41.699 R0.6
G1 X34.77 Y41.696 Z-5.933
X34.678 Y41.693 Z-5.911
X34.592 Y41.69 Z-5.875
X34.511 Y41.687 Z-5.825
X34.44 Y41.684 Z-5.764
X34.379 Y41.682 Z-5.693
X34.329 Y41.681 Z-5.612
X34.293 Y41.679 Z-5.525
X34.271 Z-5.434
X34.264 Y41.678 Z-5.34
G0 Z-4.74
X-5.339 Y41.338
G1 Z-5.34 F200.
X-5.332 Y41.334 Z-5.434
X-5.314 Y41.323 Z-5.525
X-5.283 Y41.304 Z-5.612
X-5.24 Y41.279 Z-5.693
X-5.188 Y41.248 Z-5.764
X-5.126 Y41.211 Z-5.825
X-5.057 Y41.17 Z-5.875
X-4.982 Y41.126 Z-5.911
X-4.904 Y41.079 Z-5.933
X-4.823 Y41.031 Z-5.94
G3 X-3.014 Y40.5 R3.798
G1 X-1.918 F500.
X-1.768 Y40.507
X-1.369 Y40.734
X-0.936 Y41.08
X-0.479 Y41.582
X-0.009 Y42.296
X0.174 Y42.699
X0.252 Y42.906
X0.289 Y43.011
X0.341 Y43.169
X0.403 Y43.261
X0.742 Y43.546
X1.525 Y43.961
X2.38 Y44.194
X3.255 Y44.335
X4.136 Y44.423
X5.021 Y44.478
X5.906 Y44.512
X6.792 Y44.534
X7.678 Y44.548
X8.564 Y44.556
X9.45 Y44.562
X10.336 Y44.565
X12.109 Y44.568
X15.653 Y44.57
X27.727
X27.78 Y44.555
X27.968 Y44.438
X28.548 Y43.768
X28.892 Y42.951
X29.124 Y42.096
X29.354 Y41.24
X29.47 Y40.904
X29.556 Y40.741
X29.689 Y40.611
X29.854 Y40.529
X30.037 Y40.5
X34.332
G3 X34.305 Y41.7 R0.6
X34.29 Y41.699 R0.6
G1 X34.197 Y41.696 Z-5.933
X34.105 Y41.693 Z-5.911
X34.018 Y41.69 Z-5.875
X33.938 Y41.687 Z-5.825
X33.866 Y41.684 Z-5.764
X33.805 Y41.682 Z-5.693
X33.756 Y41.681 Z-5.612
X33.72 Y41.679 Z-5.525
X33.698 Z-5.434
X33.691 Y41.678 Z-5.34
G0 Z-4.74
X-4.242 Y41.338
G1 Z-5.34 F200.
X-4.236 Y41.334 Z-5.434
X-4.217 Y41.323 Z-5.525
X-4.186 Y41.304 Z-5.612
X-4.144 Y41.279 Z-5.693
X-4.091 Y41.248 Z-5.764
X-4.03 Y41.211 Z-5.825
X-3.961 Y41.17 Z-5.875
X-3.886 Y41.126 Z-5.911
X-3.807 Y41.079 Z-5.933
X-3.726 Y41.031 Z-5.94
G3 X-1.918 Y40.5 R3.798
G1 X30.037 F500.
G3 X30.509 Y41.441 R0.6
G1 X30.457 Y41.493 Z-5.935
X30.405 Y41.545 Z-5.922
X30.356 Y41.594 Z-5.899
X30.283 Y41.627 Z-5.861
X30.217 Y41.656 Z-5.811
X30.157 Y41.683 Z-5.752
X30.111 Y41.688 Z-5.695
X30.071 Y41.693 Z-5.633
X30.039 Y41.697 Z-5.567
X30.016 Y41.7 Z-5.497
X30.01 Z-5.473
X29.999 Y41.699 Z-5.407
X29.995 Z-5.34
G0 Z5.
X-5.465 Y50.387
Z-5.235
G1 Z-5.835 F200.
X-5.458 Y50.385 Z-5.929
X-5.437 Y50.38 Z-6.02
X-5.402 Y50.371 Z-6.107
X-5.354 Y50.359 Z-6.188
X-5.295 Y50.344 Z-6.259
X-5.226 Y50.326 Z-6.32
X-5.148 Y50.306 Z-6.37
X-5.064 Y50.284 Z-6.406
X-4.975 Y50.262 Z-6.428
X-4.884 Y50.238 Z-6.435
G3 X-3.018 Y49.97 R8.75
G1 X-2.963 F500.
X-2.111 Y49.727
X-1.273 Y49.439
X-0.411 Y49.234
X0.464 Y49.09
X1.344 Y48.989
X2.227 Y48.92
X3.112 Y48.872
X3.998 Y48.839
X4.884 Y48.817
X5.77 Y48.802
X6.656 Y48.792
X7.542 Y48.785
X8.428 Y48.78
X9.314 Y48.777
X11.086 Y48.773
X14.631 Y48.771
X32.242 Y48.77
X32.296 Y48.755
X32.343 Y48.726
X32.641 Y48.398
X33.048 Y47.611
X33.296 Y46.76
X33.455 Y45.888
X33.559 Y45.008
X33.628 Y44.125
X33.675 Y43.24
X33.706 Y42.354
X33.726 Y41.468
X33.732 Y41.09
X33.764 Y40.907
X33.85 Y40.743
X33.983 Y40.612
X34.149 Y40.529
X34.332 Y40.5
X34.906
G3 X34.879 Y41.7 R0.6
X34.864 Y41.699 R0.6
G1 X34.77 Y41.696 Z-6.428
X34.678 Y41.693 Z-6.406
X34.592 Y41.69 Z-6.37
X34.511 Y41.687 Z-6.32
X34.44 Y41.684 Z-6.259
X34.379 Y41.682 Z-6.188
X34.329 Y41.681 Z-6.107
X34.293 Y41.679 Z-6.02
X34.271 Z-5.929
X34.264 Y41.678 Z-5.835
G0 Z-5.235
X-5.339 Y41.338
G1 Z-5.835 F200.
X-5.332 Y41.334 Z-5.929
X-5.314 Y41.323 Z-6.02
X-5.283 Y41.304 Z-6.107
X-5.24 Y41.279 Z-6.188
X-5.188 Y41.248 Z-6.259
X-5.126 Y41.211 Z-6.32
X-5.057 Y41.17 Z-6.37
X-4.982 Y41.126 Z-6.406
X-4.904 Y41.079 Z-6.428
X-4.823 Y41.031 Z-6.435
G3 X-3.014 Y40.5 R3.798
G1 X-1.918 F500.
X-1.768 Y40.507
X-1.369 Y40.734
X-0.936 Y41.08
X-0.479 Y41.582
X-0.009 Y42.296
X0.174 Y42.699
X0.252 Y42.906
X0.289 Y43.011
X0.341 Y43.169
X0.403 Y43.261
X0.742 Y43.546
X1.525 Y43.961
X2.38 Y44.194
X3.255 Y44.335
X4.136 Y44.423
X5.021 Y44.478
X5.906 Y44.512
X6.792 Y44.534
X7.678 Y44.548
X8.564 Y44.556
X9.45 Y44.562
X10.336 Y44.565
X12.109 Y44.568
X15.653 Y44.57
X27.727
X27.78 Y44.555
X27.968 Y44.438
X28.548 Y43.768
X28.892 Y42.951
X29.124 Y42.096
X29.354 Y41.24
X29.47 Y40.904
X29.556 Y40.741
X29.689 Y40.611
X29.854 Y40.529
X30.037 Y40.5
X34.332
G3 X34.305 Y41.7 R0.6
X34.29 Y41.699 R0.6
G1 X34.197 Y41.696 Z-6.428
X34.105 Y41.693 Z-6.406
X34.018 Y41.69 Z-6.37
X33.938 Y41.687 Z-6.32
X33.866 Y41.684 Z-6.259
X33.805 Y41.682 Z-6.188
X33.756 Y41.681 Z-6.107
X33.72 Y41.679 Z-6.02
X33.698 Z-5.929
X33.691 Y41.678 Z-5.835
G0 Z-5.235
X-4.242 Y41.338
G1 Z-5.835 F200.
X-4.236 Y41.334 Z-5.929
X-4.217 Y41.323 Z-6.02
X-4.186 Y41.304 Z-6.107
X-4.144 Y41.279 Z-6.188
X-4.091 Y41.248 Z-6.259
X-4.03 Y41.211 Z-6.32
X-3.961 Y41.17 Z-6.37
X-3.886 Y41.126 Z-6.406
X-3.807 Y41.079 Z-6.428
X-3.726 Y41.031 Z-6.435
G3 X-1.918 Y40.5 R3.798
G1 X30.037 F500.
G3 X30.509 Y41.441 R0.6
G1 X30.457 Y41.493 Z-6.43
X30.405 Y41.545 Z-6.417
X30.356 Y41.594 Z-6.394
X30.283 Y41.627 Z-6.356
X30.217 Y41.656 Z-6.306
X30.157 Y41.683 Z-6.247
X30.111 Y41.688 Z-6.19
X30.071 Y41.693 Z-6.128
X30.039 Y41.697 Z-6.062
X30.016 Y41.7 Z-5.992
X30.01 Z-5.968
X29.999 Y41.699 Z-5.902
X29.995 Z-5.835
G0 Z5.
X-5.465 Y50.387
Z-5.73
G1 Z-6.33 F200.
X-5.458 Y50.385 Z-6.424
X-5.437 Y50.38 Z-6.515
X-5.402 Y50.371 Z-6.602
X-5.354 Y50.359 Z-6.683
X-5.295 Y50.344 Z-6.754
X-5.226 Y50.326 Z-6.815
X-5.148 Y50.306 Z-6.865
X-5.064 Y50.284 Z-6.901
X-4.975 Y50.262 Z-6.923
X-4.884 Y50.238 Z-6.93
G3 X-3.018 Y49.97 R8.75
G1 X-2.963 F500.
X-2.111 Y49.727
X-1.273 Y49.439
X-0.411 Y49.234
X0.464 Y49.09
X1.344 Y48.989
X2.227 Y48.92
X3.112 Y48.872
X3.998 Y48.839
X4.884 Y48.817
X5.77 Y48.802
X6.656 Y48.792
X7.542 Y48.785
X8.428 Y48.78
X9.314 Y48.777
X11.086 Y48.773
X14.631 Y48.771
X32.242 Y48.77
X32.296 Y48.755
X32.343 Y48.726
X32.641 Y48.398
X33.048 Y47.611
X33.296 Y46.76
X33.455 Y45.888
X33.559 Y45.008
X33.628 Y44.125
X33.675 Y43.24
X33.706 Y42.354
X33.726 Y41.468
X33.732 Y41.09
X33.764 Y40.907
X33.85 Y40.743
X33.983 Y40.612
X34.149 Y40.529
X34.332 Y40.5
X34.906
G3 X34.879 Y41.7 R0.6
X34.864 Y41.699 R0.6
G1 X34.77 Y41.696 Z-6.923
X34.678 Y41.693 Z-6.901
X34.592 Y41.69 Z-6.865
X34.511 Y41.687 Z-6.815
X34.44 Y41.684 Z-6.754
X34.379 Y41.682 Z-6.683
X34.329 Y41.681 Z-6.602
X34.293 Y41.679 Z-6.515
X34.271 Z-6.424
X34.264 Y41.678 Z-6.33
G0 Z-5.73
X-5.339 Y41.338
G1 Z-6.33 F200.
X-5.332 Y41.334 Z-6.424
X-5.314 Y41.323 Z-6.515
X-5.283 Y41.304 Z-6.602
X-5.24 Y41.279 Z-6.683
X-5.188 Y41.248 Z-6.754
X-5.126 Y41.211 Z-6.815
X-5.057 Y41.17 Z-6.865
X-4.982 Y41.126 Z-6.901
X-4.904 Y41.079 Z-6.923
X-4.823 Y41.031 Z-6.93
G3 X-3.014 Y40.5 R3.798
G1 X-1.918 F500.
X-1.768 Y40.507
X-1.369 Y40.734
X-0.936 Y41.08
X-0.479 Y41.582
X-0.009 Y42.296
X0.174 Y42.699
X0.252 Y42.906
X0.289 Y43.011
X0.341 Y43.169
X0.403 Y43.261
X0.742 Y43.546
X1.525 Y43.961
X2.38 Y44.194
X3.255 Y44.335
X4.136 Y44.423
X5.021 Y44.478
X5.906 Y44.512
X6.792 Y44.534
X7.678 Y44.548
X8.564 Y44.556
X9.45 Y44.562
X10.336 Y44.565
X12.109 Y44.568
X15.653 Y44.57
X27.727
X27.78 Y44.555
X27.968 Y44.438
X28.548 Y43.768
X28.892 Y42.951
X29.124 Y42.096
X29.354 Y41.24
X29.47 Y40.904
X29.556 Y40.741
X29.689 Y40.611
X29.854 Y40.529
X30.037 Y40.5
X34.332
G3 X34.305 Y41.7 R0.6
X34.29 Y41.699 R0.6
G1 X34.197 Y41.696 Z-6.923
X34.105 Y41.693 Z-6.901
X34.018 Y41.69 Z-6.865
X33.938 Y41.687 Z-6.815
X33.866 Y41.684 Z-6.754
X33.805 Y41.682 Z-6.683
X33.756 Y41.681 Z-6.602
X33.72 Y41.679 Z-6.515
X33.698 Z-6.424
X33.691 Y41.678 Z-6.33
G0 Z-5.73
X-4.242 Y41.338
G1 Z-6.33 F200.
X-4.236 Y41.334 Z-6.424
X-4.217 Y41.323 Z-6.515
X-4.186 Y41.304 Z-6.602
X-4.144 Y41.279 Z-6.683
X-4.091 Y41.248 Z-6.754
X-4.03 Y41.211 Z-6.815
X-3.961 Y41.17 Z-6.865
X-3.886 Y41.126 Z-6.901
X-3.807 Y41.079 Z-6.923
X-3.726 Y41.031 Z-6.93
G3 X-1.918 Y40.5 R3.798
G1 X30.037 F500.
G3 X30.509 Y41.441 R0.6
G1 X30.457 Y41.493 Z-6.925
X30.405 Y41.545 Z-6.912
X30.356 Y41.594 Z-6.889
X30.283 Y41.627 Z-6.851
X30.217 Y41.656 Z-6.801
X30.157 Y41.683 Z-6.742
X30.111 Y41.688 Z-6.685
X30.071 Y41.693 Z-6.623
X30.039 Y41.697 Z-6.557
X30.016 Y41.7 Z-6.487
X30.01 Z-6.463
X29.999 Y41.699 Z-6.397
X29.995 Z-6.33
G0 Z5.
X-5.465 Y50.387
Z-6.225
G1 Z-6.825 F200.
X-5.458 Y50.385 Z-6.919
X-5.437 Y50.38 Z-7.01
X-5.402 Y50.371 Z-7.097
X-5.354 Y50.359 Z-7.178
X-5.295 Y50.344 Z-7.249
X-5.226 Y50.326 Z-7.31
X-5.148 Y50.306 Z-7.36
X-5.064 Y50.284 Z-7.396
X-4.975 Y50.262 Z-7.418
X-4.884 Y50.238 Z-7.425
G3 X-3.018 Y49.97 R8.75
G1 X-2.963 F500.
X-2.111 Y49.727
X-1.273 Y49.439
X-0.411 Y49.234
X0.464 Y49.09
X1.344 Y48.989
X2.227 Y48.92
X3.112 Y48.872
X3.998 Y48.839
X4.884 Y48.817
X5.77 Y48.802
X6.656 Y48.792
X7.542 Y48.785
X8.428 Y48.78
X9.314 Y48.777
X11.086 Y48.773
X14.631 Y48.771
X32.242 Y48.77
X32.296 Y48.755
X32.343 Y48.726
X32.641 Y48.398
X33.048 Y47.611
X33.296 Y46.76
X33.455 Y45.888
X33.559 Y45.008
X33.628 Y44.125
X33.675 Y43.24
X33.706 Y42.354
X33.726 Y41.468
X33.732 Y41.09
X33.764 Y40.907
X33.85 Y40.743
X33.983 Y40.612
X34.149 Y40.529
X34.332 Y40.5
X34.906
G3 X34.879 Y41.7 R0.6
X34.864 Y41.699 R0.6
G1 X34.77 Y41.696 Z-7.418
X34.678 Y41.693 Z-7.396
X34.592 Y41.69 Z-7.36
X34.511 Y41.687 Z-7.31
X34.44 Y41.684 Z-7.249
X34.379 Y41.682 Z-7.178
X34.329 Y41.681 Z-7.097
X34.293 Y41.679 Z-7.01
X34.271 Z-6.919
X34.264 Y41.678 Z-6.825
G0 Z-6.225
X-5.339 Y41.338
G1 Z-6.825 F200.
X-5.332 Y41.334 Z-6.919
X-5.314 Y41.323 Z-7.01
X-5.283 Y41.304 Z-7.097
X-5.24 Y41.279 Z-7.178
X-5.188 Y41.248 Z-7.249
X-5.126 Y41.211 Z-7.31
X-5.057 Y41.17 Z-7.36
X-4.982 Y41.126 Z-7.396
X-4.904 Y41.079 Z-7.418
X-4.823 Y41.031 Z-7.425
G3 X-3.014 Y40.5 R3.798
G1 X-1.918 F500.
X-1.768 Y40.507
X-1.369 Y40.734
X-0.936 Y41.08
X-0.479 Y41.582
X-0.009 Y42.296
X0.174 Y42.699
X0.252 Y42.906
X0.289 Y43.011
X0.341 Y43.169
X0.403 Y43.261
X0.742 Y43.546
X1.525 Y43.961
X2.38 Y44.194
X3.255 Y44.335
X4.136 Y44.423
X5.021 Y44.478
X5.906 Y44.512
X6.792 Y44.534
X7.678 Y44.548
X8.564 Y44.556
X9.45 Y44.562
X10.336 Y44.565
X12.109 Y44.568
X15.653 Y44.57
X27.727
X27.78 Y44.555
X27.968 Y44.438
X28.548 Y43.768
X28.892 Y42.951
X29.124 Y42.096
X29.354 Y41.24
X29.47 Y40.904
X29.556 Y40.741
X29.689 Y40.611
X29.854 Y40.529
X30.037 Y40.5
X34.332
G3 X34.305 Y41.7 R0.6
X34.29 Y41.699 R0.6
G1 X34.197 Y41.696 Z-7.418
X34.105 Y41.693 Z-7.396
X34.018 Y41.69 Z-7.36
X33.938 Y41.687 Z-7.31
X33.866 Y41.684 Z-7.249
X33.805 Y41.682 Z-7.178
X33.756 Y41.681 Z-7.097
X33.72 Y41.679 Z-7.01
X33.698 Z-6.919
X33.691 Y41.678 Z-6.825
G0 Z-6.225
X-4.242 Y41.338
G1 Z-6.825 F200.
X-4.236 Y41.334 Z-6.919
X-4.217 Y41.323 Z-7.01
X-4.186 Y41.304 Z-7.097
X-4.144 Y41.279 Z-7.178
X-4.091 Y41.248 Z-7.249
X-4.03 Y41.211 Z-7.31
X-3.961 Y41.17 Z-7.36
X-3.886 Y41.126 Z-7.396
X-3.807 Y41.079 Z-7.418
X-3.726 Y41.031 Z-7.425
G3 X-1.918 Y40.5 R3.798
G1 X30.037 F500.
G3 X30.509 Y41.441 R0.6
G1 X30.457 Y41.493 Z-7.42
X30.405 Y41.545 Z-7.407
X30.356 Y41.594 Z-7.384
X30.283 Y41.627 Z-7.346
X30.217 Y41.656 Z-7.296
X30.157 Y41.683 Z-7.237
X30.111 Y41.688 Z-7.18
X30.071 Y41.693 Z-7.118
X30.039 Y41.697 Z-7.052
X30.016 Y41.7 Z-6.982
X30.01 Z-6.958
X29.999 Y41.699 Z-6.892
X29.995 Z-6.825
G0 Z5.
X-5.465 Y50.387
Z-6.7
G1 Z-7.3 F200.
X-5.458 Y50.385 Z-7.394
X-5.437 Y50.38 Z-7.485
X-5.402 Y50.371 Z-7.572
X-5.354 Y50.359 Z-7.653
X-5.295 Y50.344 Z-7.724
X-5.226 Y50.326 Z-7.785
X-5.148 Y50.306 Z-7.835
X-5.064 Y50.284 Z-7.871
X-4.975 Y50.262 Z-7.893
X-4.884 Y50.238 Z-7.9
G3 X-3.018 Y49.97 R8.75
G1 X-2.963 F500.
X-2.111 Y49.727
X-1.273 Y49.439
X-0.411 Y49.234
X0.464 Y49.09
X1.344 Y48.989
X2.227 Y48.92
X3.112 Y48.872
X3.998 Y48.839
X4.884 Y48.817
X5.77 Y48.802
X6.656 Y48.792
X7.542 Y48.785
X8.428 Y48.78
X9.314 Y48.777
X11.086 Y48.773
X14.631 Y48.771
X32.242 Y48.77
X32.296 Y48.755
X32.343 Y48.726
X32.641 Y48.398
X33.048 Y47.611
X33.296 Y46.76
X33.455 Y45.888
X33.559 Y45.008
X33.628 Y44.125
X33.675 Y43.24
X33.706 Y42.354
X33.726 Y41.468
X33.732 Y41.09
X33.764 Y40.907
X33.85 Y40.743
X33.983 Y40.612
X34.149 Y40.529
X34.332 Y40.5
X34.906
G3 X34.879 Y41.7 R0.6
X34.864 Y41.699 R0.6
G1 X34.77 Y41.696 Z-7.893
X34.678 Y41.693 Z-7.871
X34.592 Y41.69 Z-7.835
X34.511 Y41.687 Z-7.785
X34.44 Y41.684 Z-7.724
X34.379 Y41.682 Z-7.653
X34.329 Y41.681 Z-7.572
X34.293 Y41.679 Z-7.485
X34.271 Z-7.394
X34.264 Y41.678 Z-7.3
G0 Z-6.7
X-5.339 Y41.338
G1 Z-7.3 F200.
X-5.332 Y41.334 Z-7.394
X-5.314 Y41.323 Z-7.485
X-5.283 Y41.304 Z-7.572
X-5.24 Y41.279 Z-7.653
X-5.188 Y41.248 Z-7.724
X-5.126 Y41.211 Z-7.785
X-5.057 Y41.17 Z-7.835
X-4.982 Y41.126 Z-7.871
X-4.904 Y41.079 Z-7.893
X-4.823 Y41.031 Z-7.9
G3 X-3.014 Y40.5 R3.798
G1 X-1.918 F500.
X-1.768 Y40.507
X-1.369 Y40.734
X-0.936 Y41.08
X-0.479 Y41.582
X-0.009 Y42.296
X0.174 Y42.699
X0.252 Y42.906
X0.289 Y43.011
X0.341 Y43.169
X0.403 Y43.261
X0.742 Y43.546
X1.525 Y43.961
X2.38 Y44.194
X3.255 Y44.335
X4.136 Y44.423
X5.021 Y44.478
X5.906 Y44.512
X6.792 Y44.534
X7.678 Y44.548
X8.564 Y44.556
X9.45 Y44.562
X10.336 Y44.565
X12.109 Y44.568
X15.653 Y44.57
X27.727
X27.78 Y44.555
X27.968 Y44.438
X28.548 Y43.768
X28.892 Y42.951
X29.124 Y42.096
X29.354 Y41.24
X29.47 Y40.904
X29.556 Y40.741
X29.689 Y40.611
X29.854 Y40.529
X30.037 Y40.5
X34.332
G3 X34.305 Y41.7 R0.6
X34.29 Y41.699 R0.6
G1 X34.197 Y41.696 Z-7.893
X34.105 Y41.693 Z-7.871
X34.018 Y41.69 Z-7.835
X33.938 Y41.687 Z-7.785
X33.866 Y41.684 Z-7.724
X33.805 Y41.682 Z-7.653
X33.756 Y41.681 Z-7.572
X33.72 Y41.679 Z-7.485
X33.698 Z-7.394
X33.691 Y41.678 Z-7.3
G0 Z-6.7
X-4.242 Y41.338
G1 Z-7.3 F200.
X-4.236 Y41.334 Z-7.394
X-4.217 Y41.323 Z-7.485
X-4.186 Y41.304 Z-7.572
X-4.144 Y41.279 Z-7.653
X-4.091 Y41.248 Z-7.724
X-4.03 Y41.211 Z-7.785
X-3.961 Y41.17 Z-7.835
X-3.886 Y41.126 Z-7.871
X-3.807 Y41.079 Z-7.893
X-3.726 Y41.031 Z-7.9
G3 X-1.918 Y40.5 R3.798
G1 X30.037 F500.
G3 X30.01 Y41.7 R0.6
X29.995 Y41.699 R0.6
G1 X29.901 Y41.696 Z-7.893
X29.81 Y41.693 Z-7.871
X29.723 Y41.69 Z-7.835
X29.643 Y41.687 Z-7.785
X29.571 Y41.684 Z-7.724
X29.51 Y41.682 Z-7.653
X29.461 Y41.681 Z-7.572
X29.425 Y41.679 Z-7.485
X29.403 Z-7.394
X29.395 Y41.678 Z-7.3
G0 Z15.
G28 G91 Z0.
G90

(2D POCKET1)
M5
M9
M1
T2 M6
(3ER SET IN HOLZBOX)
S27000 M3
M7
G0 X14.465 Y42.372
G43 Z15. H2
Z-5.2
G3 X14.501 Y42.386 Z-5.347 R1.425 F470.
X14.598 Y42.426 Z-5.456 R1.425
X14.727 Y42.494 Z-5.5 R1.425
X13.273 Y44.945 Z-5.656 R1.425
X14.727 Y42.494 Z-5.813 R1.425
X13.273 Y44.945 Z-5.969 R1.425
X14.727 Y42.494 Z-6.125 R1.425
X13.273 Y44.945 Z-6.282 R1.425
X14.727 Y42.494 Z-6.438 R1.425
X13.273 Y44.945 Z-6.594 R1.425
X14.727 Y42.494 Z-6.751 R1.425
X13.273 Y44.945 Z-6.907 R1.425
X14.727 Y42.494 Z-7.063 R1.425
X13.273 Y44.945 Z-7.22 R1.425
X14.727 Y42.494 Z-7.376 R1.425
X13.273 Y44.945 Z-7.532 R1.425
X14.727 Y42.494 Z-7.689 R1.425
X13.273 Y44.945 Z-7.845 R1.425
X14.727 Y42.494 Z-8.001 R1.425
X13.273 Y44.945 Z-8.158 R1.425
X14.727 Y42.494 Z-8.314 R1.425
X13.273 Y44.945 Z-8.47 R1.425
X14. Y42.295 Z-8.6 R1.425
Y44.528 R1.116
G1 X11.
G3 Y43.472 R0.528
G1 X14.
G3 Y44.528 R0.528
G2 X13.083 Y45.139 R0.993
G3 X12.166 Y45.75 R0.993
G1 X11.
G3 Y42.25 R1.75
G1 X14.
G3 Y45.75 R1.75
G1 X12.166
G3 X11.97 Y45.589 R0.2
G1 X11.401 Y42.688
G3 X11.694 Y42.475 R0.2
X10.306 Y44.964 Z-8.756 R1.425
X11.694 Y42.475 Z-8.913 R1.425
X10.306 Y44.964 Z-9.069 R1.425
X11. Y42.295 Z-9.2 R1.425
Y44.528 R1.116
Y43.472 R0.528
G1 X14.
G3 Y44.528 R0.528
G1 X11.
G2 X10.288 Y44.904 R0.861
G3 X9.484 Y44.874 R0.475
X11. Y42.25 R1.75
G1 X14.
G3 Y45.75 R1.75
G1 X11.
G3 X9.484 Y44.874 R1.75
X9.509 Y44.639 R0.2
G1 X11.449 Y42.515
G3 X11.694 Y42.475 R0.2
X10.306 Y44.964 Z-9.356 R1.425
X11.694 Y42.475 Z-9.513 R1.425
X10.306 Y44.964 Z-9.669 R1.425
X11. Y42.295 Z-9.8 R1.425
Y44.528 R1.116
Y43.472 R0.528
G1 X14.
G3 Y44.528 R0.528
G1 X11.
G2 X10.288 Y44.904 R0.861
G3 X9.484 Y44.874 R0.475
X11. Y42.25 R1.75
G1 X14.
G3 Y45.75 R1.75
G1 X11.
G3 X9.484 Y44.874 R1.75
X9.509 Y44.639 R0.2
G1 X11.449 Y42.515
G3 X11.694 Y42.475 R0.2
X10.306 Y44.964 Z-9.956 R1.425
X11.694 Y42.475 Z-10.113 R1.425
X10.306 Y44.964 Z-10.269 R1.425
X11. Y42.295 Z-10.4 R1.425
Y44.528 R1.116
Y43.472 R0.528
G1 X14.
G3 Y44.528 R0.528
G1 X11.
G2 X10.288 Y44.904 R0.861
G3 X9.484 Y44.874 R0.475
X11. Y42.25 R1.75
G1 X14.
G3 Y45.75 R1.75
G1 X11.
G3 X9.484 Y44.874 R1.75
X9.509 Y44.639 R0.2
G1 X11.449 Y42.515
G3 X11.694 Y42.475 R0.2
X10.306 Y44.964 Z-10.556 R1.425
X11.694 Y42.475 Z-10.713 R1.425
X10.306 Y44.964 Z-10.869 R1.425
X11. Y42.295 Z-11. R1.425
Y44.528 R1.116
Y43.472 R0.528
G1 X14.
G3 Y44.528 R0.528
G1 X11.
G2 X10.288 Y44.904 R0.861
G3 X9.484 Y44.874 R0.475
X11. Y42.25 R1.75
G1 X14.
G3 Y45.75 R1.75
G1 X11.
G3 X9.484 Y44.874 R1.75
X9.509 Y44.639 R0.2
G1 X11.449 Y42.515
G3 X11.694 Y42.475 R0.2
X10.306 Y44.964 Z-11.156 R1.425
X11.694 Y42.475 Z-11.313 R1.425
X10.306 Y44.964 Z-11.469 R1.425
X11. Y42.295 Z-11.6 R1.425
Y44.528 R1.116
Y43.472 R0.528
G1 X14.
G3 Y44.528 R0.528
G1 X11.
G2 X10.288 Y44.904 R0.861
G3 X9.484 Y44.874 R0.475
X11. Y42.25 R1.75
G1 X14.
G3 Y45.75 R1.75
G1 X11.
G3 X9.484 Y44.874 R1.75
X9.509 Y44.639 R0.2
G1 X11.449 Y42.515
G3 X11.694 Y42.475 R0.2
X10.306 Y44.964 Z-11.756 R1.425
X11.694 Y42.475 Z-11.913 R1.425
X10.306 Y44.964 Z-12.069 R1.425
X11. Y42.295 Z-12.2 R1.425
Y44.528 R1.116
Y43.472 R0.528
G1 X14.
G3 Y44.528 R0.528
G1 X11.
G2 X10.288 Y44.904 R0.861
G3 X9.484 Y44.874 R0.475
X11. Y42.25 R1.75
G1 X14.
G3 Y45.75 R1.75
G1 X11.
G3 X9.484 Y44.874 R1.75
X9.509 Y44.639 R0.2
G1 X11.449 Y42.515
G3 X11.694 Y42.475 R0.2
X10.306 Y44.964 Z-12.356 R1.425
X11.694 Y42.475 Z-12.513 R1.425
X10.306 Y44.964 Z-12.669 R1.425
X11. Y42.295 Z-12.8 R1.425
Y44.528 R1.116
Y43.472 R0.528
G1 X14.
G3 Y44.528 R0.528
G1 X11.
G2 X10.288 Y44.904 R0.861
G3 X9.484 Y44.874 R0.475
X11. Y42.25 R1.75
G1 X14.
G3 Y45.75 R1.75
G1 X11.
G3 X9.484 Y44.874 R1.75
X9.509 Y44.639 R0.2
G1 X11.449 Y42.515
G3 X11.694 Y42.475 R0.2
X10.306 Y44.964 Z-12.956 R1.425
X11.694 Y42.475 Z-13.113 R1.425
X10.306 Y44.964 Z-13.269 R1.425
X11. Y42.295 Z-13.4 R1.425
Y44.528 R1.116
Y43.472 R0.528
G1 X14.
G3 Y44.528 R0.528
G1 X11.
G2 X10.288 Y44.904 R0.861
G3 X9.484 Y44.874 R0.475
X11. Y42.25 R1.75
G1 X14.
G3 Y45.75 R1.75
G1 X11.
G3 X9.484 Y44.874 R1.75
X9.509 Y44.639 R0.2
G1 X11.449 Y42.515
G3 X11.694 Y42.475 R0.2
X10.306 Y44.964 Z-13.556 R1.425
X11.694 Y42.475 Z-13.713 R1.425
X10.306 Y44.964 Z-13.869 R1.425
X11. Y42.295 Z-14. R1.425
Y44.528 R1.116
Y43.472 R0.528
G1 X14.
G3 Y44.528 R0.528
G1 X11.
G2 X10.288 Y44.904 R0.861
G3 X9.484 Y44.874 R0.475
X11. Y42.25 R1.75
G1 X14.
G3 Y45.75 R1.75
G1 X11.
G3 X9.484 Y44.874 R1.75
X9.509 Y44.639 R0.2
G1 X11.449 Y42.515
G3 X11.694 Y42.475 R0.2
X10.306 Y44.964 Z-14.156 R1.425
X11.694 Y42.475 Z-14.313 R1.425
X10.306 Y44.964 Z-14.469 R1.425
X11. Y42.295 Z-14.6 R1.425
Y44.528 R1.116
Y43.472 R0.528
G1 X14.
G3 Y44.528 R0.528
G1 X11.
G2 X10.288 Y44.904 R0.861
G3 X9.484 Y44.874 R0.475
X11. Y42.25 R1.75
G1 X14.
G3 Y45.75 R1.75
G1 X11.
G3 X9.484 Y44.874 R1.75
X9.509 Y44.639 R0.2
G1 X11.449 Y42.515
G3 X11.694 Y42.475 R0.2
X10.306 Y44.964 Z-14.756 R1.425
X11.694 Y42.475 Z-14.913 R1.425
X10.306 Y44.964 Z-15.069 R1.425
X11. Y42.295 Z-15.2 R1.425
Y44.528 R1.116
Y43.472 R0.528
G1 X14.
G3 Y44.528 R0.528
G1 X11.
G2 X10.288 Y44.904 R0.861
G3 X9.484 Y44.874 R0.475
X11. Y42.25 R1.75
G1 X14.
G3 Y45.75 R1.75
G1 X11.
G3 X9.484 Y44.874 R1.75
X9.509 Y44.639 R0.2
G1 X11.449 Y42.515
G3 X11.694 Y42.475 R0.2
X10.306 Y44.964 Z-15.356 R1.425
X11.694 Y42.475 Z-15.513 R1.425
X10.306 Y44.964 Z-15.669 R1.425
X11. Y42.295 Z-15.8 R1.425
Y44.528 R1.116
Y43.472 R0.528
G1 X14.
G3 Y44.528 R0.528
G1 X11.
G2 X10.288 Y44.904 R0.861
G3 X9.484 Y44.874 R0.475
X11. Y42.25 R1.75
G1 X14.
G3 Y45.75 R1.75
G1 X11.
G3 X9.484 Y44.874 R1.75
X9.509 Y44.639 R0.2
G1 X11.449 Y42.515
G3 X11.694 Y42.475 R0.2
X10.306 Y44.964 Z-15.956 R1.425
X11.694 Y42.475 Z-16.113 R1.425
X10.306 Y44.964 Z-16.269 R1.425
X11. Y42.295 Z-16.4 R1.425
Y44.528 R1.116
Y43.472 R0.528
G1 X14.
G3 Y44.528 R0.528
G1 X11.
G2 X10.288 Y44.904 R0.861
G3 X9.484 Y44.874 R0.475
X11. Y42.25 R1.75
G1 X14.
G3 Y45.75 R1.75
G1 X11.
G3 X9.484 Y44.874 R1.75
X9.509 Y44.639 R0.2
G1 X11.449 Y42.515
G3 X11.694 Y42.475 R0.2
X10.306 Y44.964 Z-16.556 R1.425
X11.694 Y42.475 Z-16.713 R1.425
X10.306 Y44.964 Z-16.869 R1.425
X11. Y42.295 Z-17. R1.425
Y44.528 R1.116
Y43.472 R0.528
G1 X14.
G3 Y44.528 R0.528
G1 X11.
G2 X10.288 Y44.904 R0.861
G3 X9.484 Y44.874 R0.475
X11. Y42.25 R1.75
G1 X14.
G3 Y45.75 R1.75
G1 X11.
G3 X9.484 Y44.874 R1.75
X9.509 Y44.639 R0.2
G1 X11.449 Y42.515
G3 X11.694 Y42.475 R0.2
X10.306 Y44.964 Z-17.156 R1.425
X11.694 Y42.475 Z-17.313 R1.425
X10.306 Y44.964 Z-17.469 R1.425
X11. Y42.295 Z-17.6 R1.425
Y44.528 R1.116
Y43.472 R0.528
G1 X14.
G3 Y44.528 R0.528
G1 X11.
G2 X10.288 Y44.904 R0.861
G3 X9.484 Y44.874 R0.475
X11. Y42.25 R1.75
G1 X14.
G3 Y45.75 R1.75
G1 X11.
G3 X9.484 Y44.874 R1.75
X9.509 Y44.639 R0.2
G1 X11.449 Y42.515
G3 X11.694 Y42.475 R0.2
X10.306 Y44.964 Z-17.756 R1.425
X11.694 Y42.475 Z-17.913 R1.425
X10.306 Y44.964 Z-18.069 R1.425
X11. Y42.295 Z-18.2 R1.425
Y44.528 R1.116
Y43.472 R0.528
G1 X14.
G3 Y44.528 R0.528
G1 X11.
G2 X10.288 Y44.904 R0.861
G3 X9.484 Y44.874 R0.475
X11. Y42.25 R1.75
G1 X14.
G3 Y45.75 R1.75
G1 X11.
G3 X9.484 Y44.874 R1.75
X9.509 Y44.639 R0.2
G1 X11.449 Y42.515
G3 X11.694 Y42.475 R0.2
X10.306 Y44.964 Z-18.356 R1.425
X11.694 Y42.475 Z-18.513 R1.425
X10.306 Y44.964 Z-18.669 R1.425
X11. Y42.295 Z-18.8 R1.425
Y44.528 R1.116
Y43.472 R0.528
G1 X14.
G3 Y44.528 R0.528
G1 X11.
G2 X10.288 Y44.904 R0.861
G3 X9.484 Y44.874 R0.475
X11. Y42.25 R1.75
G1 X14.
G3 Y45.75 R1.75
G1 X11.
G3 X9.484 Y44.874 R1.75
X9.509 Y44.639 R0.2
G1 X11.449 Y42.515
G3 X11.694 Y42.475 R0.2
X10.306 Y44.964 Z-18.956 R1.425
X11.694 Y42.475 Z-19.113 R1.425
X10.306 Y44.964 Z-19.269 R1.425
X11. Y42.295 Z-19.4 R1.425
Y44.528 R1.116
Y43.472 R0.528
G1 X14.
G3 Y44.528 R0.528
G1 X11.
G2 X10.288 Y44.904 R0.861
G3 X9.484 Y44.874 R0.475
X11. Y42.25 R1.75
G1 X14.
G3 Y45.75 R1.75
G1 X11.
G3 X9.484 Y44.874 R1.75
X9.509 Y44.639 R0.2
G1 X11.449 Y42.515
G3 X11.694 Y42.475 R0.2
X10.306 Y44.964 Z-19.556 R1.425
X11.694 Y42.475 Z-19.713 R1.425
X10.306 Y44.964 Z-19.869 R1.425
X11. Y42.295 Z-20. R1.425
Y44.528 R1.116
Y43.472 R0.528
G1 X14.
G3 Y44.528 R0.528
G1 X11.
G2 X10.288 Y44.904 R0.861
G3 X9.484 Y44.874 R0.475
X11. Y42.25 R1.75
G1 X14.
G3 Y45.75 R1.75
G1 X11.
G3 X9.484 Y44.874 R1.75
X9.651 Y44.574 R0.2
G1 X11.709 Y44.514
G3 X11.831 Y44.877 R0.2
X10.169 Y42.562 Z-20.156 R1.425
X11.831 Y44.877 Z-20.313 R1.425
X10.169 Y42.562 Z-20.469 R1.425
X11. Y42.295 Z-20.5 R1.425
Y44.528 R1.116
Y43.472 R0.528
G1 X14.
G3 Y44.528 R0.528
G1 X11.
G2 X10.288 Y44.904 R0.861
G3 X9.484 Y44.874 R0.475
X11. Y42.25 R1.75
G1 X14.
G3 Y45.75 R1.75
G1 X11.
G3 X9.484 Y44.874 R1.75
X9.447 Y44.766 Z-20.477 R0.3
X9.449 Y44.669 Z-20.412 R0.3
X9.468 Y44.607 Z-20.315 R0.3
X9.477 Y44.586 Z-20.2 R0.3
G0 Z5.
X11.465 Y4.372
Z-5.2
G3 X11.501 Y4.386 Z-5.347 R1.425 F470.
X11.598 Y4.426 Z-5.456 R1.425
X11.727 Y4.494 Z-5.5 R1.425
X10.273 Y6.945 Z-5.656 R1.425
X11.727 Y4.494 Z-5.813 R1.425
X10.273 Y6.945 Z-5.969 R1.425
X11.727 Y4.494 Z-6.125 R1.425
X10.273 Y6.945 Z-6.282 R1.425
X11.727 Y4.494 Z-6.438 R1.425
X10.273 Y6.945 Z-6.594 R1.425
X11.727 Y4.494 Z-6.751 R1.425
X10.273 Y6.945 Z-6.907 R1.425
X11.727 Y4.494 Z-7.063 R1.425
X10.273 Y6.945 Z-7.22 R1.425
X11.727 Y4.494 Z-7.376 R1.425
X10.273 Y6.945 Z-7.532 R1.425
X11.727 Y4.494 Z-7.689 R1.425
X10.273 Y6.945 Z-7.845 R1.425
X11.727 Y4.494 Z-8.001 R1.425
X10.273 Y6.945 Z-8.158 R1.425
X11.727 Y4.494 Z-8.314 R1.425
X10.273 Y6.945 Z-8.47 R1.425
X11. Y4.295 Z-8.6 R1.425
Y6.528 R1.116
Y5.472 R0.528
G1 X14.
G3 Y6.528 R0.528
G1 X11.
G2 X10.288 Y6.904 R0.861
G3 X9.484 Y6.874 R0.475
X11. Y4.25 R1.75
G1 X14.
G3 Y7.75 R1.75
G1 X11.
